; Generated by Spark Print Studio Date: 2015 09 09 Time: 09 52
; --------------------------------
; Selected Profile: Replicator2, Standard
; Selected Printer: Replicator 2
; Selected Material: PLA 1.75 mm
; --------------------------------
M136; start print
G161 Z F900; home Z axis minimum
G92 X0.000 Y0.000 Z-5.000 A0 B0; set Z to -5
G1 Z0.0 F900; move Z to '0'
G161 Z F100; home Z axis minimum
M132 Z A B; recall stored home offsets for XYZAB axis
G92 X0.000 Y0.000 Z0.000 A0 B0; set coordinates
G1 X0.000 Y0.000 Z10.000 F1800; lower build plate before homing
G162 X Y F2000; home XY
M132 X Y A B; recall stored home offsets for XYZAB axis
G92 X293.000 Y153.000 Z10.000 A0 B0; set coordinates
M104 S220 T0; wait for nozzle to reach temperature
G130 X20 Y20 A20 B20; lower stepper vrefs while heating
M133 T0; wait for nozzle to reach temperature
G130 X127 Y127 A127 B127; set stepper motor vref to defaults
; --------------------------------
; Layer 0
G92 A0 B0; reset extrusion distance
M127 T0; turn off fan
M73 P0; progress
; rapid-dry
G1 A-1.00000 F1800; retract filament
G1 X5.377 Y109.033 Z0.300 F5400; rapid
G1 A0.00000 F1800; engage filament
; bead-prime
G1 X285.000 Y109.033 Z0.300 F2400 A27.90092
; rapid-dry
G1 A26.90092 F1800; retract filament
G1 X170.345 Y74.479 Z0.300 F5400; rapid
G1 A27.90092 F1800; engage filament
; bead-skirt/brim
G1 X168.428 Y77.347 Z0.300 F2100 A28.07302
G1 X165.560 Y79.264 Z0.300 F2100 A28.24512
G1 X162.718 Y79.829 Z0.300 F2100 A28.38967
G1 X162.781 Y80.123 Z0.300 F2100 A28.40468
G1 X162.995 Y80.443 Z0.300 F2100 A28.42388
G1 X163.668 Y83.826 Z0.300 F2100 A28.59597
G1 X162.995 Y87.210 Z0.300 F2100 A28.76807
G1 X161.078 Y90.078 Z0.300 F2100 A28.94017
G1 X159.852 Y90.897 Z0.300 F2100 A29.01373
G1 X159.320 Y93.575 Z0.300 F2100 A29.14995
G1 X157.403 Y96.443 Z0.300 F2100 A29.32204
G1 X154.535 Y98.360 Z0.300 F2100 A29.49414
G1 X151.152 Y99.033 Z0.300 F2100 A29.66624
G1 X147.768 Y98.360 Z0.300 F2100 A29.83834
G1 X147.477 Y98.165 Z0.300 F2100 A29.85584
G1 X147.185 Y98.360 Z0.300 F2100 A29.87335
G1 X143.802 Y99.033 Z0.300 F2100 A30.04545
G1 X140.418 Y98.360 Z0.300 F2100 A30.21754
G1 X140.127 Y98.165 Z0.300 F2100 A30.23505
G1 X139.835 Y98.360 Z0.300 F2100 A30.25256
G1 X136.452 Y99.033 Z0.300 F2100 A30.42466
G1 X133.102 Y98.366 Z0.300 F2100 A30.59505
G1 X132.662 Y98.454 Z0.300 F2100 A30.61742
G1 X129.279 Y97.781 Z0.300 F2100 A30.78951
G1 X126.411 Y95.864 Z0.300 F2100 A30.96161
G1 X124.494 Y92.996 Z0.300 F2100 A31.13371
G1 X123.822 Y89.613 Z0.300 F2100 A31.30580
G1 X123.870 Y89.370 Z0.300 F2100 A31.31813
G1 X122.208 Y86.883 Z0.300 F2100 A31.46737
G1 X121.955 Y85.613 Z0.300 F2100 A31.53199
G1 X121.017 Y84.209 Z0.300 F2100 A31.61620
G1 X120.465 Y81.430 Z0.300 F2100 A31.75759
G1 X120.409 Y81.347 Z0.300 F2100 A31.76259
G1 X119.736 Y77.963 Z0.300 F2100 A31.93468
G1 X120.027 Y76.500 Z0.300 F2100 A32.00912
G1 X119.736 Y75.037 Z0.300 F2100 A32.08356
G1 X120.409 Y71.653 Z0.300 F2100 A32.25566
G1 X120.465 Y71.570 Z0.300 F2100 A32.26066
G1 X121.017 Y68.791 Z0.300 F2100 A32.40205
G1 X121.955 Y67.387 Z0.300 F2100 A32.48626
G1 X122.208 Y66.117 Z0.300 F2100 A32.55088
G1 X124.124 Y63.249 Z0.300 F2100 A32.72297
G1 X126.992 Y61.332 Z0.300 F2100 A32.89507
G1 X127.923 Y61.147 Z0.300 F2100 A32.94239
G1 X129.720 Y60.563 Z0.300 F2100 A33.03668
G1 X129.048 Y59.054 Z0.300 F2100 A33.11912
G1 X130.352 Y58.915 Z0.300 F2100 A33.18456
G1 X130.241 Y58.665 Z0.300 F2100 A33.19824
G1 X131.546 Y58.527 Z0.300 F2100 A33.26371
G1 X131.434 Y58.277 Z0.300 F2100 A33.27739
G1 X133.937 Y58.014 Z0.300 F2100 A33.40296
G1 X133.576 Y56.526 Z0.300 F2100 A33.47935
G1 X135.102 Y56.686 Z0.300 F2100 A33.55590
G1 X135.042 Y56.417 Z0.300 F2100 A33.56964
G1 X138.942 Y56.827 Z0.300 F2100 A33.76528
G1 X139.309 Y54.982 Z0.300 F2100 A33.85915
G1 X141.225 Y52.114 Z0.300 F2100 A34.03124
G1 X144.093 Y50.197 Z0.300 F2100 A34.20334
G1 X147.477 Y49.524 Z0.300 F2100 A34.37543
G1 X150.860 Y50.197 Z0.300 F2100 A34.54753
G1 X153.728 Y52.114 Z0.300 F2100 A34.71963
G1 X155.645 Y54.982 Z0.300 F2100 A34.89173
G1 X156.318 Y58.365 Z0.300 F2100 A35.06382
G1 X155.645 Y61.749 Z0.300 F2100 A35.23592
G1 X155.474 Y62.004 Z0.300 F2100 A35.25126
G1 X157.996 Y63.461 Z0.300 F2100 A35.39658
G1 X158.793 Y62.928 Z0.300 F2100 A35.44440
G1 X162.177 Y62.255 Z0.300 F2100 A35.61650
G1 X165.560 Y62.928 Z0.300 F2100 A35.78860
G1 X168.428 Y64.844 Z0.300 F2100 A35.96070
G1 X170.345 Y67.713 Z0.300 F2100 A36.13279
G1 X171.018 Y71.096 Z0.300 F2100 A36.30489
G1 X170.345 Y74.479 Z0.300 F2100 A36.47699
; bead-skirt_brim
; rapid-wet
G1 X169.968 Y74.323 Z0.300 F5400
; bead-skirt/brim
G1 X168.140 Y77.059 Z0.300 F2100 A36.64115
G1 X165.404 Y78.887 Z0.300 F2100 A36.80531
G1 X162.243 Y79.516 Z0.300 F2100 A36.96611
G1 X162.405 Y80.282 Z0.300 F2100 A37.00517
G1 X162.618 Y80.599 Z0.300 F2100 A37.02424
G1 X163.260 Y83.826 Z0.300 F2100 A37.18840
G1 X162.618 Y87.054 Z0.300 F2100 A37.35255
G1 X160.790 Y89.789 Z0.300 F2100 A37.51671
G1 X159.492 Y90.656 Z0.300 F2100 A37.59456
G1 X158.943 Y93.419 Z0.300 F2100 A37.73508
G1 X157.115 Y96.155 Z0.300 F2100 A37.89924
G1 X154.379 Y97.983 Z0.300 F2100 A38.06340
G1 X151.152 Y98.625 Z0.300 F2100 A38.22755
G1 X147.925 Y97.983 Z0.300 F2100 A38.39172
G1 X147.477 Y97.684 Z0.300 F2100 A38.41859
G1 X147.029 Y97.983 Z0.300 F2100 A38.44546
G1 X143.802 Y98.625 Z0.300 F2100 A38.60962
G1 X140.575 Y97.983 Z0.300 F2100 A38.77377
G1 X140.127 Y97.684 Z0.300 F2100 A38.80065
G1 X139.679 Y97.983 Z0.300 F2100 A38.82752
G1 X136.452 Y98.625 Z0.300 F2100 A38.99168
G1 X133.225 Y97.983 Z0.300 F2100 A39.15583
G1 X133.168 Y97.945 Z0.300 F2100 A39.15921
G1 X132.662 Y98.046 Z0.300 F2100 A39.18495
G1 X129.435 Y97.404 Z0.300 F2100 A39.34911
G1 X126.699 Y95.576 Z0.300 F2100 A39.51326
G1 X124.871 Y92.840 Z0.300 F2100 A39.67742
G1 X124.229 Y89.613 Z0.300 F2100 A39.84158
G1 X124.294 Y89.286 Z0.300 F2100 A39.85820
G1 X122.585 Y86.727 Z0.300 F2100 A40.01174
G1 X122.332 Y85.457 Z0.300 F2100 A40.07636
G1 X121.394 Y84.053 Z0.300 F2100 A40.16057
G1 X120.841 Y81.274 Z0.300 F2100 A40.30196
G1 X120.786 Y81.191 Z0.300 F2100 A40.30695
G1 X120.144 Y77.963 Z0.300 F2100 A40.47111
G1 X120.435 Y76.500 Z0.300 F2100 A40.54555
G1 X120.144 Y75.037 Z0.300 F2100 A40.61999
G1 X120.786 Y71.809 Z0.300 F2100 A40.78415
G1 X120.841 Y71.726 Z0.300 F2100 A40.78914
G1 X121.394 Y68.947 Z0.300 F2100 A40.93053
G1 X122.332 Y67.543 Z0.300 F2100 A41.01474
G1 X122.585 Y66.273 Z0.300 F2100 A41.07936
G1 X124.413 Y63.537 Z0.300 F2100 A41.24352
G1 X127.148 Y61.709 Z0.300 F2100 A41.40768
G1 X128.024 Y61.535 Z0.300 F2100 A41.45220
G1 X130.266 Y60.806 Z0.300 F2100 A41.56984
G1 X129.637 Y59.393 Z0.300 F2100 A41.64705
G1 X130.942 Y59.255 Z0.300 F2100 A41.71250
G1 X130.830 Y59.005 Z0.300 F2100 A41.72619
G1 X132.135 Y58.868 Z0.300 F2100 A41.79166
G1 X132.023 Y58.617 Z0.300 F2100 A41.80534
G1 X134.434 Y58.364 Z0.300 F2100 A41.92625
G1 X134.099 Y56.983 Z0.300 F2100 A41.99714
G1 X135.611 Y57.142 Z0.300 F2100 A42.07301
G1 X135.555 Y56.873 Z0.300 F2100 A42.08669
G1 X139.263 Y57.263 Z0.300 F2100 A42.27271
G1 X139.686 Y55.138 Z0.300 F2100 A42.38081
G1 X141.514 Y52.402 Z0.300 F2100 A42.54497
G1 X144.250 Y50.574 Z0.300 F2100 A42.70913
G1 X147.477 Y49.932 Z0.300 F2100 A42.87328
G1 X150.704 Y50.574 Z0.300 F2100 A43.03744
G1 X153.440 Y52.402 Z0.300 F2100 A43.20160
G1 X155.268 Y55.138 Z0.300 F2100 A43.36575
G1 X155.910 Y58.365 Z0.300 F2100 A43.52991
G1 X155.268 Y61.592 Z0.300 F2100 A43.69406
G1 X154.936 Y62.088 Z0.300 F2100 A43.72382
G1 X155.020 Y62.204 Z0.300 F2100 A43.73096
G1 X158.012 Y63.931 Z0.300 F2100 A43.90329
G1 X158.950 Y63.305 Z0.300 F2100 A43.95955
G1 X162.177 Y62.663 Z0.300 F2100 A44.12371
G1 X165.404 Y63.305 Z0.300 F2100 A44.28786
G1 X168.140 Y65.133 Z0.300 F2100 A44.45202
G1 X169.968 Y67.869 Z0.300 F2100 A44.61617
G1 X170.610 Y71.096 Z0.300 F2100 A44.78033
G1 X169.968 Y74.323 Z0.300 F2100 A44.94449
; bead-skirt_brim
; rapid-dry
G1 A43.94449 F1800; retract filament
G1 X165.069 Y72.294 Z0.300 F5400; rapid
G1 A44.94449 F1800; engage filament
; bead-support
G1 X164.391 Y73.310 Z0.300 F2100 A45.00544
G1 X163.375 Y73.989 Z0.300 F2100 A45.06638
G1 X162.177 Y74.227 Z0.300 F2100 A45.12733
G1 X160.979 Y73.989 Z0.300 F2100 A45.18829
G1 X159.963 Y73.310 Z0.300 F2100 A45.24923
G1 X159.284 Y72.294 Z0.300 F2100 A45.31018
G1 X159.046 Y71.096 Z0.300 F2100 A45.37113
G1 X159.284 Y69.898 Z0.300 F2100 A45.43208
G1 X159.963 Y68.882 Z0.300 F2100 A45.49303
G1 X160.979 Y68.203 Z0.300 F2100 A45.55398
G1 X162.177 Y67.965 Z0.300 F2100 A45.61493
G1 X163.375 Y68.203 Z0.300 F2100 A45.67588
G1 X164.391 Y68.882 Z0.300 F2100 A45.73683
G1 X165.069 Y69.898 Z0.300 F2100 A45.79778
G1 X165.308 Y71.096 Z0.300 F2100 A45.85873
G1 X165.069 Y72.294 Z0.300 F2100 A45.91968
; rapid-wet
G1 X164.729 Y72.133 Z0.300 F5400
; bead-support
G1 X163.213 Y73.649 Z0.300 F2100 A46.02663
G1 X162.507 Y73.789 Z0.300 F2100 A46.06255
G1 X164.870 Y71.426 Z0.300 F2100 A46.22925
G1 X164.886 Y70.845 Z0.300 F2100 A46.25827
G1 X161.926 Y73.805 Z0.300 F2100 A46.46711
G1 X161.454 Y73.711 Z0.300 F2100 A46.49111
G1 X164.792 Y70.373 Z0.300 F2100 A46.72662
G1 X164.659 Y69.940 Z0.300 F2100 A46.74921
G1 X161.021 Y73.578 Z0.300 F2100 A47.00588
G1 X160.682 Y73.352 Z0.300 F2100 A47.02622
G1 X164.432 Y69.601 Z0.300 F2100 A47.29083
G1 X164.206 Y69.262 Z0.300 F2100 A47.31118
G1 X160.343 Y73.125 Z0.300 F2100 A47.58372
G1 X160.078 Y72.825 Z0.300 F2100 A47.60372
G1 X163.906 Y68.997 Z0.300 F2100 A47.87381
G1 X163.566 Y68.770 Z0.300 F2100 A47.89415
G1 X159.851 Y72.486 Z0.300 F2100 A48.15630
G1 X159.626 Y72.144 Z0.300 F2100 A48.17668
G1 X163.225 Y68.546 Z0.300 F2100 A48.43060
G1 X162.754 Y68.452 Z0.300 F2100 A48.45461
G1 X159.533 Y71.673 Z0.300 F2100 A48.68187
G1 X159.439 Y71.201 Z0.300 F2100 A48.70586
G1 X162.282 Y68.358 Z0.300 F2100 A48.90646
G1 X161.628 Y68.446 Z0.300 F2100 A48.93938
G1 X159.527 Y70.547 Z0.300 F2100 A49.08759
G1 X159.949 Y69.559 Z0.300 F2100 A49.14120
G1 X160.639 Y68.869 Z0.300 F2100 A49.18989
; rapid-dry
G1 A48.18989 F1800; retract filament
G1 X155.032 Y71.836 Z0.300 F5400; rapid
G1 A49.18989 F1800; engage filament
; bead-perimeter_inner
G1 X155.497 Y74.026 Z0.300 F2100 A49.30159
G1 X155.728 Y74.543 Z0.300 F2100 A49.32985
G1 X155.728 Y75.315 Z0.300 F2100 A49.36834
G1 X145.359 Y75.315 Z0.300 F2100 A49.88564
G1 X143.065 Y75.802 Z0.300 F2100 A50.00265
G1 X143.065 Y65.441 Z0.300 F2100 A50.51960
G1 X142.591 Y63.209 Z0.300 F2100 A50.63343
G1 X144.163 Y63.374 Z0.300 F2100 A50.71232
G1 X144.727 Y63.315 Z0.300 F2100 A50.74059
G1 X146.856 Y64.007 Z0.300 F2100 A50.85228
G1 X147.419 Y64.066 Z0.300 F2100 A50.88055
G1 X149.358 Y65.185 Z0.300 F2100 A50.99224
G1 X149.897 Y65.360 Z0.300 F2100 A51.02051
G1 X151.561 Y66.859 Z0.300 F2100 A51.13221
G1 X152.051 Y67.142 Z0.300 F2100 A51.16047
G1 X153.367 Y68.953 Z0.300 F2100 A51.27217
G1 X153.788 Y69.332 Z0.300 F2100 A51.30043
G1 X154.699 Y71.377 Z0.300 F2100 A51.41213
G1 X155.032 Y71.836 Z0.300 F2100 A51.44039
; rapid-wet
G1 X155.373 Y71.684 Z0.300 F5400
; bead-perimeter_outer
G1 X155.847 Y73.912 Z0.300 F1200 A51.55405
G1 X156.093 Y74.466 Z0.300 F1200 A51.58427
G1 X156.093 Y75.594 Z0.300 F1200 A51.64056
G1 X156.111 Y75.680 Z0.300 F1200 A51.64493
G1 X145.397 Y75.680 Z0.300 F1200 A52.17944
G1 X142.700 Y76.253 Z0.300 F1200 A52.31702
G1 X142.700 Y65.479 Z0.300 F1200 A52.85454
G1 X142.129 Y62.793 Z0.300 F1200 A52.99152
G1 X144.163 Y63.007 Z0.300 F1200 A53.09357
G1 X144.766 Y62.944 Z0.300 F1200 A53.12378
G1 X146.932 Y63.648 Z0.300 F1200 A53.23744
G1 X147.535 Y63.711 Z0.300 F1200 A53.26765
G1 X149.508 Y64.850 Z0.300 F1200 A53.38131
G1 X150.084 Y65.037 Z0.300 F1200 A53.41153
G1 X151.777 Y66.562 Z0.300 F1200 A53.52519
G1 X152.301 Y66.864 Z0.300 F1200 A53.55541
G1 X153.640 Y68.708 Z0.300 F1200 A53.66906
G1 X154.090 Y69.113 Z0.300 F1200 A53.69928
G1 X155.017 Y71.194 Z0.300 F1200 A53.81294
G1 X155.373 Y71.684 Z0.300 F1200 A53.84315
; bead-perim_outer
; rapid-wet
G1 X154.691 Y71.988 Z0.300 F5400
; bead-solid_infill
G1 X151.730 Y74.950 Z0.300 F1200 A54.05209
G1 X151.164 Y74.950 Z0.300 F1200 A54.08031
G1 X154.454 Y71.661 Z0.300 F1200 A54.31239
G1 X154.260 Y71.288 Z0.300 F1200 A54.33331
G1 X150.599 Y74.950 Z0.300 F1200 A54.59163
G1 X150.033 Y74.950 Z0.300 F1200 A54.61985
G1 X154.086 Y70.897 Z0.300 F1200 A54.90578
G1 X153.911 Y70.506 Z0.300 F1200 A54.92716
G1 X149.467 Y74.950 Z0.300 F1200 A55.24072
G1 X148.902 Y74.950 Z0.300 F1200 A55.26894
G1 X153.737 Y70.114 Z0.300 F1200 A55.61011
G1 X153.563 Y69.723 Z0.300 F1200 A55.63148
G1 X148.336 Y74.950 Z0.300 F1200 A56.00027
G1 X147.770 Y74.950 Z0.300 F1200 A56.02850
G1 X153.319 Y69.401 Z0.300 F1200 A56.42000
G1 X153.036 Y69.118 Z0.300 F1200 A56.43996
G1 X147.205 Y74.950 Z0.300 F1200 A56.85141
G1 X146.639 Y74.950 Z0.300 F1200 A56.87963
G1 X152.798 Y68.790 Z0.300 F1200 A57.31421
G1 X152.560 Y68.463 Z0.300 F1200 A57.33441
G1 X146.073 Y74.950 Z0.300 F1200 A57.79210
G1 X145.507 Y74.950 Z0.300 F1200 A57.82032
G1 X152.322 Y68.135 Z0.300 F1200 A58.30112
G1 X152.084 Y67.808 Z0.300 F1200 A58.32133
G1 X144.840 Y75.052 Z0.300 F1200 A58.83247
G1 X144.121 Y75.205 Z0.300 F1200 A58.86910
G1 X151.846 Y67.480 Z0.300 F1200 A59.41413
G1 X151.510 Y67.250 Z0.300 F1200 A59.43444
G1 X143.430 Y75.330 Z0.300 F1200 A60.00450
G1 X143.430 Y74.764 Z0.300 F1200 A60.03273
G1 X151.184 Y67.010 Z0.300 F1200 A60.57981
G1 X150.886 Y66.742 Z0.300 F1200 A60.59980
G1 X143.430 Y74.199 Z0.300 F1200 A61.12589
G1 X143.430 Y73.633 Z0.300 F1200 A61.15411
G1 X150.589 Y66.474 Z0.300 F1200 A61.65919
G1 X150.291 Y66.206 Z0.300 F1200 A61.67918
G1 X143.430 Y73.067 Z0.300 F1200 A62.16326
G1 X143.430 Y72.502 Z0.300 F1200 A62.19148
G1 X149.993 Y65.938 Z0.300 F1200 A62.65456
G1 X149.689 Y65.677 Z0.300 F1200 A62.67458
G1 X143.430 Y71.936 Z0.300 F1200 A63.11620
G1 X143.430 Y71.370 Z0.300 F1200 A63.14442
G1 X149.262 Y65.538 Z0.300 F1200 A63.55593
G1 X148.895 Y65.339 Z0.300 F1200 A63.57675
G1 X143.430 Y70.805 Z0.300 F1200 A63.96235
G1 X143.430 Y70.239 Z0.300 F1200 A63.99057
G1 X148.537 Y65.132 Z0.300 F1200 A64.35086
G1 X148.178 Y64.925 Z0.300 F1200 A64.37152
G1 X143.430 Y69.673 Z0.300 F1200 A64.70651
G1 X143.430 Y69.108 Z0.300 F1200 A64.73473
G1 X147.819 Y64.718 Z0.300 F1200 A65.04442
G1 X147.461 Y64.511 Z0.300 F1200 A65.06509
G1 X143.430 Y68.542 Z0.300 F1200 A65.34946
G1 X143.430 Y67.976 Z0.300 F1200 A65.37769
G1 X147.016 Y64.390 Z0.300 F1200 A65.63068
G1 X146.550 Y64.291 Z0.300 F1200 A65.65446
G1 X143.430 Y67.410 Z0.300 F1200 A65.87457
G1 X143.430 Y66.845 Z0.300 F1200 A65.90279
G1 X146.123 Y64.152 Z0.300 F1200 A66.09277
G1 X145.696 Y64.013 Z0.300 F1200 A66.11516
G1 X143.430 Y66.279 Z0.300 F1200 A66.27502
G1 X143.430 Y65.713 Z0.300 F1200 A66.30324
G1 X145.269 Y63.875 Z0.300 F1200 A66.43297
G1 X144.842 Y63.736 Z0.300 F1200 A66.45537
G1 X143.385 Y65.192 Z0.300 F1200 A66.55812
G1 X143.286 Y64.726 Z0.300 F1200 A66.58191
G1 X144.284 Y63.728 Z0.300 F1200 A66.65228
G1 X143.749 Y63.698 Z0.300 F1200 A66.67901
G1 X143.187 Y64.259 Z0.300 F1200 A66.71865
G1 X143.088 Y63.793 Z0.300 F1200 A66.74245
G1 X143.237 Y63.644 Z0.300 F1200 A66.75296
; bead-solid_infill
; rapid-dry
G1 A65.75296 F1800; retract filament
G1 X152.296 Y74.950 Z0.300 F5400; rapid
G1 A66.75296 F1800; engage filament
; bead-solid_infill
G1 X154.790 Y72.455 Z0.300 F1200 A66.92899
G1 X154.890 Y72.921 Z0.300 F1200 A66.95277
G1 X152.861 Y74.950 Z0.300 F1200 A67.09588
G1 X153.427 Y74.950 Z0.300 F1200 A67.12411
G1 X154.989 Y73.388 Z0.300 F1200 A67.23429
G1 X155.088 Y73.854 Z0.300 F1200 A67.25809
G1 X153.993 Y74.950 Z0.300 F1200 A67.33536
G1 X154.558 Y74.950 Z0.300 F1200 A67.36358
G1 X155.216 Y74.292 Z0.300 F1200 A67.41000
G1 X155.363 Y74.711 Z0.300 F1200 A67.43216
G1 X155.124 Y74.950 Z0.300 F1200 A67.44901
; bead-solid_infill
; rapid-dry
G1 A66.44901 F1800; retract filament
G1 X154.827 Y80.695 Z0.300 F5400; rapid
G1 A67.44901 F1800; engage filament
; bead-support
G1 X156.025 Y80.934 Z0.300 F2100 A67.50995
G1 X157.041 Y81.612 Z0.300 F2100 A67.57090
G1 X157.719 Y82.628 Z0.300 F2100 A67.63185
G1 X157.958 Y83.826 Z0.300 F2100 A67.69280
G1 X157.719 Y85.025 Z0.300 F2100 A67.75375
G1 X157.041 Y86.040 Z0.300 F2100 A67.81470
G1 X156.025 Y86.719 Z0.300 F2100 A67.87565
