; Generated by Spark Print Studio Date: 2015 09 09 Time: 09 52
; --------------------------------
; Selected Profile: Ultimaker, Standard
; Selected Printer: 2
; Selected Material: PLA 3.0 mm
; --------------------------------
G21; set units to millimeters
G90; use absolute spatial coordinates
M82; use absolute extrusion coordinates
G28 Z0.000; home Z
G1 Z10.000 F1800; lower build plate before homing
G28 X0.000 Y215.000; home XY
M190 S60; Set bed temp
M109 S230; wait for nozzle to reach temperature
; --------------------------------
; Layer 0
G92 E0; reset extrusion distance
M106 S0; turn off fan
; rapid-dry
G1 E-4.50000 F1500; retract filament
G1 X15.377 Y137.533 Z0.300 F9000; rapid
G1 E0.00000 F1500; engage filament
; bead-prime
G1 X215.377 E15.04844
; rapid-dry
G1 E10.54844 F1500; retract filament
G1 X140.345 Y102.979 F9000; rapid
G1 E15.04844 F1500; engage filament
; bead-skirt/brim
G1 X138.428 Y105.847 E15.11333
G1 X135.560 Y107.764 E15.17822
G1 X132.718 Y108.329 E15.23272
G1 X132.781 Y108.623 E15.23838
G1 X132.995 Y108.943 E15.24562
G1 X133.668 Y112.326 E15.31051
G1 X132.995 Y115.710 E15.37539
G1 X131.078 Y118.578 E15.44028
G1 X129.852 Y119.397 E15.46801
G1 X129.320 Y122.075 E15.51938
G1 X127.403 Y124.943 E15.58426
G1 X124.535 Y126.860 E15.64915
G1 X121.152 Y127.533 E15.71404
G1 X117.768 Y126.860 E15.77892
G1 X117.477 Y126.665 E15.78552
G1 X117.185 Y126.860 E15.79212
G1 X113.802 Y127.533 E15.85701
G1 X110.418 Y126.860 E15.92190
G1 X110.127 Y126.665 E15.92850
G1 X109.835 Y126.860 E15.93510
G1 X106.452 Y127.533 E15.99999
G1 X103.102 Y126.866 E16.06423
G1 X102.662 Y126.954 E16.07266
G1 X99.279 Y126.281 E16.13755
G1 X96.411 Y124.364 E16.20244
G1 X94.494 Y121.496 E16.26732
G1 X93.822 Y118.113 E16.33221
G1 X93.870 Y117.870 E16.33686
G1 X92.208 Y115.383 E16.39313
G1 X91.955 Y114.113 E16.41749
G1 X91.017 Y112.709 E16.44924
G1 X90.465 Y109.930 E16.50255
G1 X90.409 Y109.847 E16.50444
G1 X89.736 Y106.463 E16.56932
G1 X90.027 Y105.000 E16.59739
G1 X89.736 Y103.537 E16.62546
G1 X90.409 Y100.153 E16.69035
G1 X90.465 Y100.070 E16.69223
G1 X91.017 Y97.291 E16.74554
G1 X91.955 Y95.887 E16.77729
G1 X92.208 Y94.617 E16.80165
G1 X94.124 Y91.749 E16.86654
G1 X96.992 Y89.832 E16.93143
G1 X97.923 Y89.647 E16.94927
G1 X99.720 Y89.063 E16.98482
G1 X99.048 Y87.554 E17.01590
G1 X100.352 Y87.415 E17.04057
G1 X100.241 Y87.165 E17.04573
G1 X101.546 Y87.027 E17.07042
G1 X101.434 Y86.777 E17.07558
G1 X103.937 Y86.514 E17.12292
G1 X103.576 Y85.026 E17.15172
G1 X105.102 Y85.186 E17.18059
G1 X105.042 Y84.917 E17.18577
G1 X108.942 Y85.327 E17.25953
G1 X109.309 Y83.482 E17.29492
G1 X111.225 Y80.614 E17.35981
G1 X114.093 Y78.697 E17.42469
G1 X117.477 Y78.024 E17.48958
G1 X120.860 Y78.697 E17.55447
G1 X123.728 Y80.614 E17.61935
G1 X125.645 Y83.482 E17.68424
G1 X126.318 Y86.865 E17.74913
G1 X125.645 Y90.249 E17.81401
G1 X125.474 Y90.504 E17.81979
G1 X127.996 Y91.961 E17.87459
G1 X128.793 Y91.428 E17.89262
G1 X132.177 Y90.755 E17.95751
G1 X135.560 Y91.428 E18.02239
G1 X138.428 Y93.344 E18.08728
G1 X140.345 Y96.213 E18.15217
G1 X141.018 Y99.596 E18.21705
G1 X140.345 Y102.979 E18.28194
; bead-skirt_brim
; rapid-wet
G1 X139.968 Y102.823 F9000
; bead-skirt/brim
G1 X138.140 Y105.559 E18.34383 F1500
G1 X135.404 Y107.387 E18.40573
G1 X132.243 Y108.016 E18.46636
G1 X132.405 Y108.782 E18.48108
G1 X132.618 Y109.099 E18.48827
G1 X133.260 Y112.326 E18.55017
G1 X132.618 Y115.554 E18.61206
G1 X130.790 Y118.289 E18.67395
G1 X129.492 Y119.156 E18.70331
G1 X128.943 Y121.919 E18.75629
G1 X127.115 Y124.655 E18.81818
G1 X124.379 Y126.483 E18.88008
G1 X121.152 Y127.125 E18.94197
G1 X117.925 Y126.483 E19.00386
G1 X117.477 Y126.184 E19.01399
G1 X117.029 Y126.483 E19.02413
G1 X113.802 Y127.125 E19.08602
G1 X110.575 Y126.483 E19.14791
G1 X110.127 Y126.184 E19.15805
G1 X109.679 Y126.483 E19.16818
G1 X106.452 Y127.125 E19.23007
G1 X103.225 Y126.483 E19.29197
G1 X103.168 Y126.445 E19.29324
G1 X102.662 Y126.546 E19.30294
G1 X99.435 Y125.904 E19.36484
G1 X96.699 Y124.076 E19.42673
G1 X94.871 Y121.340 E19.48862
G1 X94.229 Y118.113 E19.55052
G1 X94.294 Y117.786 E19.55679
G1 X92.585 Y115.227 E19.61468
G1 X92.332 Y113.957 E19.63904
G1 X91.394 Y112.553 E19.67079
G1 X90.841 Y109.774 E19.72410
G1 X90.786 Y109.691 E19.72598
G1 X90.144 Y106.463 E19.78788
G1 X90.435 Y105.000 E19.81594
G1 X90.144 Y103.537 E19.84401
G1 X90.786 Y100.309 E19.90590
G1 X90.841 Y100.226 E19.90779
G1 X91.394 Y97.447 E19.96110
G1 X92.332 Y96.043 E19.99285
G1 X92.585 Y94.773 E20.01721
G1 X94.413 Y92.037 E20.07911
G1 X97.148 Y90.209 E20.14100
G1 X98.024 Y90.035 E20.15779
G1 X100.266 Y89.306 E20.20214
G1 X99.637 Y87.893 E20.23125
G1 X100.942 Y87.755 E20.25593
G1 X100.830 Y87.505 E20.26109
G1 X102.135 Y87.368 E20.28577
G1 X102.023 Y87.117 E20.29093
G1 X104.434 Y86.864 E20.33652
G1 X104.099 Y85.483 E20.36325
G1 X105.611 Y85.642 E20.39185
G1 X105.555 Y85.373 E20.39701
G1 X109.263 Y85.763 E20.46715
G1 X109.686 Y83.638 E20.50791
G1 X111.514 Y80.902 E20.56980
G1 X114.250 Y79.074 E20.63169
G1 X117.477 Y78.432 E20.69359
G1 X120.704 Y79.074 E20.75548
G1 X123.440 Y80.902 E20.81737
G1 X125.268 Y83.638 E20.87927
G1 X125.910 Y86.865 E20.94116
G1 X125.268 Y90.092 E21.00305
G1 X124.936 Y90.588 E21.01427
G1 X125.020 Y90.704 E21.01696
G1 X128.012 Y92.431 E21.08194
G1 X128.950 Y91.805 E21.10315
G1 X132.177 Y91.163 E21.16504
G1 X135.404 Y91.805 E21.22694
G1 X138.140 Y93.633 E21.28883
G1 X139.968 Y96.369 E21.35073
G1 X140.610 Y99.596 E21.41262
G1 X139.968 Y102.823 E21.47451
; bead-skirt_brim
; rapid-dry
G1 E16.97451 F1500; retract filament
G1 X135.069 Y100.794 F9000; rapid
G1 E21.47451 F1500; engage filament
; bead-support
G1 X134.391 Y101.810 E21.49749 F1800
G1 X133.375 Y102.489 E21.52047
G1 X132.177 Y102.727 E21.54346
G1 X130.979 Y102.489 E21.56644
G1 X129.963 Y101.810 E21.58942
G1 X129.284 Y100.794 E21.61240
G1 X129.046 Y99.596 E21.63538
G1 X129.284 Y98.398 E21.65836
G1 X129.963 Y97.382 E21.68134
G1 X130.979 Y96.703 E21.70432
G1 X132.177 Y96.465 E21.72730
G1 X133.375 Y96.703 E21.75029
G1 X134.391 Y97.382 E21.77327
G1 X135.069 Y98.398 E21.79625
G1 X135.308 Y99.596 E21.81923
G1 X135.069 Y100.794 E21.84221
; rapid-wet
G1 X134.729 Y100.633 F9000
; bead-support
G1 X133.213 Y102.149 E21.88254 F1800
G1 X132.507 Y102.289 E21.89608
G1 X134.870 Y99.926 E21.95893
G1 X134.886 Y99.345 E21.96987
G1 X131.926 Y102.305 E22.04862
G1 X131.454 Y102.211 E22.05767
G1 X134.792 Y98.873 E22.14646
G1 X134.659 Y98.440 E22.15498
G1 X131.021 Y102.078 E22.25175
G1 X130.682 Y101.852 E22.25943
G1 X134.432 Y98.101 E22.35919
G1 X134.206 Y97.762 E22.36687
G1 X130.343 Y101.625 E22.46963
G1 X130.078 Y101.325 E22.47717
G1 X133.906 Y97.497 E22.57900
G1 X133.566 Y97.270 E22.58667
G1 X129.851 Y100.986 E22.68551
G1 X129.626 Y100.644 E22.69319
G1 X133.225 Y97.046 E22.78893
G1 X132.754 Y96.952 E22.79798
G1 X129.533 Y100.173 E22.88367
G1 X129.439 Y99.701 E22.89272
G1 X132.282 Y96.858 E22.96835
G1 X131.628 Y96.946 E22.98076
G1 X129.527 Y99.047 E23.03665
G1 X129.949 Y98.059 E23.05686
G1 X130.639 Y97.369 E23.07522
; rapid-dry
G1 E18.57522 F1500; retract filament
G1 X125.032 Y100.336 F9000; rapid
G1 E23.07522 F1500; engage filament
; bead-perimeter_inner
G1 X125.497 Y102.526 E23.11733
G1 X125.728 Y103.043 E23.12799
G1 Y103.815 E23.14250
G1 X115.359 E23.33754
G1 X113.065 Y104.302 E23.38166
G1 Y93.941 E23.57657
G1 X112.591 Y91.709 E23.61949
G1 X114.163 Y91.874 E23.64923
G1 X114.727 Y91.815 E23.65989
G1 X116.856 Y92.507 E23.70200
G1 X117.419 Y92.566 E23.71266
G1 X119.358 Y93.685 E23.75477
G1 X119.897 Y93.860 E23.76543
G1 X121.561 Y95.359 E23.80754
G1 X122.051 Y95.642 E23.81820
G1 X123.367 Y97.453 E23.86031
G1 X123.788 Y97.832 E23.87097
G1 X124.699 Y99.877 E23.91308
G1 X125.032 Y100.336 E23.92374
; rapid-wet
G1 X125.373 Y100.184 F9000
; bead-perimeter_outer
G1 X125.847 Y102.412 E23.96659 F900
G1 X126.093 Y102.966 E23.97798
G1 Y104.094 E23.99921
G1 X126.111 Y104.180 E24.00085
G1 X115.397 E24.20239
G1 X112.700 Y104.753 E24.25426
G1 Y93.979 E24.45692
G1 X112.129 Y91.293 E24.50857
G1 X114.163 Y91.507 E24.54705
G1 X114.766 Y91.444 E24.55844
G1 X116.932 Y92.148 E24.60130
G1 X117.535 Y92.211 E24.61269
G1 X119.508 Y93.350 E24.65554
G1 X120.084 Y93.537 E24.66694
G1 X121.777 Y95.062 E24.70979
G1 X122.301 Y95.364 E24.72118
G1 X123.640 Y97.208 E24.76404
G1 X124.090 Y97.613 E24.77543
G1 X125.017 Y99.694 E24.81828
G1 X125.373 Y100.184 E24.82968
; bead-perim_outer
; rapid-wet
G1 X124.691 Y100.488 F9000
; bead-solid_infill
G1 X121.730 Y103.450 E24.90845 F900
G1 X121.164 E24.91909
G1 X124.454 Y100.161 E25.00660
G1 X124.260 Y99.788 E25.01448
G1 X120.599 Y103.450 E25.11188
G1 X120.033 E25.12252
G1 X124.086 Y99.397 E25.23033
G1 X123.911 Y99.006 E25.23839
G1 X119.467 Y103.450 E25.35661
G1 X118.902 E25.36725
G1 X123.737 Y98.614 E25.49588
G1 X123.563 Y98.223 E25.50394
G1 X118.336 Y103.450 E25.64299
G1 X117.770 E25.65363
G1 X123.319 Y97.901 E25.80124
G1 X123.036 Y97.618 E25.80877
G1 X117.205 Y103.450 E25.96390
G1 X116.639 E25.97454
G1 X122.798 Y97.290 E26.13839
G1 X122.560 Y96.963 E26.14601
G1 X116.073 Y103.450 E26.31857
G1 X115.507 E26.32921
G1 X122.322 Y96.635 E26.51049
G1 X122.084 Y96.308 E26.51811
G1 X114.840 Y103.552 E26.71083
G1 X114.121 Y103.705 E26.72464
G1 X121.846 Y95.980 E26.93014
G1 X121.510 Y95.750 E26.93780
G1 X113.430 Y103.830 E27.15273
G1 Y103.264 E27.16337
G1 X121.184 Y95.510 E27.36965
G1 X120.886 Y95.242 E27.37718
G1 X113.430 Y102.699 E27.57553
G1 Y102.133 E27.58618
G1 X120.589 Y94.974 E27.77661
G1 X120.291 Y94.706 E27.78415
G1 X113.430 Y101.567 E27.96667
G1 Y101.002 E27.97731
G1 X119.993 Y94.438 E28.15191
G1 X119.689 Y94.177 E28.15945
G1 X113.430 Y100.436 E28.32596
G1 Y99.870 E28.33660
G1 X119.262 Y94.038 E28.49175
G1 X118.895 Y93.839 E28.49960
G1 X113.430 Y99.305 E28.64499
G1 Y98.739 E28.65563
G1 X118.537 Y93.632 E28.79147
G1 X118.178 Y93.425 E28.79926
G1 X113.430 Y98.173 E28.92557
G1 Y97.608 E28.93621
G1 X117.819 Y93.218 E29.05297
G1 X117.461 Y93.011 E29.06076
G1 X113.430 Y97.042 E29.16798
G1 Y96.476 E29.17862
G1 X117.016 Y92.890 E29.27401
G1 X116.550 Y92.791 E29.28297
G1 X113.430 Y95.910 E29.36596
G1 Y95.345 E29.37660
G1 X116.123 Y92.652 E29.44823
G1 X115.696 Y92.513 E29.45668
G1 X113.430 Y94.779 E29.51695
G1 Y94.213 E29.52759
G1 X115.269 Y92.375 E29.57651
G1 X114.842 Y92.236 E29.58495
G1 X113.385 Y93.692 E29.62369
G1 X113.286 Y93.226 E29.63266
G1 X114.284 Y92.228 E29.65920
G1 X113.749 Y92.198 E29.66927
G1 X113.187 Y92.759 E29.68422
G1 X113.088 Y92.293 E29.69319
G1 X113.237 Y92.144 E29.69715
; bead-solid_infill
; rapid-dry
G1 E25.19715 F1500; retract filament
G1 X122.296 Y103.450 F9000; rapid
G1 E29.69715 F1500; engage filament
; bead-solid_infill
G1 X124.790 Y100.955 E29.76352 F900
G1 X124.890 Y101.421 E29.77249
G1 X122.861 Y103.450 E29.82645
G1 X123.427 E29.83709
G1 X124.989 Y101.888 E29.87863
G1 X125.088 Y102.354 E29.88760
G1 X123.993 Y103.450 E29.91674
G1 X124.558 E29.92738
G1 X125.216 Y102.792 E29.94488
G1 X125.363 Y103.211 E29.95323
G1 X125.124 Y103.450 E29.95958
; bead-solid_infill
; rapid-dry
G1 E25.45958 F1500; retract filament
G1 X124.827 Y109.195 F9000; rapid
G1 E29.95958 F1500; engage filament
; bead-support
G1 X126.025 Y109.434 E29.98256 F1800
G1 X127.041 Y110.112 E30.00555
G1 X127.719 Y111.128 E30.02853
G1 X127.958 Y112.326 E30.05151
G1 X127.719 Y113.525 E30.07449
G1 X127.041 Y114.540 E30.09747
G1 X126.025 Y115.219 E30.12045
G1 X124.827 Y115.458 E30.14343
G1 X123.629 Y115.219 E30.16641
G1 X122.613 Y114.540 E30.18940
G1 X121.934 Y113.525 E30.21238
G1 X121.696 Y112.326 E30.23536
G1 X121.934 Y111.128 E30.25834
G1 X122.613 Y110.112 E30.28132
G1 X123.629 Y109.434 E30.30430
G1 X124.827 Y109.195 E30.32728
; rapid-wet
G1 X123.916 Y109.749 F9000
; bead-support
G1 X122.249 Y111.416 E30.37164 F1800
; rapid-wet
G1 X124.623 Y109.608 F9000
; bead-support
G1 X122.108 Y112.122 E30.43852 F1800
G1 X122.135 Y112.662 E30.44868
G1 X125.162 Y109.634 E30.52922
G1 X125.634 Y109.728 E30.53827
G1 X122.228 Y113.134 E30.62887
G1 X122.385 Y113.543 E30.63711
G1 X126.043 Y109.885 E30.73442
G1 X126.382 Y110.111 E30.74209
G1 X122.612 Y113.882 E30.84240
G1 X122.838 Y114.221 E30.85007
G1 X126.721 Y110.338 E30.95337
G1 X126.966 Y110.658 E30.96096
G1 X123.159 Y114.466 E31.06226
G1 X123.498 Y114.693 E31.06993
G1 X127.193 Y110.997 E31.16823
G1 X127.394 Y111.362 E31.17607
G1 X123.863 Y114.894 E31.27001
G1 X124.334 Y114.987 E31.27906
G1 X127.488 Y111.834 E31.36294
G1 X127.582 Y112.306 E31.37199
G1 X124.806 Y115.081 E31.44583
G1 X125.502 Y114.951 E31.45914
G1 X127.451 Y113.002 E31.51099
G1 X126.850 Y114.169 E31.53569
G1 X126.669 Y114.350 E31.54050
; rapid-dry
G1 E27.04050 F1500; retract filament
G1 X122.350 Y115.799 F9000; rapid
G1 E31.54050 F1500; engage filament
; bead-support
G1 X123.366 Y116.478 E31.56348 F1800
G1 X124.044 Y117.494 E31.58647
G1 X124.283 Y118.692 E31.60945
G1 X124.044 Y119.890 E31.63243
G1 X123.366 Y120.906 E31.65541
G1 X122.350 Y121.584 E31.67839
G1 X121.152 Y121.823 E31.70137
G1 X119.954 Y121.584 E31.72435
G1 X118.938 Y120.906 E31.74733
G1 X118.259 Y119.890 E31.77032
G1 X118.021 Y118.692 E31.79330
G1 X118.259 Y117.494 E31.81628
G1 X118.938 Y116.478 E31.83926
G1 X119.954 Y115.799 E31.86224
G1 X121.152 Y115.561 E31.88522
G1 X122.350 Y115.799 E31.90820
; rapid-wet
G1 X122.790 Y116.532 F9000
; bead-support
G1 X118.992 Y120.330 E32.00924 F1800
G1 X119.227 Y120.660 E32.01686
G1 X123.120 Y116.767 E32.12043
G1 X123.347 Y117.106 E32.12810
G1 X119.566 Y120.887 E32.22867
G1 X119.905 Y121.113 E32.23634
G1 X123.573 Y117.445 E32.33392
G1 X123.742 Y117.843 E32.34203
G1 X120.303 Y121.282 E32.43352
G1 X120.775 Y121.376 E32.44257
G1 X123.836 Y118.315 E32.52400
G1 X123.882 Y118.833 E32.53379
G1 X121.293 Y121.422 E32.60267
G1 X122.000 Y121.282 E32.61621
G1 X123.742 Y119.540 E32.66256
; rapid-dry
G1 E28.16256 F1500; retract filament
G1 X122.451 Y116.305 F9000; rapid
G1 E32.66256 F1500; engage filament
; bead-support
G1 X118.765 Y119.991 E32.76060 F1800
G1 X118.576 Y119.614 E32.76853
G1 X122.074 Y116.116 E32.86158
G1 X121.602 Y116.022 E32.87063
G1 X118.482 Y119.142 E32.95363
G1 X118.399 Y118.660 E32.96283
G1 X121.120 Y115.939 E33.03522
G1 X120.414 Y116.080 E33.04876
G1 X118.540 Y117.954 E33.09862
; rapid-dry
G1 E28.59862 F1500; retract filament
G1 X116.933 Y118.692 F9000; rapid
G1 E33.09862 F1500; engage filament
; bead-support
G1 X116.694 Y119.890 E33.12160 F1800
G1 X116.016 Y120.906 E33.14458
G1 X115.000 Y121.584 E33.16756
G1 X113.802 Y121.823 E33.19054
G1 X112.604 Y121.584 E33.21352
G1 X111.588 Y120.906 E33.23651
G1 X110.909 Y119.890 E33.25949
G1 X110.671 Y118.692 E33.28247
G1 X110.909 Y117.494 E33.30545
G1 X111.588 Y116.478 E33.32843
G1 X112.604 Y115.799 E33.35141
G1 X113.802 Y115.561 E33.37439
G1 X115.000 Y115.799 E33.39737
G1 X116.016 Y116.478 E33.42036
G1 X116.694 Y117.494 E33.44334
G1 X116.933 Y118.692 E33.46632
; rapid-wet
G1 X116.393 Y119.535 F9000
; bead-support
G1 X114.645 Y121.283 E33.51283 F1800
; rapid-wet
G1 X116.533 Y118.829 F9000
; bead-support
G1 X113.939 Y121.423 E33.58185 F1800
G1 X113.421 Y121.375 E33.59162
G1 X116.485 Y118.311 E33.67312
G1 X116.391 Y117.840 E33.68217
G1 X112.950 Y121.281 E33.77373
G1 X112.553 Y121.112 E33.78184
G1 X116.222 Y117.443 E33.87943
G1 X115.995 Y117.104 E33.88710
G1 X112.214 Y120.885 E33.98769
G1 X111.875 Y120.659 E33.99537
G1 X115.769 Y116.765 E34.09895
G1 X115.438 Y116.530 E34.10658
G1 X111.640 Y120.328 E34.20759
G1 X111.414 Y119.988 E34.21526
G1 X115.098 Y116.304 E34.31328
G1 X114.721 Y116.116 E34.32122
G1 X111.226 Y119.611 E34.41420
G1 X111.132 Y119.139 E34.42325
G1 X114.249 Y116.022 E34.50617
G1 X113.765 Y115.940 E34.51541
G1 X111.050 Y118.655 E34.58763
G1 X111.191 Y117.949 E34.60117
G1 X113.059 Y116.081 E34.65088
; rapid-dry
G1 E30.15088 F1500; retract filament
G1 X109.344 Y119.890 F9000; rapid
G1 E34.65088 F1500; engage filament
; bead-support
G1 X108.666 Y120.906 E34.67386 F1800
G1 X107.650 Y121.584 E34.69684
G1 X106.452 Y121.823 E34.71982
G1 X105.254 Y121.584 E34.74280
G1 X104.124 Y120.830 E34.76836
G1 X103.861 Y121.006 E34.77431
G1 X102.662 Y121.244 E34.79729
G1 X101.464 Y121.006 E34.82028
G1 X100.448 Y120.327 E34.84326
