; Generated by Spark Print Studio Date: 2015 09 09 Time: 09 52
; --------------------------------
; Selected Profile: Replicator2, Standard
; Selected Printer: Replicator 2
; Selected Material: PLA 1.75 mm
; --------------------------------
M136; start print
G161 Z F900; home Z axis minimum
G92 X0.000 Y0.000 Z-5.000 A0 B0; set Z to -5
G1 Z0.0 F900; move Z to '0'
G161 Z F100; home Z axis minimum
M132 Z A B; recall stored home offsets for XYZAB axis
G92 X0.000 Y0.000 Z0.000 A0 B0; set coordinates
G1 X0.000 Y0.000 Z10.000 F1800; lower build plate before homing
G162 X Y F2000; home XY
M132 X Y A B; recall stored home offsets for XYZAB axis
G92 X293.000 Y153.000 Z10.000 A0 B0; set coordinates
M104 S220 T0; wait for nozzle to reach temperature
G130 X20 Y20 A20 B20; lower stepper vrefs while heating
M133 T0; wait for nozzle to reach temperature
G130 X127 Y127 A127 B127; set stepper motor vref to defaults
; --------------------------------
; Layer 0
G92 A0 B0; reset extrusion distance
M127 T0; turn off fan
M73 P0; progress
; rapid-dry
G1 A-1.00000 F1800; retract filament
G1 X5.000 Y31.100 Z0.300 F5400; rapid
G1 A0.00000 F1800; engage filament
; bead-prime
G1 X285.000 Y31.100 Z0.300 F2400 A27.93851
; rapid-dry
G1 A26.93851 F1800; retract filament
G1 X177.900 Y41.100 Z0.300 F5400; rapid
G1 A27.93851 F1800; engage filament
; bead-skirt/brim
G1 X177.900 Y111.900 Z0.300 F2100 A31.47074
G1 X107.100 Y111.900 Z0.300 F2100 A35.00297
G1 X107.100 Y41.100 Z0.300 F2100 A38.53519
G1 X177.900 Y41.100 Z0.300 F2100 A42.06742
; bead-skirt_brim
; rapid-wet
G1 X177.500 Y41.500 Z0.300 F5400
; bead-skirt/brim
G1 X177.500 Y111.500 Z0.300 F2100 A45.55973
G1 X107.500 Y111.500 Z0.300 F2100 A49.05204
G1 X107.500 Y41.500 Z0.300 F2100 A52.54436
G1 X177.500 Y41.500 Z0.300 F2100 A56.03667
; bead-skirt_brim
; rapid-dry
G1 A55.03667 F1800; retract filament
G1 X171.935 Y47.065 Z0.300 F5400; rapid
G1 A56.03667 F1800; engage filament
; bead-perimeter_inner
G1 X171.935 Y105.935 Z0.300 F2100 A58.97370
G1 X113.065 Y105.935 Z0.300 F2100 A61.91074
G1 X113.065 Y47.065 Z0.300 F2100 A64.84778
G1 X171.935 Y47.065 Z0.300 F2100 A67.78481
; rapid-wet
G1 X172.300 Y46.700 Z0.300 F5400
; bead-perimeter_outer
G1 X172.300 Y106.300 Z0.300 F1200 A70.75827
G1 X112.700 Y106.300 Z0.300 F1200 A73.73172
G1 X112.700 Y46.700 Z0.300 F1200 A76.70518
G1 X172.300 Y46.700 Z0.300 F1200 A79.67863
; bead-perim_outer
; rapid-wet
G1 X113.490 Y47.430 Z0.300 F5400
; bead-solid_infill
G1 X113.430 Y47.490 Z0.300 F1200 A79.68284
G1 X113.430 Y48.055 Z0.300 F1200 A79.71107
G1 X114.055 Y47.430 Z0.300 F1200 A79.75518
G1 X114.621 Y47.430 Z0.300 F1200 A79.78341
G1 X113.430 Y48.621 Z0.300 F1200 A79.86743
G1 X113.430 Y49.187 Z0.300 F1200 A79.89566
G1 X115.187 Y47.430 Z0.300 F1200 A80.01960
G1 X115.752 Y47.430 Z0.300 F1200 A80.04782
G1 X113.430 Y49.752 Z0.300 F1200 A80.21167
G1 X113.430 Y50.318 Z0.300 F1200 A80.23988
G1 X116.318 Y47.430 Z0.300 F1200 A80.44365
G1 X116.884 Y47.430 Z0.300 F1200 A80.47187
G1 X113.430 Y50.884 Z0.300 F1200 A80.71555
G1 X113.430 Y51.449 Z0.300 F1200 A80.74376
G1 X117.449 Y47.430 Z0.300 F1200 A81.02736
G1 X118.015 Y47.430 Z0.300 F1200 A81.05557
G1 X113.430 Y52.015 Z0.300 F1200 A81.37908
G1 X113.430 Y52.581 Z0.300 F1200 A81.40730
G1 X118.581 Y47.430 Z0.300 F1200 A81.77071
G1 X119.146 Y47.430 Z0.300 F1200 A81.79893
G1 X113.430 Y53.146 Z0.300 F1200 A82.20226
G1 X113.430 Y53.712 Z0.300 F1200 A82.23048
G1 X119.712 Y47.430 Z0.300 F1200 A82.67372
G1 X120.278 Y47.430 Z0.300 F1200 A82.70194
G1 X113.430 Y54.278 Z0.300 F1200 A83.18509
G1 X113.430 Y54.844 Z0.300 F1200 A83.21331
G1 X120.844 Y47.430 Z0.300 F1200 A83.73637
G1 X121.409 Y47.430 Z0.300 F1200 A83.76459
G1 X113.430 Y55.409 Z0.300 F1200 A84.32756
G1 X113.430 Y55.975 Z0.300 F1200 A84.35578
G1 X121.975 Y47.430 Z0.300 F1200 A84.95866
G1 X122.541 Y47.430 Z0.300 F1200 A84.98689
G1 X113.430 Y56.541 Z0.300 F1200 A85.62968
G1 X113.430 Y57.106 Z0.300 F1200 A85.65790
G1 X123.106 Y47.430 Z0.300 F1200 A86.34061
G1 X123.672 Y47.430 Z0.300 F1200 A86.36883
G1 X113.430 Y57.672 Z0.300 F1200 A87.09145
G1 X113.430 Y58.238 Z0.300 F1200 A87.11967
G1 X124.238 Y47.430 Z0.300 F1200 A87.88222
G1 X124.803 Y47.430 Z0.300 F1200 A87.91043
G1 X113.430 Y58.803 Z0.300 F1200 A88.71288
G1 X113.430 Y59.369 Z0.300 F1200 A88.74110
G1 X125.369 Y47.430 Z0.300 F1200 A89.58347
G1 X125.935 Y47.430 Z0.300 F1200 A89.61168
G1 X113.430 Y59.935 Z0.300 F1200 A90.49396
G1 X113.430 Y60.500 Z0.300 F1200 A90.52217
G1 X126.500 Y47.430 Z0.300 F1200 A91.44436
G1 X127.066 Y47.430 Z0.300 F1200 A91.47258
G1 X113.430 Y61.066 Z0.300 F1200 A92.43468
G1 X113.430 Y61.632 Z0.300 F1200 A92.46289
G1 X127.632 Y47.430 Z0.300 F1200 A93.46490
G1 X128.197 Y47.430 Z0.300 F1200 A93.49312
G1 X113.430 Y62.197 Z0.300 F1200 A94.53503
G1 X113.430 Y62.763 Z0.300 F1200 A94.56326
G1 X128.763 Y47.430 Z0.300 F1200 A95.64508
G1 X129.329 Y47.430 Z0.300 F1200 A95.67330
G1 X113.430 Y63.329 Z0.300 F1200 A96.79504
G1 X113.430 Y63.894 Z0.300 F1200 A96.82327
G1 X129.894 Y47.430 Z0.300 F1200 A97.98492
G1 X130.460 Y47.430 Z0.300 F1200 A98.01315
G1 X113.430 Y64.460 Z0.300 F1200 A99.21471
G1 X113.430 Y65.026 Z0.300 F1200 A99.24294
G1 X131.026 Y47.430 Z0.300 F1200 A100.48442
G1 X131.592 Y47.430 Z0.300 F1200 A100.51263
G1 X113.430 Y65.592 Z0.300 F1200 A101.79404
G1 X113.430 Y66.157 Z0.300 F1200 A101.82225
G1 X132.157 Y47.430 Z0.300 F1200 A103.14355
G1 X132.723 Y47.430 Z0.300 F1200 A103.17178
G1 X113.430 Y66.723 Z0.300 F1200 A104.53300
G1 X113.430 Y67.289 Z0.300 F1200 A104.56122
G1 X133.289 Y47.430 Z0.300 F1200 A105.96234
G1 X133.854 Y47.430 Z0.300 F1200 A105.99056
G1 X113.430 Y67.854 Z0.300 F1200 A107.43160
G1 X113.430 Y68.420 Z0.300 F1200 A107.45982
G1 X134.420 Y47.430 Z0.300 F1200 A108.94077
G1 X134.986 Y47.430 Z0.300 F1200 A108.96899
G1 X113.430 Y68.986 Z0.300 F1200 A110.48985
G1 X113.430 Y69.551 Z0.300 F1200 A110.51807
G1 X135.551 Y47.430 Z0.300 F1200 A112.07885
G1 X136.117 Y47.430 Z0.300 F1200 A112.10707
G1 X113.430 Y70.117 Z0.300 F1200 A113.70776
G1 X113.430 Y70.683 Z0.300 F1200 A113.73598
G1 X136.683 Y47.430 Z0.300 F1200 A115.37659
G1 X137.248 Y47.430 Z0.300 F1200 A115.40481
G1 X113.430 Y71.248 Z0.300 F1200 A117.08533
G1 X113.430 Y71.814 Z0.300 F1200 A117.11354
G1 X137.814 Y47.430 Z0.300 F1200 A118.83397
G1 X138.380 Y47.430 Z0.300 F1200 A118.86219
G1 X113.430 Y72.380 Z0.300 F1200 A120.62253
G1 X113.430 Y72.945 Z0.300 F1200 A120.65075
G1 X138.945 Y47.430 Z0.300 F1200 A122.45100
G1 X139.511 Y47.430 Z0.300 F1200 A122.47922
G1 X113.430 Y73.511 Z0.300 F1200 A124.31938
G1 X113.430 Y74.077 Z0.300 F1200 A124.34760
G1 X140.077 Y47.430 Z0.300 F1200 A126.22768
G1 X140.642 Y47.430 Z0.300 F1200 A126.25589
G1 X113.430 Y74.642 Z0.300 F1200 A128.17587
G1 X113.430 Y75.208 Z0.300 F1200 A128.20410
G1 X141.208 Y47.430 Z0.300 F1200 A130.16400
G1 X141.774 Y47.430 Z0.300 F1200 A130.19221
G1 X113.430 Y75.774 Z0.300 F1200 A132.19203
G1 X113.430 Y76.340 Z0.300 F1200 A132.22025
G1 X142.340 Y47.430 Z0.300 F1200 A134.25998
G1 X142.905 Y47.430 Z0.300 F1200 A134.28819
G1 X113.430 Y76.905 Z0.300 F1200 A136.36783
G1 X113.430 Y77.471 Z0.300 F1200 A136.39606
G1 X143.471 Y47.430 Z0.300 F1200 A138.51561
G1 X144.037 Y47.430 Z0.300 F1200 A138.54382
G1 X113.430 Y78.037 Z0.300 F1200 A140.70329
G1 X113.430 Y78.602 Z0.300 F1200 A140.73151
G1 X144.602 Y47.430 Z0.300 F1200 A142.93088
G1 X145.168 Y47.430 Z0.300 F1200 A142.95911
G1 X113.430 Y79.168 Z0.300 F1200 A145.19838
G1 X113.430 Y79.734 Z0.300 F1200 A145.22661
G1 X145.734 Y47.430 Z0.300 F1200 A147.50580
G1 X146.299 Y47.430 Z0.300 F1200 A147.53401
G1 X113.430 Y80.299 Z0.300 F1200 A149.85312
G1 X113.430 Y80.865 Z0.300 F1200 A149.88135
G1 X146.865 Y47.430 Z0.300 F1200 A152.24036
G1 X147.431 Y47.430 Z0.300 F1200 A152.26859
G1 X113.430 Y81.431 Z0.300 F1200 A154.66751
G1 X113.430 Y81.996 Z0.300 F1200 A154.69572
G1 X147.996 Y47.430 Z0.300 F1200 A157.13458
G1 X148.562 Y47.430 Z0.300 F1200 A157.16280
G1 X113.430 Y82.562 Z0.300 F1200 A159.64156
G1 X113.430 Y83.128 Z0.300 F1200 A159.66978
G1 X149.128 Y47.430 Z0.300 F1200 A162.18845
G1 X149.693 Y47.430 Z0.300 F1200 A162.21667
G1 X113.430 Y83.693 Z0.300 F1200 A164.77525
G1 X113.430 Y84.259 Z0.300 F1200 A164.80348
G1 X150.259 Y47.430 Z0.300 F1200 A167.40198
G1 X150.825 Y47.430 Z0.300 F1200 A167.43021
G1 X113.430 Y84.825 Z0.300 F1200 A170.06863
G1 X113.430 Y85.391 Z0.300 F1200 A170.09686
G1 X151.391 Y47.430 Z0.300 F1200 A172.77518
G1 X151.956 Y47.430 Z0.300 F1200 A172.80341
G1 X113.430 Y85.956 Z0.300 F1200 A175.52164
G1 X113.430 Y86.522 Z0.300 F1200 A175.54987
G1 X152.522 Y47.430 Z0.300 F1200 A178.30801
G1 X153.088 Y47.430 Z0.300 F1200 A178.33624
G1 X113.430 Y87.088 Z0.300 F1200 A181.13431
G1 X113.430 Y87.653 Z0.300 F1200 A181.16254
G1 X153.653 Y47.430 Z0.300 F1200 A184.00049
G1 X154.219 Y47.430 Z0.300 F1200 A184.02872
G1 X113.430 Y88.219 Z0.300 F1200 A186.90660
G1 X113.430 Y88.785 Z0.300 F1200 A186.93483
G1 X154.785 Y47.430 Z0.300 F1200 A189.85262
G1 X155.350 Y47.430 Z0.300 F1200 A189.88084
G1 X113.430 Y89.350 Z0.300 F1200 A192.83856
G1 X113.430 Y89.916 Z0.300 F1200 A192.86679
G1 X155.916 Y47.430 Z0.300 F1200 A195.86440
G1 X156.482 Y47.430 Z0.300 F1200 A195.89262
G1 X113.430 Y90.482 Z0.300 F1200 A198.93015
G1 X113.430 Y91.047 Z0.300 F1200 A198.95837
G1 X157.047 Y47.430 Z0.300 F1200 A202.03583
G1 X157.613 Y47.430 Z0.300 F1200 A202.06406
G1 X113.430 Y91.613 Z0.300 F1200 A205.18141
G1 X113.430 Y92.179 Z0.300 F1200 A205.20964
G1 X158.179 Y47.430 Z0.300 F1200 A208.36691
G1 X158.744 Y47.430 Z0.300 F1200 A208.39514
G1 X113.430 Y92.744 Z0.300 F1200 A211.59232
G1 X113.430 Y93.310 Z0.300 F1200 A211.62054
G1 X159.310 Y47.430 Z0.300 F1200 A214.85764
G1 X159.876 Y47.430 Z0.300 F1200 A214.88586
G1 X113.430 Y93.876 Z0.300 F1200 A218.16286
G1 X113.430 Y94.441 Z0.300 F1200 A218.19109
G1 X160.441 Y47.430 Z0.300 F1200 A221.50801
G1 X161.007 Y47.430 Z0.300 F1200 A221.53624
G1 X113.430 Y95.007 Z0.300 F1200 A224.89305
G1 X113.430 Y95.573 Z0.300 F1200 A224.92128
G1 X161.573 Y47.430 Z0.300 F1200 A228.31802
G1 X162.139 Y47.430 Z0.300 F1200 A228.34625
G1 X113.430 Y96.139 Z0.300 F1200 A231.78290
G1 X113.430 Y96.704 Z0.300 F1200 A231.81113
G1 X162.704 Y47.430 Z0.300 F1200 A235.28769
G1 X163.270 Y47.430 Z0.300 F1200 A235.31592
G1 X113.430 Y97.270 Z0.300 F1200 A238.83240
G1 X113.430 Y97.836 Z0.300 F1200 A238.86063
G1 X163.836 Y47.430 Z0.300 F1200 A242.41701
G1 X164.401 Y47.430 Z0.300 F1200 A242.44524
G1 X113.430 Y98.401 Z0.300 F1200 A246.04155
G1 X113.430 Y98.967 Z0.300 F1200 A246.06978
G1 X164.967 Y47.430 Z0.300 F1200 A249.70598
G1 X165.533 Y47.430 Z0.300 F1200 A249.73421
G1 X113.430 Y99.533 Z0.300 F1200 A253.41034
G1 X113.430 Y100.098 Z0.300 F1200 A253.43857
G1 X166.098 Y47.430 Z0.300 F1200 A257.15460
G1 X166.664 Y47.430 Z0.300 F1200 A257.18283
G1 X113.430 Y100.664 Z0.300 F1200 A260.93878
G1 X113.430 Y101.230 Z0.300 F1200 A260.96701
G1 X167.230 Y47.430 Z0.300 F1200 A264.76285
G1 X167.795 Y47.430 Z0.300 F1200 A264.79108
G1 X113.430 Y101.795 Z0.300 F1200 A268.62686
G1 X113.430 Y102.361 Z0.300 F1200 A268.65509
G1 X168.361 Y47.430 Z0.300 F1200 A272.53076
G1 X168.927 Y47.430 Z0.300 F1200 A272.55899
G1 X113.430 Y102.927 Z0.300 F1200 A276.47458
G1 X113.430 Y103.492 Z0.300 F1200 A276.50281
G1 X169.492 Y47.430 Z0.300 F1200 A280.45834
G1 X170.058 Y47.430 Z0.300 F1200 A280.48657
G1 X113.430 Y104.058 Z0.300 F1200 A284.48199
G1 X113.430 Y104.624 Z0.300 F1200 A284.51022
G1 X170.624 Y47.430 Z0.300 F1200 A288.54556
G1 X171.189 Y47.430 Z0.300 F1200 A288.57379
G1 X113.430 Y105.190 Z0.300 F1200 A292.64902
G1 X113.615 Y105.570 Z0.300 F1200 A292.67014
G1 X171.570 Y47.615 Z0.300 F1200 A296.75916
G1 X171.570 Y48.181 Z0.300 F1200 A296.78738
G1 X114.181 Y105.570 Z0.300 F1200 A300.83652
G1 X114.747 Y105.570 Z0.300 F1200 A300.86475
G1 X171.570 Y48.747 Z0.300 F1200 A304.87393
G1 X171.570 Y49.312 Z0.300 F1200 A304.90216
G1 X115.312 Y105.570 Z0.300 F1200 A308.87146
G1 X115.878 Y105.570 Z0.300 F1200 A308.89969
G1 X171.570 Y49.878 Z0.300 F1200 A312.82904
G1 X171.570 Y50.444 Z0.300 F1200 A312.85730
G1 X116.444 Y105.570 Z0.300 F1200 A316.74677
G1 X117.009 Y105.570 Z0.300 F1200 A316.77496
G1 X171.570 Y51.009 Z0.300 F1200 A320.62454
G1 X171.570 Y51.575 Z0.300 F1200 A320.65277
G1 X117.575 Y105.570 Z0.300 F1200 A324.46240
G1 X118.141 Y105.570 Z0.300 F1200 A324.49063
G1 X171.570 Y52.141 Z0.300 F1200 A328.26035
G1 X171.570 Y52.706 Z0.300 F1200 A328.28857
G1 X118.706 Y105.570 Z0.300 F1200 A332.01840
G1 X119.272 Y105.570 Z0.300 F1200 A332.04663
G1 X171.570 Y53.272 Z0.300 F1200 A335.73654
G1 X171.570 Y53.838 Z0.300 F1200 A335.76477
G1 X119.838 Y105.570 Z0.300 F1200 A339.41473
G1 X120.403 Y105.570 Z0.300 F1200 A339.44299
G1 X171.570 Y54.403 Z0.300 F1200 A343.05304
G1 X171.570 Y54.969 Z0.300 F1200 A343.08130
G1 X120.969 Y105.570 Z0.300 F1200 A346.65146
G1 X121.535 Y105.570 Z0.300 F1200 A346.67969
G1 X171.570 Y55.535 Z0.300 F1200 A350.20996
G1 X171.570 Y56.100 Z0.300 F1200 A350.23819
G1 X122.100 Y105.570 Z0.300 F1200 A353.72852
G1 X122.666 Y105.570 Z0.300 F1200 A353.75674
G1 X171.570 Y56.666 Z0.300 F1200 A357.20718
G1 X171.570 Y57.232 Z0.300 F1200 A357.23541
G1 X123.232 Y105.570 Z0.300 F1200 A360.64594
G1 X123.798 Y105.570 Z0.300 F1200 A360.67416
G1 X171.570 Y57.798 Z0.300 F1200 A364.04477
G1 X171.570 Y58.363 Z0.300 F1200 A364.07300
G1 X124.363 Y105.570 Z0.300 F1200 A367.40369
G1 X124.929 Y105.570 Z0.300 F1200 A367.43192
G1 X171.570 Y58.929 Z0.300 F1200 A370.72269
G1 X171.570 Y59.495 Z0.300 F1200 A370.75092
G1 X125.495 Y105.570 Z0.300 F1200 A374.00180
G1 X126.060 Y105.570 Z0.300 F1200 A374.03003
G1 X171.570 Y60.060 Z0.300 F1200 A377.24097
G1 X171.570 Y60.626 Z0.300 F1200 A377.26923
G1 X126.626 Y105.570 Z0.300 F1200 A380.44025
G1 X127.192 Y105.570 Z0.300 F1200 A380.46848
G1 X171.570 Y61.192 Z0.300 F1200 A383.59961
G1 X171.570 Y61.757 Z0.300 F1200 A383.62787
G1 X127.757 Y105.570 Z0.300 F1200 A386.71906
G1 X128.323 Y105.570 Z0.300 F1200 A386.74728
G1 X171.570 Y62.323 Z0.300 F1200 A389.79858
G1 X171.570 Y62.889 Z0.300 F1200 A389.82681
G1 X128.889 Y105.570 Z0.300 F1200 A392.83820
G1 X129.454 Y105.570 Z0.300 F1200 A392.86646
G1 X171.570 Y63.454 Z0.300 F1200 A395.83795
G1 X171.570 Y64.020 Z0.300 F1200 A395.86615
G1 X130.020 Y105.570 Z0.300 F1200 A398.79773
G1 X130.586 Y105.570 Z0.300 F1200 A398.82596
G1 X171.570 Y64.586 Z0.300 F1200 A401.71759
G1 X171.570 Y65.151 Z0.300 F1200 A401.74585
G1 X131.151 Y105.570 Z0.300 F1200 A404.59760
G1 X131.717 Y105.570 Z0.300 F1200 A404.62582
G1 X171.570 Y65.717 Z0.300 F1200 A407.43768
G1 X171.570 Y66.283 Z0.300 F1200 A407.46588
G1 X132.283 Y105.570 Z0.300 F1200 A410.23779
G1 X132.848 Y105.570 Z0.300 F1200 A410.26605
G1 X171.570 Y66.848 Z0.300 F1200 A412.99805
G1 X171.570 Y67.414 Z0.300 F1200 A413.02628
G1 X133.414 Y105.570 Z0.300 F1200 A415.71838
G1 X133.980 Y105.570 Z0.300 F1200 A415.74661
G1 X171.570 Y67.980 Z0.300 F1200 A418.39877
G1 X171.570 Y68.546 Z0.300 F1200 A418.42700
G1 X134.546 Y105.570 Z0.300 F1200 A421.03928
G1 X135.111 Y105.570 Z0.300 F1200 A421.06750
G1 X171.570 Y69.111 Z0.300 F1200 A423.63986
G1 X171.570 Y69.677 Z0.300 F1200 A423.66809
G1 X135.677 Y105.570 Z0.300 F1200 A426.20056
G1 X136.243 Y105.570 Z0.300 F1200 A426.22879
G1 X171.570 Y70.243 Z0.300 F1200 A428.72131
G1 X171.570 Y70.808 Z0.300 F1200 A428.74954
G1 X136.808 Y105.570 Z0.300 F1200 A431.20215
G1 X137.374 Y105.570 Z0.300 F1200 A431.23041
G1 X171.570 Y71.374 Z0.300 F1200 A433.64313
G1 X171.570 Y71.940 Z0.300 F1200 A433.67133
G1 X137.940 Y105.570 Z0.300 F1200 A436.04416
G1 X138.505 Y105.570 Z0.300 F1200 A436.07239
G1 X171.570 Y72.505 Z0.300 F1200 A438.40527
G1 X171.570 Y73.071 Z0.300 F1200 A438.43350
G1 X139.071 Y105.570 Z0.300 F1200 A440.72647
G1 X139.637 Y105.570 Z0.300 F1200 A440.75470
G1 X171.570 Y73.637 Z0.300 F1200 A443.00778
G1 X171.570 Y74.202 Z0.300 F1200 A443.03601
G1 X140.202 Y105.570 Z0.300 F1200 A445.24915
G1 X140.768 Y105.570 Z0.300 F1200 A445.27737
G1 X171.570 Y74.768 Z0.300 F1200 A447.45059
G1 X171.570 Y75.334 Z0.300 F1200 A447.47882
G1 X141.334 Y105.570 Z0.300 F1200 A449.61215
G1 X141.899 Y105.570 Z0.300 F1200 A449.64038
G1 X171.570 Y75.899 Z0.300 F1200 A451.73383
G1 X171.570 Y76.465 Z0.300 F1200 A451.76205
