; Generated by Spark Print Studio Date: 2015 09 09 Time: 09 52
; --------------------------------
; Selected Profile: Type A, Standard Raft(ON)
; Selected Printer: Series 1
; Selected Material: PLA 1.75 mm
; --------------------------------
G21; set units to millimeters
G90; use absolute spatial coordinates
M82; use absolute extrusion coordinates
G28 Z0.000; home Z
G1 Z10.000 F1800; lower build plate before homing
G28 X0.000 Y0.000; home XY
M109 S220; wait for nozzle to reach temperature
; --------------------------------
; Layer 0
G92 E0; reset extrusion distance
M106 S0; turn off fan
; rapid-dry
G1 E-0.50000 F1800; retract filament
G1 X102.500 Y193.232 Z0.300 F12000; rapid
G1 E0.00000 F1800; engage filament
; bead-prime
G1 X202.500 E9.97804 F336
; rapid-dry
G1 E9.47804 F1800; retract filament
G1 X186.250 Y183.232 F12000; rapid
G1 E9.97804 F1800; engage filament
; bead-raft
G1 X118.750 E31.02547 F336
G1 Y179.661 E32.13908
G1 X186.250 E53.18651
G1 Y176.089 E54.30014
G1 X118.750 E75.34756
G1 Y172.518 E76.46119
G1 X186.250 E97.50862
G1 Y168.946 E98.62225
G1 X118.750 E119.66968
G1 Y165.375 E120.78329
G1 X186.250 E141.83072
G1 Y161.804 E142.94435
G1 X118.750 E163.99178
G1 Y158.232 E165.10541
G1 X186.250 E186.15282
G1 Y154.661 E187.26645
G1 X118.750 E208.31387
G1 Y151.089 E209.42749
G1 X186.250 E230.47491
G1 Y147.518 E231.58853
G1 X118.750 E252.63596
G1 Y143.946 E253.74957
G1 X186.250 E274.79700
G1 Y140.375 E275.91061
G1 X118.750 E296.95804
G1 Y136.804 E298.07166
G1 X186.250 E319.11908
G1 Y133.232 E320.23270
G1 X118.750 E341.28015
G1 Y129.661 E342.39377
G1 X186.250 E363.44119
G1 Y126.089 E364.55481
G1 X118.750 E385.60226
G1 Y122.518 E386.71588
G1 X186.250 E407.76334
G1 Y118.946 E408.87695
G1 X118.750 E429.92438
; bead-raft
; Layer 1
G92 E0; reset extrusion distance
M106 S255; turn on fan
; rapid-wet
G1 X117.700 Y118.282 Z0.500 F12000
; bead-raft
G1 X118.282 Y117.700 E0.02740 F4200
G1 X120.168 E0.09011
G1 X117.700 Y120.168 E0.20620
G1 Y122.054 E0.26892
G1 X122.054 Y117.700 E0.47371
G1 X123.939 E0.53642
G1 X117.700 Y123.939 E0.82990
G1 Y125.825 E0.89262
G1 X125.825 Y117.700 E1.27479
G1 X127.711 E1.33750
G1 X117.700 Y127.711 E1.80837
G1 Y129.596 E1.87109
G1 X129.596 Y117.700 E2.43065
G1 X131.482 E2.49336
G1 X117.700 Y131.482 E3.14161
G1 Y133.367 E3.20433
G1 X133.367 Y117.700 E3.94128
G1 X135.253 E4.00399
G1 X117.700 Y135.253 E4.82963
G1 Y137.139 E4.89235
G1 X137.139 Y117.700 E5.80668
G1 X139.024 E5.86940
G1 X117.700 Y139.024 E6.87243
G1 Y140.910 E6.93514
G1 X140.910 Y117.700 E8.02687
G1 X142.796 E8.08958
G1 X117.700 Y142.796 E9.27000
G1 Y144.681 E9.33271
G1 X144.681 Y117.700 E10.60182
G1 X146.567 E10.66454
G1 X117.700 Y146.567 E12.02234
G1 Y148.452 E12.08506
G1 X148.452 Y117.700 E13.53155
G1 X150.338 E13.59427
G1 X117.700 Y150.338 E15.12946
G1 Y152.224 E15.19217
G1 X152.224 Y117.700 E16.81606
G1 X154.109 E16.87877
G1 X117.700 Y154.109 E18.59135
G1 Y155.995 E18.65407
G1 X155.995 Y117.700 E20.45534
G1 X157.880 E20.51805
G1 X117.700 Y157.880 E22.40802
G1 Y159.766 E22.47074
G1 X159.766 Y117.700 E24.44940
G1 X161.652 E24.51211
G1 X117.700 Y161.652 E26.57946
G1 Y163.537 E26.64218
G1 X163.537 Y117.700 E28.79823
G1 X165.423 E28.86094
G1 X117.700 Y165.423 E31.10568
G1 Y167.309 E31.16840
G1 X167.309 Y117.700 E33.50183
G1 X169.194 E33.56454
G1 X117.700 Y169.194 E35.98668
G1 Y171.080 E36.04939
G1 X171.080 Y117.700 E38.56021
G1 X172.965 E38.62292
G1 X117.700 Y172.965 E41.22244
G1 Y174.851 E41.28516
G1 X174.851 Y117.700 E43.97337
G1 X176.737 E44.03608
G1 X117.700 Y176.737 E46.81298
G1 Y178.622 E46.87569
G1 X178.622 Y117.700 E49.74129
G1 X180.508 E49.80401
G1 X117.700 Y180.508 E52.75830
G1 Y182.393 E52.82101
G1 X182.393 Y117.700 E55.86400
G1 X184.279 E55.92671
G1 X117.700 Y184.279 E59.05839
G1 Y186.165 E59.12111
G1 X186.165 Y117.700 E62.34148
G1 X187.300 Y118.450 E62.38674
G1 X118.450 Y187.300 E65.62522
G1 X120.336 E65.68793
G1 X187.300 Y120.336 E68.83772
G1 Y122.222 E68.90043
G1 X122.222 Y187.300 E71.96152
G1 X124.107 E72.02424
G1 X187.300 Y124.107 E74.99664
G1 Y125.993 E75.05935
G1 X125.993 Y187.300 E77.94305
G1 X127.878 E78.00577
G1 X187.300 Y127.878 E80.80078
G1 Y129.764 E80.86349
G1 X129.764 Y187.300 E83.56981
G1 X131.650 E83.63252
G1 X187.300 Y131.650 E86.25014
G1 Y133.535 E86.31286
G1 X133.535 Y187.300 E88.84178
G1 X135.421 E88.90450
G1 X187.300 Y135.421 E91.34473
G1 Y137.307 E91.40744
G1 X137.307 Y187.300 E93.75899
G1 X139.192 E93.82170
G1 X187.300 Y139.192 E96.08455
G1 Y141.078 E96.14726
G1 X141.078 Y187.300 E98.32141
G1 X142.963 E98.38412
G1 X187.300 Y142.963 E100.46958
G1 Y144.849 E100.53230
G1 X144.849 Y187.300 E102.52906
G1 X146.735 E102.59177
G1 X187.300 Y146.735 E104.49985
G1 Y148.620 E104.56256
G1 X148.620 Y187.300 E106.38194
G1 X150.506 E106.44466
G1 X187.300 Y150.506 E108.17534
G1 Y152.391 E108.23805
G1 X152.391 Y187.300 E109.88004
G1 X154.277 E109.94275
G1 X187.300 Y154.277 E111.49605
G1 Y156.163 E111.55876
G1 X156.163 Y187.300 E113.02337
G1 X158.048 E113.08608
G1 X187.300 Y158.048 E114.46199
G1 Y159.934 E114.52470
G1 X159.934 Y187.300 E115.81192
G1 X161.820 E115.87463
G1 X187.300 Y161.820 E117.07315
G1 Y163.705 E117.13586
G1 X163.705 Y187.300 E118.24570
G1 X165.591 E118.30841
G1 X187.300 Y165.591 E119.32954
G1 Y167.476 E119.39226
G1 X167.476 Y187.300 E120.32471
G1 X169.362 E120.38742
G1 X187.300 Y169.362 E121.23116
G1 Y171.248 E121.29388
G1 X171.248 Y187.300 E122.04893
G1 X173.133 E122.11165
G1 X187.300 Y173.133 E122.77801
G1 Y175.019 E122.84072
G1 X175.019 Y187.300 E123.41839
G1 X176.904 E123.48110
G1 X187.300 Y176.904 E123.97008
G1 Y178.790 E124.03279
G1 X178.790 Y187.300 E124.43307
G1 X180.676 E124.49578
G1 X187.300 Y180.676 E124.80737
G1 Y182.561 E124.87008
G1 X182.561 Y187.300 E125.09297
G1 X184.447 E125.15569
G1 X187.300 Y184.447 E125.28989
G1 Y186.333 E125.35260
G1 X186.333 Y187.300 E125.39810
; bead-raft
; Layer 2
G92 E0; reset extrusion distance
; rapid-wet
G1 X186.935 Y186.935 Z0.800 F12000
; bead-perimeter_inner
G1 X118.065 E3.43594 F4200
G1 Y118.065 E6.87188
G1 X186.935 E10.30782
G1 Y186.935 E13.74376
; rapid-wet
G1 X187.300 Y187.300 F12000
; bead-perimeter_outer
G1 X117.700 E17.21611 F4200
G1 Y117.700 E20.68847
G1 X187.300 E24.16083
G1 Y187.300 E27.63319
; bead-perim_outer
; rapid-wet
G1 X186.223 Y186.570 F12000
; bead-raft
G1 Y118.430 E31.03270 F4200
G1 X185.823 E31.05266
G1 Y186.570 E34.45218
G1 X185.423 E34.47213
G1 Y118.430 E37.87165
G1 X185.023 E37.89161
G1 Y186.570 E41.29112
G1 X184.623 E41.31108
G1 Y118.430 E44.71060
G1 X184.223 E44.73055
G1 Y186.570 E48.13007
G1 X183.823 E48.15003
G1 Y118.430 E51.54955
G1 X183.423 E51.56950
G1 Y186.570 E54.96902
G1 X183.023 E54.98898
G1 Y118.430 E58.38850
G1 X182.623 E58.40845
G1 Y186.570 E61.80798
G1 X182.223 E61.82793
G1 Y118.430 E65.22745
G1 X181.823 E65.24741
G1 Y186.570 E68.64693
G1 X181.423 E68.66689
G1 Y118.430 E72.06641
G1 X181.023 E72.08636
G1 Y186.570 E75.48588
G1 X180.623 E75.50584
G1 Y118.430 E78.90535
G1 X180.223 E78.92531
G1 Y186.570 E82.32483
G1 X179.823 E82.34479
G1 Y118.430 E85.74431
G1 X179.423 E85.76427
G1 Y186.570 E89.16378
G1 X179.023 E89.18373
G1 Y118.430 E92.58324
G1 X178.623 E92.60321
G1 Y186.570 E96.00272
G1 X178.223 E96.02267
G1 Y118.430 E99.42219
G1 X177.823 E99.44215
G1 Y186.570 E102.84166
G1 X177.423 E102.86162
G1 Y118.430 E106.26113
G1 X177.023 E106.28109
G1 Y186.570 E109.68060
G1 X176.623 E109.70055
G1 Y118.430 E113.10007
G1 X176.223 E113.12003
G1 Y186.570 E116.51955
G1 X175.823 E116.53950
G1 Y118.430 E119.93901
G1 X175.423 E119.95896
G1 Y186.570 E123.35847
G1 X175.023 E123.37843
G1 Y118.430 E126.77795
G1 X174.623 E126.79790
G1 Y186.570 E130.19742
G1 X174.223 E130.21738
G1 Y118.430 E133.61688
G1 X173.823 E133.63684
G1 Y186.570 E137.03635
G1 X173.423 E137.05630
G1 Y118.430 E140.45581
G1 X173.023 E140.47577
G1 Y186.570 E143.87529
G1 X172.623 E143.89523
G1 Y118.430 E147.29475
G1 X172.223 E147.31470
G1 Y186.570 E150.71422
G1 X171.823 E150.73416
G1 Y118.430 E154.13368
G1 X171.423 E154.15363
G1 Y186.570 E157.55315
G1 X171.023 E157.57310
G1 Y118.430 E160.97263
G1 X170.623 E160.99258
G1 Y186.570 E164.39211
G1 X170.223 E164.41206
G1 Y118.430 E167.81158
G1 X169.823 E167.83154
G1 Y186.570 E171.23106
G1 X169.423 E171.25101
G1 Y118.430 E174.65054
G1 X169.023 E174.67049
G1 Y186.570 E178.07001
G1 X168.623 E178.08997
G1 Y118.430 E181.48949
G1 X168.223 E181.50943
G1 Y186.570 E184.90897
G1 X167.823 E184.92891
G1 Y118.430 E188.32843
G1 X167.423 E188.34839
G1 Y186.570 E191.74791
G1 X167.023 E191.76787
G1 Y118.430 E195.16739
G1 X166.623 E195.18735
G1 Y186.570 E198.58687
G1 X166.223 E198.60681
G1 Y118.430 E202.00635
G1 X165.823 E202.02629
G1 Y186.570 E205.42581
G1 X165.423 E205.44577
G1 Y118.430 E208.84529
G1 X165.023 E208.86523
G1 Y186.570 E212.26477
G1 X164.623 E212.28471
G1 Y118.430 E215.68423
G1 X164.223 E215.70419
G1 Y186.570 E219.10371
G1 X163.823 E219.12367
G1 Y118.430 E222.52319
G1 X163.423 E222.54315
G1 Y186.570 E225.94267
G1 X163.023 E225.96262
G1 Y118.430 E229.36215
G1 X162.623 E229.38210
G1 Y186.570 E232.78162
G1 X162.223 E232.80157
G1 Y118.430 E236.20110
G1 X161.823 E236.22104
G1 Y186.570 E239.62057
G1 X161.423 E239.64052
G1 Y118.430 E243.04004
G1 X161.023 E243.06000
G1 Y186.570 E246.45952
G1 X160.623 E246.47948
G1 Y118.430 E249.87900
G1 X160.223 E249.89896
G1 Y186.570 E253.29848
G1 X159.823 E253.31842
G1 Y118.430 E256.71796
G1 X159.423 E256.73792
G1 Y186.570 E260.13742
G1 X159.023 E260.15738
G1 Y118.430 E263.55688
G1 X158.623 E263.57684
G1 Y186.570 E266.97638
G1 X158.223 E266.99634
G1 Y118.430 E270.39584
G1 X157.823 E270.41580
G1 Y186.570 E273.81534
G1 X157.423 E273.83527
G1 Y118.430 E277.23480
G1 X157.023 E277.25476
G1 Y186.570 E280.65427
G1 X156.623 E280.67422
G1 Y118.430 E284.07376
G1 X156.223 E284.09369
G1 Y186.570 E287.49323
G1 X155.823 E287.51318
G1 Y118.430 E290.91272
G1 X155.423 E290.93265
G1 Y186.570 E294.33218
G1 X155.023 E294.35214
G1 Y118.430 E297.75165
G1 X154.623 E297.77161
G1 Y186.570 E301.17114
G1 X154.223 E301.19107
G1 Y118.430 E304.59061
G1 X153.823 E304.61057
G1 Y186.570 E308.01007
G1 X153.423 E308.03003
G1 Y118.430 E311.42957
G1 X153.023 E311.44952
G1 Y186.570 E314.84903
G1 X152.623 E314.86899
G1 Y118.430 E318.26849
G1 X152.223 E318.28845
G1 Y186.570 E321.68796
G1 X151.823 E321.70792
G1 Y118.430 E325.10742
G1 X151.423 E325.12738
G1 Y186.570 E328.52689
G1 X151.023 E328.54681
G1 Y118.430 E331.94635
G1 X150.623 E331.96628
G1 Y186.570 E335.36578
G1 X150.223 E335.38574
G1 Y118.430 E338.78525
G1 X149.823 E338.80521
G1 Y186.570 E342.20471
G1 X149.423 E342.22467
G1 Y118.430 E345.62415
G1 X149.023 E345.64410
G1 Y186.570 E349.04361
G1 X148.623 E349.06357
G1 Y118.430 E352.46307
G1 X148.223 E352.48303
G1 Y186.570 E355.88254
G1 X147.823 E355.90247
G1 Y118.430 E359.30200
G1 X147.423 E359.32193
G1 Y186.570 E362.72144
G1 X147.023 E362.74139
G1 Y118.430 E366.14090
G1 X146.623 E366.16086
G1 Y186.570 E369.56036
G1 X146.223 E369.58032
G1 Y118.430 E372.97980
G1 X145.823 E372.99976
G1 Y186.570 E376.39926
G1 X145.423 E376.41922
G1 Y118.430 E379.81873
G1 X145.023 E379.83868
G1 Y186.570 E383.23819
G1 X144.623 E383.25812
G1 Y118.430 E386.65765
G1 X144.223 E386.67758
G1 Y186.570 E390.07709
G1 X143.823 E390.09705
G1 Y118.430 E393.49655
G1 X143.423 E393.51651
G1 Y186.570 E396.91602
G1 X143.023 E396.93597
G1 Y118.430 E400.33545
G1 X142.623 E400.35541
G1 Y186.570 E403.75491
G1 X142.223 E403.77487
G1 Y118.430 E407.17438
G1 X141.823 E407.19434
G1 Y186.570 E410.59384
G1 X141.423 E410.61377
G1 Y118.430 E414.01331
G1 X141.023 E414.03323
G1 Y186.570 E417.43274
G1 X140.623 E417.45270
G1 Y118.430 E420.85220
G1 X140.223 E420.87216
G1 Y186.570 E424.27167
G1 X139.823 E424.29163
G1 Y118.430 E427.69110
G1 X139.423 E427.71106
G1 Y186.570 E431.11057
G1 X139.023 E431.13052
G1 Y118.430 E434.53003
G1 X138.623 E434.54999
G1 Y186.570 E437.94949
G1 X138.223 E437.96942
G1 Y118.430 E441.36896
G1 X137.823 E441.38889
G1 Y186.570 E444.78839
G1 X137.423 E444.80835
G1 Y118.430 E448.20786
G1 X137.023 E448.22781
G1 Y186.570 E451.62732
G1 X136.623 E451.64728
G1 Y118.430 E455.04675
G1 X136.223 E455.06671
G1 Y186.570 E458.46622
G1 X135.823 E458.48618
G1 Y118.430 E461.88568
G1 X135.423 E461.90564
G1 Y186.570 E465.30515
G1 X135.023 E465.32507
G1 Y118.430 E468.72461
G1 X134.623 E468.74454
G1 Y186.570 E472.14404
G1 X134.223 E472.16400
G1 Y118.430 E475.56351
G1 X133.823 E475.58347
G1 Y186.570 E478.98297
G1 X133.423 E479.00293
G1 Y118.430 E482.40240
G1 X133.023 E482.42236
G1 Y186.570 E485.82187
G1 X132.623 E485.84183
G1 Y118.430 E489.24133
G1 X132.223 E489.26129
G1 Y186.570 E492.66080
G1 X131.823 E492.68073
G1 Y118.430 E496.08026
G1 X131.423 E496.10019
G1 Y186.570 E499.49969
G1 X131.023 E499.51965
G1 Y118.430 E502.91916
G1 X130.623 E502.93912
G1 Y186.570 E506.33862
G1 X130.223 E506.35858
G1 Y118.430 E509.75806
G1 X129.823 E509.77802
G1 Y186.570 E513.17755
G1 X129.423 E513.19751
G1 Y118.430 E516.59698
G1 X129.023 E516.61694
G1 Y186.570 E520.01642
G1 X128.623 E520.03638
G1 Y118.430 E523.43591
G1 X128.223 E523.45587
G1 Y186.570 E526.85535
G1 X127.823 E526.87531
G1 Y118.430 E530.27478
G1 X127.423 E530.29474
G1 Y186.570 E533.69427
G1 X127.023 E533.71423
G1 Y118.430 E537.11371
G1 X126.623 E537.13367
G1 Y186.570 E540.53320
G1 X126.223 E540.55310
G1 Y118.430 E543.95264
G1 X125.823 E543.97260
G1 Y186.570 E547.37207
G1 X125.423 E547.39203
G1 Y118.430 E550.79156
G1 X125.023 E550.81152
G1 Y186.570 E554.21100
G1 X124.623 E554.23096
G1 Y118.430 E557.63049
G1 X124.223 E557.65039
G1 Y186.570 E561.04993
G1 X123.823 E561.06989
G1 Y118.430 E564.46936
G1 X123.423 E564.48932
G1 Y186.570 E567.88885
G1 X123.023 E567.90881
G1 Y118.430 E571.30829
G1 X122.623 E571.32825
G1 Y186.570 E574.72772
G1 X122.223 E574.74768
G1 Y118.430 E578.14722
G1 X121.823 E578.16718
G1 Y186.570 E581.56665
G1 X121.423 E581.58661
G1 Y118.430 E584.98608
G1 X121.023 E585.00604
G1 Y186.570 E588.40558
G1 X120.623 E588.42554
G1 Y118.430 E591.82501
G1 X120.223 E591.84497
G1 Y186.570 E595.24451
G1 X119.823 E595.26440
G1 Y118.430 E598.66394
G1 X119.423 E598.68390
G1 Y186.570 E602.08337
G1 X119.023 E602.10333
G1 Y118.430 E605.50287
G1 X118.623 E605.52283
G1 Y186.570 E608.92230
; bead-raft
; Layer 3
G92 E0; reset extrusion distance
; rapid-wet
G1 X118.065 Y186.935 Z1.100 F12000
; bead-perimeter_inner
G1 Y118.065 E3.43594 F4200
G1 X186.935 E6.87188
G1 Y186.935 E10.30782
G1 X118.065 E13.74376
; rapid-wet
G1 X117.700 Y187.300 F12000
; bead-perimeter_outer
G1 Y117.700 E17.21611 F4200
G1 X187.300 E20.68847
G1 Y187.300 E24.16083
G1 X117.700 E27.63319
; bead-perim_outer
; rapid-wet
G1 X118.430 Y186.223 F12000
; bead-raft
G1 X186.570 E31.03270 F4200
G1 Y185.823 E31.05266
G1 X118.430 E34.45218
G1 Y185.423 E34.47213
G1 X186.570 E37.87165
G1 Y185.023 E37.89161
G1 X118.430 E41.29112
G1 Y184.623 E41.31108
G1 X186.570 E44.71060
G1 Y184.223 E44.73055
G1 X118.430 E48.13007
G1 Y183.823 E48.15003
G1 X186.570 E51.54955
G1 Y183.423 E51.56950
G1 X118.430 E54.96902
G1 Y183.023 E54.98898
G1 X186.570 E58.38850
G1 Y182.623 E58.40845
G1 X118.430 E61.80798
G1 Y182.223 E61.82793
G1 X186.570 E65.22745
G1 Y181.823 E65.24741
G1 X118.430 E68.64693
G1 Y181.423 E68.66689
G1 X186.570 E72.06641
G1 Y181.023 E72.08636
G1 X118.430 E75.48588
G1 Y180.623 E75.50584
G1 X186.570 E78.90535
G1 Y180.223 E78.92531
G1 X118.430 E82.32483
G1 Y179.823 E82.34479
G1 X186.570 E85.74431
G1 Y179.423 E85.76427
G1 X118.430 E89.16378
G1 Y179.023 E89.18373
G1 X186.570 E92.58324
G1 Y178.623 E92.60321
G1 X118.430 E96.00272
G1 Y178.223 E96.02267
G1 X186.570 E99.42219
G1 Y177.823 E99.44215
G1 X118.430 E102.84166
G1 Y177.423 E102.86162
G1 X186.570 E106.26113
G1 Y177.023 E106.28109
G1 X118.430 E109.68060
G1 Y176.623 E109.70055
G1 X186.570 E113.10007
G1 Y176.223 E113.12003
G1 X118.430 E116.51955
G1 Y175.823 E116.53950
G1 X186.570 E119.93901
G1 Y175.423 E119.95897
G1 X118.430 E123.35849
G1 Y175.023 E123.37844
G1 X186.570 E126.77795
G1 Y174.623 E126.79791
G1 X118.430 E130.19743
G1 Y174.223 E130.21738
G1 X186.570 E133.61690
G1 Y173.823 E133.63686
G1 X118.430 E137.03638
G1 Y173.423 E137.05632
G1 X186.570 E140.45584
G1 Y173.023 E140.47580
G1 X118.430 E143.87531
G1 Y172.623 E143.89526
