; Generated by Spark Print Studio Date: 2015 09 09 Time: 09 52
; --------------------------------
; Selected Profile: Replicator2, Standard, Raft(ON)
; Selected Printer: Replicator 2
; Selected Material: PLA 1.75 mm
; --------------------------------
M136; start print
G161 Z F900; home Z axis minimum
G92 X0.000 Y0.000 Z-5.000 A0 B0; set Z to -5
G1 Z0.0 F900; move Z to '0'
G161 Z F100; home Z axis minimum
M132 Z A B; recall stored home offsets for XYZAB axis
G92 X0.000 Y0.000 Z0.000 A0 B0; set coordinates
G1 X0.000 Y0.000 Z10.000 F1800; lower build plate before homing
G162 X Y F2000; home XY
M132 X Y A B; recall stored home offsets for XYZAB axis
G92 X293.000 Y153.000 Z10.000 A0 B0; set coordinates
M104 S220 T0; wait for nozzle to reach temperature
G130 X20 Y20 A20 B20; lower stepper vrefs while heating
M133 T0; wait for nozzle to reach temperature
G130 X127 Y127 A127 B127; set stepper motor vref to defaults
; --------------------------------
; Layer 0
G92 A0 B0; reset extrusion distance
M127 T0; turn off fan
M73 P0; progress
; rapid-dry
G1 A-1.00000 F1800; retract filament
G1 X5.000 Y117.232 Z0.300 F5400; rapid
G1 A0.00000 F1800; engage filament
; bead-prime
G1 X285.000 Y117.232 Z0.300 F336 A27.93851
; rapid-dry
G1 A26.93851 F1800; retract filament
G1 X176.250 Y107.232 Z0.300 F5400; rapid
G1 A27.93851 F1800; engage filament
; bead-raft
G1 X108.750 Y107.232 Z0.300 F336 A48.98594
G1 X108.750 Y103.661 Z0.300 F336 A50.09956
G1 X176.250 Y103.661 Z0.300 F336 A71.14699
G1 X176.250 Y100.089 Z0.300 F336 A72.26060
G1 X108.750 Y100.089 Z0.300 F336 A93.30804
G1 X108.750 Y96.518 Z0.300 F336 A94.42165
G1 X176.250 Y96.518 Z0.300 F336 A115.46909
G1 X176.250 Y92.946 Z0.300 F336 A116.58271
G1 X108.750 Y92.946 Z0.300 F336 A137.63014
G1 X108.750 Y89.375 Z0.300 F336 A138.74376
G1 X176.250 Y89.375 Z0.300 F336 A159.79118
G1 X176.250 Y85.804 Z0.300 F336 A160.90482
G1 X108.750 Y85.804 Z0.300 F336 A181.95222
G1 X108.750 Y82.232 Z0.300 F336 A183.06586
G1 X176.250 Y82.232 Z0.300 F336 A204.11328
G1 X176.250 Y78.661 Z0.300 F336 A205.22690
G1 X108.750 Y78.661 Z0.300 F336 A226.27432
G1 X108.750 Y75.089 Z0.300 F336 A227.38794
G1 X176.250 Y75.089 Z0.300 F336 A248.43536
G1 X176.250 Y71.518 Z0.300 F336 A249.54898
G1 X108.750 Y71.518 Z0.300 F336 A270.59641
G1 X108.750 Y67.946 Z0.300 F336 A271.71002
G1 X176.250 Y67.946 Z0.300 F336 A292.75745
G1 X176.250 Y64.375 Z0.300 F336 A293.87109
G1 X108.750 Y64.375 Z0.300 F336 A314.91849
G1 X108.750 Y60.804 Z0.300 F336 A316.03214
G1 X176.250 Y60.804 Z0.300 F336 A337.07953
G1 X176.250 Y57.232 Z0.300 F336 A338.19318
G1 X108.750 Y57.232 Z0.300 F336 A359.24060
G1 X108.750 Y53.661 Z0.300 F336 A360.35425
G1 X176.250 Y53.661 Z0.300 F336 A381.40167
G1 X176.250 Y50.089 Z0.300 F336 A382.51529
G1 X108.750 Y50.089 Z0.300 F336 A403.56274
G1 X108.750 Y46.518 Z0.300 F336 A404.67636
G1 X176.250 Y46.518 Z0.300 F336 A425.72382
G1 X176.250 Y42.946 Z0.300 F336 A426.83743
G1 X108.750 Y42.946 Z0.300 F336 A447.88486
; bead-raft
M73 P5; progress
; Layer 1
G92 A0 B0; reset extrusion distance
M126 T0; turn on fan
; rapid-wet
G1 X107.700 Y42.282 Z0.500 F5400
; bead-raft
G1 X108.282 Y41.700 Z0.500 F4200 A0.02740
G1 X110.168 Y41.700 Z0.500 F4200 A0.09011
G1 X107.700 Y44.168 Z0.500 F4200 A0.20621
G1 X107.700 Y46.054 Z0.500 F4200 A0.26892
G1 X112.054 Y41.700 Z0.500 F4200 A0.47371
G1 X113.939 Y41.700 Z0.500 F4200 A0.53642
G1 X107.700 Y47.939 Z0.500 F4200 A0.82990
G1 X107.700 Y49.825 Z0.500 F4200 A0.89262
G1 X115.825 Y41.700 Z0.500 F4200 A1.27479
G1 X117.711 Y41.700 Z0.500 F4200 A1.33750
G1 X107.700 Y51.711 Z0.500 F4200 A1.80837
G1 X107.700 Y53.596 Z0.500 F4200 A1.87109
G1 X119.596 Y41.700 Z0.500 F4200 A2.43065
G1 X121.482 Y41.700 Z0.500 F4200 A2.49336
G1 X107.700 Y55.482 Z0.500 F4200 A3.14162
G1 X107.700 Y57.367 Z0.500 F4200 A3.20433
G1 X123.367 Y41.700 Z0.500 F4200 A3.94128
G1 X125.253 Y41.700 Z0.500 F4200 A4.00399
G1 X107.700 Y59.253 Z0.500 F4200 A4.82963
G1 X107.700 Y61.139 Z0.500 F4200 A4.89235
G1 X127.139 Y41.700 Z0.500 F4200 A5.80668
G1 X129.024 Y41.700 Z0.500 F4200 A5.86940
G1 X107.700 Y63.024 Z0.500 F4200 A6.87243
G1 X107.700 Y64.910 Z0.500 F4200 A6.93515
G1 X130.910 Y41.700 Z0.500 F4200 A8.02687
G1 X132.796 Y41.700 Z0.500 F4200 A8.08958
G1 X107.700 Y66.796 Z0.500 F4200 A9.27000
G1 X107.700 Y68.681 Z0.500 F4200 A9.33271
G1 X134.681 Y41.700 Z0.500 F4200 A10.60182
G1 X136.567 Y41.700 Z0.500 F4200 A10.66454
G1 X107.700 Y70.567 Z0.500 F4200 A12.02234
G1 X107.700 Y72.452 Z0.500 F4200 A12.08506
G1 X138.452 Y41.700 Z0.500 F4200 A13.53156
G1 X140.338 Y41.700 Z0.500 F4200 A13.59427
G1 X107.700 Y74.338 Z0.500 F4200 A15.12946
G1 X107.700 Y76.224 Z0.500 F4200 A15.19218
G1 X142.224 Y41.700 Z0.500 F4200 A16.81606
G1 X144.109 Y41.700 Z0.500 F4200 A16.87878
G1 X107.700 Y78.109 Z0.500 F4200 A18.59135
G1 X107.700 Y79.995 Z0.500 F4200 A18.65407
G1 X145.995 Y41.700 Z0.500 F4200 A20.45534
G1 X147.880 Y41.700 Z0.500 F4200 A20.51806
G1 X107.700 Y81.880 Z0.500 F4200 A22.40802
G1 X107.700 Y83.766 Z0.500 F4200 A22.47074
G1 X149.766 Y41.700 Z0.500 F4200 A24.44940
G1 X151.652 Y41.700 Z0.500 F4200 A24.51211
G1 X107.700 Y85.652 Z0.500 F4200 A26.57946
G1 X107.700 Y87.537 Z0.500 F4200 A26.64218
G1 X153.537 Y41.700 Z0.500 F4200 A28.79823
G1 X155.423 Y41.700 Z0.500 F4200 A28.86094
G1 X107.700 Y89.423 Z0.500 F4200 A31.10568
G1 X107.700 Y91.309 Z0.500 F4200 A31.16840
G1 X157.309 Y41.700 Z0.500 F4200 A33.50183
G1 X159.194 Y41.700 Z0.500 F4200 A33.56454
G1 X107.700 Y93.194 Z0.500 F4200 A35.98668
G1 X107.700 Y95.080 Z0.500 F4200 A36.04939
G1 X161.080 Y41.700 Z0.500 F4200 A38.56021
G1 X162.965 Y41.700 Z0.500 F4200 A38.62292
G1 X107.700 Y96.965 Z0.500 F4200 A41.22244
G1 X107.700 Y98.851 Z0.500 F4200 A41.28515
G1 X164.851 Y41.700 Z0.500 F4200 A43.97336
G1 X166.737 Y41.700 Z0.500 F4200 A44.03607
G1 X107.700 Y100.737 Z0.500 F4200 A46.81297
G1 X107.700 Y102.622 Z0.500 F4200 A46.87569
G1 X168.622 Y41.700 Z0.500 F4200 A49.74128
G1 X170.508 Y41.700 Z0.500 F4200 A49.80400
G1 X107.700 Y104.508 Z0.500 F4200 A52.75829
G1 X107.700 Y106.393 Z0.500 F4200 A52.82101
G1 X172.393 Y41.700 Z0.500 F4200 A55.86399
G1 X174.279 Y41.700 Z0.500 F4200 A55.92670
G1 X107.700 Y108.279 Z0.500 F4200 A59.05838
G1 X107.700 Y110.165 Z0.500 F4200 A59.12109
G1 X176.165 Y41.700 Z0.500 F4200 A62.34146
G1 X177.300 Y42.450 Z0.500 F4200 A62.38672
G1 X108.450 Y111.300 Z0.500 F4200 A65.62520
G1 X110.336 Y111.300 Z0.500 F4200 A65.68791
G1 X177.300 Y44.336 Z0.500 F4200 A68.83769
G1 X177.300 Y46.222 Z0.500 F4200 A68.90041
G1 X112.222 Y111.300 Z0.500 F4200 A71.96150
G1 X114.107 Y111.300 Z0.500 F4200 A72.02422
G1 X177.300 Y48.107 Z0.500 F4200 A74.99661
G1 X177.300 Y49.993 Z0.500 F4200 A75.05933
G1 X115.993 Y111.300 Z0.500 F4200 A77.94303
G1 X117.878 Y111.300 Z0.500 F4200 A78.00574
G1 X177.300 Y51.878 Z0.500 F4200 A80.80075
G1 X177.300 Y53.764 Z0.500 F4200 A80.86346
G1 X119.764 Y111.300 Z0.500 F4200 A83.56979
G1 X121.650 Y111.300 Z0.500 F4200 A83.63250
G1 X177.300 Y55.650 Z0.500 F4200 A86.25011
G1 X177.300 Y57.535 Z0.500 F4200 A86.31283
G1 X123.535 Y111.300 Z0.500 F4200 A88.84175
G1 X125.421 Y111.300 Z0.500 F4200 A88.90446
G1 X177.300 Y59.421 Z0.500 F4200 A91.34470
G1 X177.300 Y61.307 Z0.500 F4200 A91.40741
G1 X127.307 Y111.300 Z0.500 F4200 A93.75896
G1 X129.192 Y111.300 Z0.500 F4200 A93.82167
G1 X177.300 Y63.192 Z0.500 F4200 A96.08452
G1 X177.300 Y65.078 Z0.500 F4200 A96.14723
G1 X131.078 Y111.300 Z0.500 F4200 A98.32138
G1 X132.963 Y111.300 Z0.500 F4200 A98.38409
G1 X177.300 Y66.963 Z0.500 F4200 A100.46955
G1 X177.300 Y68.849 Z0.500 F4200 A100.53226
G1 X134.849 Y111.300 Z0.500 F4200 A102.52903
G1 X136.735 Y111.300 Z0.500 F4200 A102.59174
G1 X177.300 Y70.735 Z0.500 F4200 A104.49982
G1 X177.300 Y72.620 Z0.500 F4200 A104.56253
G1 X138.620 Y111.300 Z0.500 F4200 A106.38191
G1 X140.506 Y111.300 Z0.500 F4200 A106.44463
G1 X177.300 Y74.506 Z0.500 F4200 A108.17531
G1 X177.300 Y76.391 Z0.500 F4200 A108.23802
G1 X142.391 Y111.300 Z0.500 F4200 A109.88000
G1 X144.277 Y111.300 Z0.500 F4200 A109.94272
G1 X177.300 Y78.277 Z0.500 F4200 A111.49602
G1 X177.300 Y80.163 Z0.500 F4200 A111.55873
G1 X146.163 Y111.300 Z0.500 F4200 A113.02334
G1 X148.048 Y111.300 Z0.500 F4200 A113.08605
G1 X177.300 Y82.048 Z0.500 F4200 A114.46197
G1 X177.300 Y83.934 Z0.500 F4200 A114.52468
G1 X149.934 Y111.300 Z0.500 F4200 A115.81189
G1 X151.820 Y111.300 Z0.500 F4200 A115.87460
G1 X177.300 Y85.820 Z0.500 F4200 A117.07313
G1 X177.300 Y87.705 Z0.500 F4200 A117.13584
G1 X153.705 Y111.300 Z0.500 F4200 A118.24567
G1 X155.591 Y111.300 Z0.500 F4200 A118.30838
G1 X177.300 Y89.591 Z0.500 F4200 A119.32952
G1 X177.300 Y91.476 Z0.500 F4200 A119.39223
G1 X157.476 Y111.300 Z0.500 F4200 A120.32468
G1 X159.362 Y111.300 Z0.500 F4200 A120.38739
G1 X177.300 Y93.362 Z0.500 F4200 A121.23114
G1 X177.300 Y95.248 Z0.500 F4200 A121.29385
G1 X161.248 Y111.300 Z0.500 F4200 A122.04890
G1 X163.133 Y111.300 Z0.500 F4200 A122.11162
G1 X177.300 Y97.133 Z0.500 F4200 A122.77798
G1 X177.300 Y99.019 Z0.500 F4200 A122.84069
G1 X165.019 Y111.300 Z0.500 F4200 A123.41836
G1 X166.904 Y111.300 Z0.500 F4200 A123.48107
G1 X177.300 Y100.904 Z0.500 F4200 A123.97005
G1 X177.300 Y102.790 Z0.500 F4200 A124.03276
G1 X168.790 Y111.300 Z0.500 F4200 A124.43304
G1 X170.676 Y111.300 Z0.500 F4200 A124.49576
G1 X177.300 Y104.676 Z0.500 F4200 A124.80734
G1 X177.300 Y106.561 Z0.500 F4200 A124.87006
G1 X172.561 Y111.300 Z0.500 F4200 A125.09294
G1 X174.447 Y111.300 Z0.500 F4200 A125.15565
G1 X177.300 Y108.447 Z0.500 F4200 A125.28986
G1 X177.300 Y110.333 Z0.500 F4200 A125.35257
G1 X176.333 Y111.300 Z0.500 F4200 A125.39807
; bead-raft
M73 P7; progress
; Layer 2
G92 A0 B0; reset extrusion distance
; rapid-wet
G1 X176.935 Y110.935 Z0.800 F5400
; bead-perimeter_inner
G1 X108.065 Y110.935 Z0.800 F4200 A3.43594
G1 X108.065 Y42.065 Z0.800 F4200 A6.87188
G1 X176.935 Y42.065 Z0.800 F4200 A10.30782
G1 X176.935 Y110.935 Z0.800 F4200 A13.74376
; rapid-wet
G1 X177.300 Y111.300 Z0.800 F5400
; bead-perimeter_outer
G1 X107.700 Y111.300 Z0.800 F4200 A17.21611
G1 X107.700 Y41.700 Z0.800 F4200 A20.68847
G1 X177.300 Y41.700 Z0.800 F4200 A24.16083
G1 X177.300 Y111.300 Z0.800 F4200 A27.63319
; bead-perim_outer
; rapid-wet
G1 X176.223 Y110.570 Z0.800 F5400
; bead-raft
G1 X176.223 Y42.430 Z0.800 F4200 A31.03271
G1 X175.823 Y42.430 Z0.800 F4200 A31.05266
G1 X175.823 Y110.570 Z0.800 F4200 A34.45218
G1 X175.423 Y110.570 Z0.800 F4200 A34.47214
G1 X175.423 Y42.430 Z0.800 F4200 A37.87166
G1 X175.023 Y42.430 Z0.800 F4200 A37.89161
G1 X175.023 Y110.570 Z0.800 F4200 A41.29113
G1 X174.623 Y110.570 Z0.800 F4200 A41.31109
G1 X174.623 Y42.430 Z0.800 F4200 A44.71061
G1 X174.223 Y42.430 Z0.800 F4200 A44.73056
G1 X174.223 Y110.570 Z0.800 F4200 A48.13008
G1 X173.823 Y110.570 Z0.800 F4200 A48.15004
G1 X173.823 Y42.430 Z0.800 F4200 A51.54956
G1 X173.423 Y42.430 Z0.800 F4200 A51.56952
G1 X173.423 Y110.570 Z0.800 F4200 A54.96903
G1 X173.023 Y110.570 Z0.800 F4200 A54.98899
G1 X173.023 Y42.430 Z0.800 F4200 A58.38851
G1 X172.623 Y42.430 Z0.800 F4200 A58.40847
G1 X172.623 Y110.570 Z0.800 F4200 A61.80798
G1 X172.223 Y110.570 Z0.800 F4200 A61.82794
G1 X172.223 Y42.430 Z0.800 F4200 A65.22746
G1 X171.823 Y42.430 Z0.800 F4200 A65.24741
G1 X171.823 Y110.570 Z0.800 F4200 A68.64693
G1 X171.423 Y110.570 Z0.800 F4200 A68.66689
G1 X171.423 Y42.430 Z0.800 F4200 A72.06641
G1 X171.023 Y42.430 Z0.800 F4200 A72.08636
G1 X171.023 Y110.570 Z0.800 F4200 A75.48589
G1 X170.623 Y110.570 Z0.800 F4200 A75.50584
G1 X170.623 Y42.430 Z0.800 F4200 A78.90536
G1 X170.223 Y42.430 Z0.800 F4200 A78.92532
G1 X170.223 Y110.570 Z0.800 F4200 A82.32484
G1 X169.823 Y110.570 Z0.800 F4200 A82.34480
G1 X169.823 Y42.430 Z0.800 F4200 A85.74432
G1 X169.423 Y42.430 Z0.800 F4200 A85.76427
G1 X169.423 Y110.570 Z0.800 F4200 A89.16379
G1 X169.023 Y110.570 Z0.800 F4200 A89.18374
G1 X169.023 Y42.430 Z0.800 F4200 A92.58325
G1 X168.623 Y42.430 Z0.800 F4200 A92.60322
G1 X168.623 Y110.570 Z0.800 F4200 A96.00273
G1 X168.223 Y110.570 Z0.800 F4200 A96.02268
G1 X168.223 Y42.430 Z0.800 F4200 A99.42220
G1 X167.823 Y42.430 Z0.800 F4200 A99.44215
G1 X167.823 Y110.570 Z0.800 F4200 A102.84167
G1 X167.423 Y110.570 Z0.800 F4200 A102.86163
G1 X167.423 Y42.430 Z0.800 F4200 A106.26114
G1 X167.023 Y42.430 Z0.800 F4200 A106.28110
G1 X167.023 Y110.570 Z0.800 F4200 A109.68062
G1 X166.623 Y110.570 Z0.800 F4200 A109.70056
G1 X166.623 Y42.430 Z0.800 F4200 A113.10008
G1 X166.223 Y42.430 Z0.800 F4200 A113.12004
G1 X166.223 Y110.570 Z0.800 F4200 A116.51955
G1 X165.823 Y110.570 Z0.800 F4200 A116.53951
G1 X165.823 Y42.430 Z0.800 F4200 A119.93903
G1 X165.423 Y42.430 Z0.800 F4200 A119.95897
G1 X165.423 Y110.570 Z0.800 F4200 A123.35849
G1 X165.023 Y110.570 Z0.800 F4200 A123.37844
G1 X165.023 Y42.430 Z0.800 F4200 A126.77795
G1 X164.623 Y42.430 Z0.800 F4200 A126.79791
G1 X164.623 Y110.570 Z0.800 F4200 A130.19743
G1 X164.223 Y110.570 Z0.800 F4200 A130.21738
G1 X164.223 Y42.430 Z0.800 F4200 A133.61690
G1 X163.823 Y42.430 Z0.800 F4200 A133.63684
G1 X163.823 Y110.570 Z0.800 F4200 A137.03636
G1 X163.423 Y110.570 Z0.800 F4200 A137.05630
G1 X163.423 Y42.430 Z0.800 F4200 A140.45583
G1 X163.023 Y42.430 Z0.800 F4200 A140.47578
G1 X163.023 Y110.570 Z0.800 F4200 A143.87529
G1 X162.623 Y110.570 Z0.800 F4200 A143.89525
G1 X162.623 Y42.430 Z0.800 F4200 A147.29475
G1 X162.223 Y42.430 Z0.800 F4200 A147.31471
G1 X162.223 Y110.570 Z0.800 F4200 A150.71423
G1 X161.823 Y110.570 Z0.800 F4200 A150.73418
G1 X161.823 Y42.430 Z0.800 F4200 A154.13370
G1 X161.423 Y42.430 Z0.800 F4200 A154.15364
G1 X161.423 Y110.570 Z0.800 F4200 A157.55316
G1 X161.023 Y110.570 Z0.800 F4200 A157.57312
G1 X161.023 Y42.430 Z0.800 F4200 A160.97263
G1 X160.623 Y42.430 Z0.800 F4200 A160.99258
G1 X160.623 Y110.570 Z0.800 F4200 A164.39211
G1 X160.223 Y110.570 Z0.800 F4200 A164.41206
G1 X160.223 Y42.430 Z0.800 F4200 A167.81158
G1 X159.823 Y42.430 Z0.800 F4200 A167.83154
G1 X159.823 Y110.570 Z0.800 F4200 A171.23106
G1 X159.423 Y110.570 Z0.800 F4200 A171.25101
G1 X159.423 Y42.430 Z0.800 F4200 A174.65054
G1 X159.023 Y42.430 Z0.800 F4200 A174.67049
G1 X159.023 Y110.570 Z0.800 F4200 A178.07001
G1 X158.623 Y110.570 Z0.800 F4200 A178.08997
G1 X158.623 Y42.430 Z0.800 F4200 A181.48949
G1 X158.223 Y42.430 Z0.800 F4200 A181.50943
G1 X158.223 Y110.570 Z0.800 F4200 A184.90897
G1 X157.823 Y110.570 Z0.800 F4200 A184.92891
G1 X157.823 Y42.430 Z0.800 F4200 A188.32843
G1 X157.423 Y42.430 Z0.800 F4200 A188.34839
G1 X157.423 Y110.570 Z0.800 F4200 A191.74791
G1 X157.023 Y110.570 Z0.800 F4200 A191.76787
G1 X157.023 Y42.430 Z0.800 F4200 A195.16739
G1 X156.623 Y42.430 Z0.800 F4200 A195.18735
G1 X156.623 Y110.570 Z0.800 F4200 A198.58687
G1 X156.223 Y110.570 Z0.800 F4200 A198.60681
G1 X156.223 Y42.430 Z0.800 F4200 A202.00635
G1 X155.823 Y42.430 Z0.800 F4200 A202.02629
G1 X155.823 Y110.570 Z0.800 F4200 A205.42581
G1 X155.423 Y110.570 Z0.800 F4200 A205.44577
G1 X155.423 Y42.430 Z0.800 F4200 A208.84529
G1 X155.023 Y42.430 Z0.800 F4200 A208.86523
G1 X155.023 Y110.570 Z0.800 F4200 A212.26477
G1 X154.623 Y110.570 Z0.800 F4200 A212.28471
G1 X154.623 Y42.430 Z0.800 F4200 A215.68423
G1 X154.223 Y42.430 Z0.800 F4200 A215.70419
G1 X154.223 Y110.570 Z0.800 F4200 A219.10371
G1 X153.823 Y110.570 Z0.800 F4200 A219.12367
G1 X153.823 Y42.430 Z0.800 F4200 A222.52319
G1 X153.423 Y42.430 Z0.800 F4200 A222.54315
G1 X153.423 Y110.570 Z0.800 F4200 A225.94267
G1 X153.023 Y110.570 Z0.800 F4200 A225.96262
G1 X153.023 Y42.430 Z0.800 F4200 A229.36215
G1 X152.623 Y42.430 Z0.800 F4200 A229.38210
G1 X152.623 Y110.570 Z0.800 F4200 A232.78162
G1 X152.223 Y110.570 Z0.800 F4200 A232.80157
G1 X152.223 Y42.430 Z0.800 F4200 A236.20110
G1 X151.823 Y42.430 Z0.800 F4200 A236.22104
G1 X151.823 Y110.570 Z0.800 F4200 A239.62057
G1 X151.423 Y110.570 Z0.800 F4200 A239.64052
G1 X151.423 Y42.430 Z0.800 F4200 A243.04004
G1 X151.023 Y42.430 Z0.800 F4200 A243.06000
G1 X151.023 Y110.570 Z0.800 F4200 A246.45952
G1 X150.623 Y110.570 Z0.800 F4200 A246.47948
G1 X150.623 Y42.430 Z0.800 F4200 A249.87900
G1 X150.223 Y42.430 Z0.800 F4200 A249.89896
G1 X150.223 Y110.570 Z0.800 F4200 A253.29848
G1 X149.823 Y110.570 Z0.800 F4200 A253.31842
