; Generated by Spark Print Studio Date: 2015 09 09 Time: 09 52
; --------------------------------
; Selected Profile: Type A, Standard
; Selected Printer: Series 1
; Selected Material: PLA 1.75 mm
; --------------------------------
G21; set units to millimeters
G90; use absolute spatial coordinates
M82; use absolute extrusion coordinates
G28 Z0.000; home Z
G1 Z10.000 F1800; lower build plate before homing
G28 X0.000 Y0.000; home XY
M109 S220; wait for nozzle to reach temperature
; --------------------------------
; Layer 0
G92 E0; reset extrusion distance
M106 S0; turn off fan
; rapid-dry
G1 E-0.50000 F1800; retract filament
G1 X105.377 Y185.033 Z0.300 F12000; rapid
G1 E0.00000 F1800; engage filament
; bead-prime
G1 X205.377 E9.97804 F2400
; rapid-dry
G1 E9.47804 F1800; retract filament
G1 X172.995 Y163.210 F12000; rapid
G1 E9.97804 F1800; engage filament
; bead-skirt/brim
G1 X171.078 Y166.078 E10.15014 F2100
G1 X169.852 Y166.897 E10.22369
G1 X169.320 Y169.575 E10.35992
G1 X167.403 Y172.443 E10.53201
G1 X164.535 Y174.360 E10.70411
G1 X161.152 Y175.033 E10.87621
G1 X157.768 Y174.360 E11.04831
G1 X157.477 Y174.165 E11.06581
G1 X157.185 Y174.360 E11.08332
G1 X153.802 Y175.033 E11.25542
G1 X150.418 Y174.360 E11.42751
G1 X150.127 Y174.165 E11.44502
G1 X149.835 Y174.360 E11.46253
G1 X146.452 Y175.033 E11.63462
G1 X143.102 Y174.366 E11.80502
G1 X142.662 Y174.454 E11.82738
G1 X139.279 Y173.781 E11.99948
G1 X136.411 Y171.864 E12.17158
G1 X134.494 Y168.996 E12.34367
G1 X133.822 Y165.613 E12.51577
G1 X133.870 Y165.370 E12.52810
G1 X132.208 Y162.883 E12.67734
G1 X131.955 Y161.613 E12.74196
G1 X131.017 Y160.209 E12.82617
G1 X130.465 Y157.430 E12.96756
G1 X130.409 Y157.347 E12.97255
G1 X129.736 Y153.963 E13.14465
G1 X130.027 Y152.500 E13.21909
G1 X129.736 Y151.037 E13.29353
G1 X130.409 Y147.653 E13.46563
G1 X130.465 Y147.570 E13.47062
G1 X131.017 Y144.791 E13.61201
G1 X131.955 Y143.387 E13.69622
G1 X132.208 Y142.117 E13.76084
G1 X134.124 Y139.249 E13.93294
G1 X136.992 Y137.332 E14.10503
G1 X137.923 Y137.147 E14.15235
G1 X139.720 Y136.563 E14.24664
G1 X139.048 Y135.054 E14.32908
G1 X140.352 Y134.915 E14.39452
G1 X140.241 Y134.665 E14.40820
G1 X141.546 Y134.527 E14.47367
G1 X141.434 Y134.277 E14.48736
G1 X143.937 Y134.014 E14.61293
G1 X143.576 Y132.526 E14.68931
G1 X145.102 Y132.686 E14.76587
G1 X145.042 Y132.417 E14.77961
G1 X148.942 Y132.827 E14.97524
G1 X149.309 Y130.982 E15.06911
G1 X151.225 Y128.114 E15.24120
G1 X154.093 Y126.197 E15.41330
G1 X157.477 Y125.524 E15.58540
G1 X160.860 Y126.197 E15.75749
G1 X163.728 Y128.114 E15.92959
G1 X165.645 Y130.982 E16.10169
G1 X166.318 Y134.365 E16.27378
G1 X165.645 Y137.749 E16.44588
G1 X165.474 Y138.004 E16.46121
G1 X167.996 Y139.461 E16.60654
G1 X168.793 Y138.928 E16.65436
G1 X172.177 Y138.255 E16.82646
G1 X175.560 Y138.928 E16.99855
G1 X178.428 Y140.844 E17.17065
G1 X180.345 Y143.713 E17.34274
G1 X181.018 Y147.096 E17.51484
G1 X180.345 Y150.479 E17.68694
G1 X178.428 Y153.347 E17.85904
G1 X175.560 Y155.264 E18.03113
G1 X172.718 Y155.829 E18.17568
G1 X172.781 Y156.123 E18.19069
G1 X172.995 Y156.443 E18.20989
G1 X173.668 Y159.826 E18.38199
G1 X172.995 Y163.210 E18.55409
; bead-skirt_brim
; rapid-wet
G1 X172.618 Y163.054 F12000
; bead-skirt/brim
G1 X170.790 Y165.789 E18.71824 F2100
G1 X169.492 Y166.656 E18.79610
G1 X168.943 Y169.419 E18.93662
G1 X167.115 Y172.155 E19.10077
G1 X164.379 Y173.983 E19.26493
G1 X161.152 Y174.625 E19.42909
G1 X157.925 Y173.983 E19.59325
G1 X157.477 Y173.684 E19.62012
G1 X157.029 Y173.983 E19.64699
G1 X153.802 Y174.625 E19.81115
G1 X150.575 Y173.983 E19.97531
G1 X150.127 Y173.684 E20.00218
G1 X149.679 Y173.983 E20.02905
G1 X146.452 Y174.625 E20.19321
G1 X143.225 Y173.983 E20.35736
G1 X143.168 Y173.945 E20.36074
G1 X142.662 Y174.046 E20.38648
G1 X139.435 Y173.404 E20.55064
G1 X136.699 Y171.576 E20.71480
G1 X134.871 Y168.840 E20.87895
G1 X134.229 Y165.613 E21.04311
G1 X134.294 Y165.286 E21.05974
G1 X132.585 Y162.727 E21.21327
G1 X132.332 Y161.457 E21.27789
G1 X131.394 Y160.053 E21.36210
G1 X130.841 Y157.274 E21.50349
G1 X130.786 Y157.191 E21.50849
G1 X130.144 Y153.963 E21.67265
G1 X130.435 Y152.500 E21.74709
G1 X130.144 Y151.037 E21.82153
G1 X130.786 Y147.809 E21.98568
G1 X130.841 Y147.726 E21.99068
G1 X131.394 Y144.947 E22.13207
G1 X132.332 Y143.543 E22.21628
G1 X132.585 Y142.273 E22.28090
G1 X134.413 Y139.537 E22.44505
G1 X137.148 Y137.709 E22.60921
G1 X138.024 Y137.535 E22.65374
G1 X140.266 Y136.806 E22.77138
G1 X139.637 Y135.393 E22.84859
G1 X140.942 Y135.255 E22.91404
G1 X140.830 Y135.005 E22.92773
G1 X142.135 Y134.868 E22.99319
G1 X142.023 Y134.617 E23.00688
G1 X144.434 Y134.364 E23.12779
G1 X144.099 Y132.983 E23.19868
G1 X145.611 Y133.142 E23.27455
G1 X145.555 Y132.873 E23.28822
G1 X149.263 Y133.263 E23.47425
G1 X149.686 Y131.138 E23.58235
G1 X151.514 Y128.402 E23.74651
G1 X154.250 Y126.574 E23.91067
G1 X157.477 Y125.932 E24.07483
G1 X160.704 Y126.574 E24.23899
G1 X163.440 Y128.402 E24.40314
G1 X165.268 Y131.138 E24.56730
G1 X165.910 Y134.365 E24.73146
G1 X165.268 Y137.592 E24.89561
G1 X164.936 Y138.088 E24.92537
G1 X165.020 Y138.204 E24.93251
G1 X168.012 Y139.931 E25.10485
G1 X168.950 Y139.305 E25.16111
G1 X172.177 Y138.663 E25.32527
G1 X175.404 Y139.305 E25.48943
G1 X178.140 Y141.133 E25.65358
G1 X179.968 Y143.869 E25.81774
G1 X180.610 Y147.096 E25.98190
G1 X179.968 Y150.323 E26.14606
G1 X178.140 Y153.059 E26.31021
G1 X175.404 Y154.887 E26.47437
G1 X172.243 Y155.516 E26.63518
G1 X172.405 Y156.282 E26.67424
G1 X172.618 Y156.599 E26.69331
G1 X173.260 Y159.826 E26.85746
G1 X172.618 Y163.054 E27.02162
; bead-skirt_brim
; rapid-dry
G1 E26.52162 F1800; retract filament
G1 X167.719 Y161.025 F12000; rapid
G1 E27.02162 F1800; engage filament
; bead-support
G1 X167.041 Y162.040 E27.08257 F2100
G1 X166.025 Y162.719 E27.14352
G1 X164.827 Y162.958 E27.20447
G1 X163.629 Y162.719 E27.26542
G1 X162.613 Y162.040 E27.32637
G1 X161.934 Y161.025 E27.38732
G1 X161.696 Y159.826 E27.44827
G1 X161.934 Y158.628 E27.50922
G1 X162.613 Y157.612 E27.57017
G1 X163.629 Y156.934 E27.63112
G1 X164.827 Y156.695 E27.69207
G1 X166.025 Y156.934 E27.75302
G1 X167.041 Y157.612 E27.81397
G1 X167.719 Y158.628 E27.87492
G1 X167.958 Y159.826 E27.93587
G1 X167.719 Y161.025 E27.99682
; rapid-wet
G1 X166.850 Y161.669 F12000
; bead-support
G1 X166.669 Y161.850 E28.00959 F2100
G1 X167.451 Y160.502 E28.08734
G1 X165.502 Y162.451 E28.22486
G1 X164.806 Y162.581 E28.26019
G1 X167.582 Y159.806 E28.45600
G1 X167.488 Y159.334 E28.48000
G1 X164.334 Y162.487 E28.70249
G1 X163.863 Y162.394 E28.72649
G1 X167.394 Y158.862 E28.97564
G1 X167.193 Y158.497 E28.99642
G1 X163.498 Y162.193 E29.25715
G1 X163.159 Y161.966 E29.27750
G1 X166.966 Y158.158 E29.54617
G1 X166.721 Y157.838 E29.56630
G1 X162.838 Y161.721 E29.84026
G1 X162.612 Y161.382 E29.86061
G1 X166.382 Y157.611 E30.12664
G1 X166.043 Y157.385 E30.14698
G1 X162.385 Y161.043 E30.40507
G1 X162.228 Y160.634 E30.42692
G1 X165.634 Y157.228 E30.66721
G1 X165.162 Y157.134 E30.69121
G1 X162.135 Y160.162 E30.90483
G1 X162.108 Y159.622 E30.93178
G1 X164.623 Y157.108 E31.10916
G1 X163.916 Y157.249 E31.14508
G1 X162.249 Y158.916 E31.26274
; rapid-dry
G1 E30.76274 F1800; retract filament
G1 X163.366 Y163.978 F12000; rapid
G1 E31.26274 F1800; engage filament
; bead-support
G1 X164.044 Y164.994 E31.32369 F2100
G1 X164.283 Y166.192 E31.38464
G1 X164.044 Y167.390 E31.44559
G1 X163.366 Y168.406 E31.50654
G1 X162.350 Y169.084 E31.56749
G1 X161.152 Y169.323 E31.62844
G1 X159.954 Y169.084 E31.68939
G1 X158.938 Y168.406 E31.75034
G1 X158.259 Y167.390 E31.81129
G1 X158.021 Y166.192 E31.87224
G1 X158.259 Y164.994 E31.93319
G1 X158.938 Y163.978 E31.99413
G1 X159.954 Y163.299 E32.05508
G1 X161.152 Y163.061 E32.11604
G1 X162.350 Y163.299 E32.17698
G1 X163.366 Y163.978 E32.23793
; rapid-wet
G1 X163.120 Y164.267 F12000
; bead-support
G1 X159.227 Y168.160 E32.51260 F2100
G1 X159.566 Y168.387 E32.53295
G1 X163.347 Y164.606 E32.79968
G1 X163.573 Y164.945 E32.82003
G1 X159.905 Y168.613 E33.07882
G1 X160.303 Y168.782 E33.10035
G1 X163.742 Y165.343 E33.34299
G1 X163.836 Y165.815 E33.36699
G1 X160.775 Y168.876 E33.58296
G1 X161.293 Y168.922 E33.60895
G1 X163.882 Y166.333 E33.79162
G1 X163.742 Y167.040 E33.82754
G1 X162.000 Y168.782 E33.95047
; rapid-dry
G1 E33.45047 F1800; retract filament
G1 X158.992 Y167.830 F12000; rapid
G1 E33.95047 F1800; engage filament
; bead-support
G1 X162.790 Y164.032 E34.21844 F2100
G1 X162.451 Y163.805 E34.23878
G1 X158.765 Y167.491 E34.49882
G1 X158.576 Y167.114 E34.51984
G1 X162.074 Y163.616 E34.76664
G1 X161.602 Y163.522 E34.79064
G1 X158.482 Y166.642 E35.01077
G1 X158.399 Y166.160 E35.03519
G1 X161.120 Y163.439 E35.22716
G1 X160.414 Y163.580 E35.26308
G1 X158.540 Y165.454 E35.39532
; rapid-dry
G1 E34.89532 F1800; retract filament
G1 X156.694 Y167.390 F12000; rapid
G1 E35.39532 F1800; engage filament
; bead-support
G1 X156.016 Y168.406 E35.45627 F2100
G1 X155.000 Y169.084 E35.51722
G1 X153.802 Y169.323 E35.57817
G1 X152.604 Y169.084 E35.63912
G1 X151.588 Y168.406 E35.70007
G1 X150.909 Y167.390 E35.76102
G1 X150.671 Y166.192 E35.82197
G1 X150.909 Y164.994 E35.88292
G1 X151.588 Y163.978 E35.94387
G1 X152.604 Y163.299 E36.00482
G1 X153.802 Y163.061 E36.06577
G1 X155.000 Y163.299 E36.12672
G1 X156.016 Y163.978 E36.18766
G1 X156.694 Y164.994 E36.24862
G1 X156.933 Y166.192 E36.30956
G1 X156.694 Y167.390 E36.37051
; rapid-wet
G1 X156.393 Y167.035 F12000
; bead-support
G1 X154.645 Y168.783 E36.49386 F2100
G1 X153.939 Y168.923 E36.52978
G1 X156.533 Y166.329 E36.71286
G1 X156.485 Y165.811 E36.73878
G1 X153.421 Y168.875 E36.95493
G1 X152.950 Y168.781 E36.97894
G1 X156.391 Y165.340 E37.22176
G1 X156.222 Y164.943 E37.24326
G1 X152.553 Y168.612 E37.50211
G1 X152.214 Y168.385 E37.52246
G1 X155.995 Y164.604 E37.78924
G1 X155.769 Y164.265 E37.80959
G1 X151.875 Y168.159 E38.08431
G1 X151.640 Y167.828 E38.10455
G1 X155.438 Y164.030 E38.37246
G1 X155.098 Y163.804 E38.39281
G1 X151.414 Y167.488 E38.65278
G1 X151.226 Y167.111 E38.67383
G1 X154.721 Y163.616 E38.92044
G1 X154.249 Y163.522 E38.94444
G1 X151.132 Y166.639 E39.16438
G1 X151.050 Y166.155 E39.18887
G1 X153.765 Y163.440 E39.38042
G1 X153.059 Y163.581 E39.41635
G1 X151.191 Y165.449 E39.54817
; rapid-dry
G1 E39.04817 F1800; retract filament
G1 X149.583 Y166.192 F12000; rapid
G1 E39.54817 F1800; engage filament
; bead-support
G1 X149.344 Y167.390 E39.60912 F2100
G1 X148.666 Y168.406 E39.67007
G1 X147.650 Y169.084 E39.73102
G1 X146.452 Y169.323 E39.79197
G1 X145.254 Y169.084 E39.85292
G1 X144.124 Y168.330 E39.92070
G1 X143.861 Y168.506 E39.93650
G1 X142.662 Y168.744 E39.99746
G1 X141.464 Y168.506 E40.05841
G1 X140.448 Y167.827 E40.11936
G1 X139.770 Y166.811 E40.18031
G1 X139.531 Y165.613 E40.24126
G1 X139.770 Y164.415 E40.30220
G1 X139.937 Y164.164 E40.31723
G1 X139.203 Y163.066 E40.38313
G1 X139.053 Y162.309 E40.42161
G1 X138.162 Y161.714 E40.47508
G1 X137.483 Y160.698 E40.53603
G1 X137.245 Y159.500 E40.59698
G1 X137.293 Y159.255 E40.60942
G1 X136.971 Y159.040 E40.62874
G1 X136.292 Y158.024 E40.68969
G1 X136.054 Y156.826 E40.75064
G1 X136.224 Y155.970 E40.79417
G1 X135.684 Y155.162 E40.84270
G1 X135.446 Y153.963 E40.90365
G1 X135.684 Y152.765 E40.96460
G1 X135.861 Y152.500 E40.98051
G1 X135.684 Y152.235 E40.99642
G1 X135.446 Y151.037 E41.05737
G1 X135.684 Y149.838 E41.11832
G1 X136.224 Y149.030 E41.16685
G1 X136.054 Y148.174 E41.21038
G1 X136.292 Y146.976 E41.27133
G1 X136.971 Y145.960 E41.33228
G1 X137.293 Y145.745 E41.35160
G1 X137.245 Y145.500 E41.36404
G1 X137.483 Y144.302 E41.42500
G1 X138.162 Y143.286 E41.48594
G1 X139.177 Y142.607 E41.54689
G1 X140.376 Y142.369 E41.60784
G1 X141.366 Y142.566 E41.65823
G1 X141.754 Y142.307 E41.68150
G1 X142.096 Y142.239 E41.69889
G1 X142.438 Y142.307 E41.71629
G1 X142.728 Y142.500 E41.73367
G1 X142.921 Y142.790 E41.75106
G1 X142.989 Y143.132 E41.76846
G1 X142.921 Y143.474 E41.78585
G1 X142.818 Y143.628 E41.79510
G1 X143.268 Y144.302 E41.83551
G1 X143.507 Y145.500 E41.89646
G1 X143.268 Y146.698 E41.95741
G1 X142.590 Y147.714 E42.01836
G1 X142.268 Y147.929 E42.03768
G1 X142.316 Y148.174 E42.05013
G1 X142.078 Y149.372 E42.11107
G1 X141.538 Y150.181 E42.15960
G1 X141.708 Y151.037 E42.20314
G1 X141.469 Y152.235 E42.26408
G1 X141.292 Y152.500 E42.28000
G1 X141.469 Y152.765 E42.29591
G1 X141.708 Y153.963 E42.35686
G1 X141.538 Y154.819 E42.40039
G1 X142.078 Y155.628 E42.44892
G1 X142.316 Y156.826 E42.50987
G1 X142.268 Y157.071 E42.52231
G1 X142.590 Y157.286 E42.54163
G1 X143.268 Y158.302 E42.60258
G1 X143.419 Y159.058 E42.64107
G1 X144.310 Y159.654 E42.69453
G1 X144.989 Y160.670 E42.75549
G1 X145.227 Y161.868 E42.81643
G1 X144.930 Y163.363 E42.89251
G1 X146.452 Y163.061 E42.96994
G1 X147.650 Y163.299 E43.03089
G1 X148.666 Y163.978 E43.09184
G1 X149.344 Y164.994 E43.15279
G1 X149.583 Y166.192 E43.21374
; rapid-wet
G1 X149.044 Y167.030 F12000
; bead-support
G1 X147.290 Y168.784 E43.33750 F2100
; rapid-wet
G1 X149.184 Y166.324 F12000
; bead-support
G1 X146.584 Y168.924 E43.52099 F2100
G1 X146.068 Y168.874 E43.54683
G1 X149.134 Y165.808 E43.76318
G1 X149.040 Y165.336 E43.78717
G1 X145.596 Y168.781 E44.03019
G1 X145.201 Y168.610 E44.05167
G1 X148.870 Y164.941 E44.31057
G1 X148.644 Y164.602 E44.33091
G1 X144.862 Y168.384 E44.59776
G1 X144.523 Y168.157 E44.61810
G1 X148.417 Y164.263 E44.89288
G1 X148.085 Y164.029 E44.91314
G1 X144.183 Y167.931 E45.18842
G1 X143.304 Y168.244 E45.23499
G1 X147.746 Y163.802 E45.54840
G1 X147.368 Y163.615 E45.56946
G1 X142.619 Y168.363 E45.90448
G1 X142.148 Y168.269 E45.92848
G1 X146.896 Y163.521 E46.26350
G1 X146.410 Y163.441 E46.28805
G1 X141.676 Y168.176 E46.62209
G1 X141.317 Y167.968 E46.64275
G1 X145.704 Y163.582 E46.95227
G1 X144.998 Y163.722 E46.98819
G1 X140.978 Y167.742 E47.27181
G1 X140.663 Y167.491 E47.29190
G1 X144.499 Y163.655 E47.56258
G1 X144.640 Y162.949 E47.59850
G1 X140.436 Y167.152 E47.89508
G1 X140.210 Y166.813 E47.91542
G1 X144.780 Y162.242 E48.23790
G1 X144.811 Y161.646 E48.26768
G1 X140.059 Y166.398 E48.60291
G1 X139.966 Y165.926 E48.62691
G1 X144.717 Y161.174 E48.96215
G1 X144.592 Y160.733 E48.98502
G1 X139.951 Y165.375 E49.31251
G1 X140.091 Y164.669 E49.34843
G1 X144.366 Y160.394 E49.65003
G1 X144.139 Y160.055 E49.67038
G1 X140.237 Y163.957 E49.94566
G1 X140.011 Y163.618 E49.96601
G1 X143.846 Y159.783 E50.23660
G1 X143.507 Y159.556 E50.25694
G1 X139.784 Y163.279 E50.51959
G1 X139.558 Y162.940 E50.53994
G1 X143.168 Y159.330 E50.79464
G1 X143.018 Y158.914 E50.81670
G1 X139.458 Y162.474 E51.06790
G1 X139.318 Y162.048 E51.09027
G1 X142.923 Y158.443 E51.34465
G1 X142.697 Y158.103 E51.36499
G1 X138.979 Y161.821 E51.62731
G1 X138.640 Y161.595 E51.64765
G1 X142.470 Y157.764 E51.91790
G1 X142.203 Y157.466 E51.93789
G1 X138.342 Y161.327 E52.21027
G1 X138.115 Y160.988 E52.23062
G1 X141.863 Y157.240 E52.49507
G1 X141.906 Y156.632 E52.52546
G1 X137.889 Y160.649 E52.80886
G1 X137.759 Y160.213 E52.83154
G1 X141.812 Y156.160 E53.11750
G1 X141.695 Y155.711 E53.14064
G1 X137.665 Y159.741 E53.42498
G1 X137.685 Y159.155 E53.45424
G1 X141.468 Y155.372 E53.72114
G1 X141.242 Y155.033 E53.74149
G1 X137.392 Y158.883 E54.01308
G1 X137.113 Y158.596 E54.03304
G1 X141.234 Y154.475 E54.32377
G1 X141.310 Y153.834 E54.35601
G1 X136.887 Y158.257 E54.66808
G1 X136.660 Y157.918 E54.68843
G1 X141.216 Y153.362 E55.00987
G1 X141.117 Y152.895 E55.03368
G1 X136.552 Y157.460 E55.35575
G1 X136.458 Y156.988 E55.37975
G1 X140.891 Y152.556 E55.69246
G1 X141.209 Y151.671 E55.73937
G1 X136.519 Y156.362 E56.07033
G1 X136.536 Y155.779 E56.09941
G1 X141.326 Y150.989 E56.43741
G1 X141.232 Y150.517 E56.46141
G1 X136.309 Y155.440 E56.80876
G1 X136.083 Y155.101 E56.82911
G1 X141.291 Y149.892 E57.19661
G1 X141.820 Y148.798 E57.25725
G1 X135.957 Y154.661 E57.67094
G1 X135.863 Y154.190 E57.69495
G1 X141.933 Y148.119 E58.12325
G1 X142.912 Y146.575 E58.21448
G1 X135.891 Y153.596 E58.70985
G1 X136.057 Y152.864 E58.74729
G1 X143.063 Y145.857 E59.24164
G1 X143.088 Y145.267 E59.27112
G1 X136.122 Y152.233 E59.76263
G1 X135.973 Y151.817 E59.78471
G1 X142.994 Y144.795 E60.28011
