;-- START GCODE --
;Sliced for Type A Machines Series 1
;Sliced at: Sat 07-02-2015 14:01:53
;Basic settings: Layer height: 0.15 Walls: 0.8 Fill: 12
;Print Speed: 50 Support: 0
;Retraction Speed: 40 Retraction Distance: 1.2
;Print time: #P_TIME#
;Filament used: #F_AMNT#m #F_WGHT#g
;Filament cost: #F_COST#
M106 S255	 ;start with the fan on
G21        ;metric values
G90        ;absolute positioning
M106 S255    ;start with the fan on
G28     ;move to endstops
G29		;allows for auto-levelling
G1 X150 Y5  Z15.0 F12000 ;center and move the platform down 15mm
M109 S220 ;Heat To temp
G92 E0                  ;zero the extruded length
G1 F200 E30              ;extrude 30mm of feed stock
G92 E0                  ;zero the extruded length again
G1 X175 Y25  Z0 F12000 ;remove bugger
G1 X220 F12000 ;remove bugger
G1 X150 Y150  Z15 F12000 ;recenter and begin
G1 F12000

;Layer count: 153
;LAYER:0
M106 S255
G0 F12000 X144.88 Y144.64 Z0.25
;TYPE:SKIRT
G1 F1800 X145.68 Y143.98 E0.04302
G1 X146.31 Y143.59 E0.07420
G1 X146.86 Y143.29 E0.10008
G1 X147.83 Y142.93 E0.14311
G1 X149.22 Y142.63 E0.20221
G1 X150.14 Y142.60 E0.24061
G1 X150.85 Y142.56 E0.26992
G1 X151.55 Y142.55 E0.29928
G1 X152.34 Y142.57 E0.33188
G1 X153.07 Y142.62 E0.36235
G1 X154.14 Y142.74 E0.40701
G1 X155.26 Y142.88 E0.45419
G1 X156.14 Y143.04 E0.49142
G1 X157.08 Y143.31 E0.53175
G1 X157.90 Y143.65 E0.56878
G1 X158.31 Y143.83 E0.58742
G1 X159.18 Y144.38 E0.63027
G1 X160.11 Y145.16 E0.68079
G1 X160.64 Y145.73 E0.71311
G1 X161.25 Y146.50 E0.75367
G1 X161.70 Y147.25 E0.79023
G1 X162.15 Y148.29 E0.83748
G1 X162.43 Y149.29 E0.88041
G1 X162.51 Y149.79 E0.90161
G1 X162.55 Y149.90 E0.90614
G1 X162.66 Y150.72 E0.94069
G1 X162.68 Y151.43 E0.97044
G1 X162.61 Y152.41 E1.01135
G1 X162.44 Y153.33 E1.04991
G1 X162.22 Y154.08 E1.08246
G1 X162.02 Y154.71 E1.10974
G1 X161.97 Y154.85 E1.11617
G1 X161.95 Y154.96 E1.12100
G1 X161.68 Y155.69 E1.15299
G1 X161.41 Y156.40 E1.18456
G1 X161.04 Y157.28 E1.22438
G1 X160.50 Y158.19 E1.26822
G1 X160.20 Y158.65 E1.29098
G1 X159.55 Y159.42 E1.33323
G1 X158.80 Y160.15 E1.37661
G1 X158.60 Y160.29 E1.38663
G1 X158.41 Y160.47 E1.39748
G1 X157.33 Y161.12 E1.45004
G1 X156.34 Y161.59 E1.49550
G1 X155.53 Y161.91 E1.53168
G1 X154.65 Y162.16 E1.57000
G1 X153.78 Y162.32 E1.60670
G1 X152.58 Y162.38 E1.65649
G1 X151.81 Y162.34 E1.68853
G1 X151.04 Y162.30 E1.72084
G1 X150.75 Y162.28 E1.73288
G1 X149.75 Y162.09 E1.77505
G1 X148.84 Y161.83 E1.81431
G1 X147.97 Y161.47 E1.85355
G1 X147.15 Y161.02 E1.89258
G1 X146.75 Y160.77 E1.91191
G1 X146.06 Y160.25 E1.94799
G1 X145.33 Y159.54 E1.99050
G1 X144.66 Y158.78 E2.03257
G1 X143.97 Y157.77 E2.08319
G1 X143.37 Y156.57 E2.13897
G1 X143.03 Y155.66 E2.17944
G1 X142.85 Y154.95 E2.20998
G1 X142.63 Y154.16 E2.24424
G1 X142.51 Y153.33 E2.27903
G1 X142.44 Y152.61 E2.30889
G1 X142.42 Y152.01 E2.33395
G1 X142.42 Y151.90 E2.33853
G1 X142.42 Y151.58 E2.35179
G1 X142.46 Y151.09 E2.37214
G1 X142.48 Y150.43 E2.39964
G1 X142.56 Y149.59 E2.43478
G1 X142.79 Y148.44 E2.48364
G1 X143.10 Y147.51 E2.52418
G1 X143.29 Y147.01 E2.54677
G1 X143.98 Y145.74 E2.60672
G1 X144.88 Y144.64 E2.66571
G0 F12000 X145.16 Y144.93
G1 F1800 X145.91 Y144.31 E2.70592
G1 X146.51 Y143.94 E2.73546
G1 X147.03 Y143.66 E2.75978
G1 X147.94 Y143.32 E2.80046
G1 X149.27 Y143.03 E2.85687
G1 X150.22 Y142.99 E2.89648
G1 X150.86 Y142.96 E2.92304
G1 X151.55 Y142.95 E2.95169
G1 X152.32 Y142.97 E2.98363
G1 X153.03 Y143.02 E3.01344
G1 X154.09 Y143.14 E3.05768
G1 X155.20 Y143.27 E3.10418
G1 X156.05 Y143.44 E3.14015
G1 X156.95 Y143.69 E3.17883
G1 X157.74 Y144.01 E3.21455
G1 X158.12 Y144.19 E3.23184
G1 X158.95 Y144.70 E3.27233
G1 X159.83 Y145.45 E3.32064
G1 X160.34 Y146.00 E3.35141
G1 X160.92 Y146.72 E3.39016
G1 X161.34 Y147.44 E3.42453
G1 X161.77 Y148.43 E3.46957
G1 X162.04 Y149.38 E3.51052
G1 X162.13 Y149.89 E3.53214
G1 X162.16 Y149.98 E3.53624
G1 X162.26 Y150.75 E3.56853
G1 X162.28 Y151.43 E3.59653
G1 X162.21 Y152.36 E3.63555
G1 X162.05 Y153.24 E3.67250
G1 X161.84 Y153.97 E3.70402
G1 X161.65 Y154.58 E3.73078
G1 X161.59 Y154.75 E3.73813
G1 X161.56 Y154.85 E3.74254
G1 X161.31 Y155.54 E3.77341
G1 X161.04 Y156.25 E3.80466
G1 X160.68 Y157.10 E3.84306
G1 X160.16 Y157.98 E3.88537
G1 X159.88 Y158.41 E3.90674
G1 X159.26 Y159.15 E3.94713
G1 X158.54 Y159.84 E3.98853
G1 X158.34 Y159.98 E3.99859
G1 X158.17 Y160.15 E4.00856
G1 X157.14 Y160.77 E4.05853
G1 X156.19 Y161.22 E4.10253
G1 X155.41 Y161.53 E4.13737
G1 X154.56 Y161.77 E4.17408
G1 X153.73 Y161.92 E4.20889
G1 X152.58 Y161.98 E4.25680
G1 X151.83 Y161.94 E4.28801
G1 X151.06 Y161.90 E4.32011
G1 X150.80 Y161.89 E4.33099
G1 X149.84 Y161.70 E4.37142
G1 X148.97 Y161.45 E4.40899
G1 X148.14 Y161.11 E4.44639
G1 X147.35 Y160.68 E4.48398
G1 X146.98 Y160.45 E4.50202
G1 X146.32 Y159.94 E4.53644
G1 X145.62 Y159.26 E4.57731
G1 X144.97 Y158.53 E4.61764
G1 X144.32 Y157.57 E4.66614
G1 X143.74 Y156.41 E4.72002
G1 X143.41 Y155.54 E4.75861
G1 X143.23 Y154.82 E4.78962
G1 X143.03 Y154.07 E4.82174
G1 X142.91 Y153.28 E4.85515
G1 X142.84 Y152.58 E4.88422
G1 X142.82 Y152.01 E4.90819
G1 X142.82 Y151.91 E4.91243
G1 X142.82 Y151.60 E4.92528
G1 X142.86 Y151.12 E4.94518
G1 X142.88 Y150.46 E4.97267
G1 X142.96 Y149.65 E5.00644
G1 X143.18 Y148.54 E5.05343
G1 X143.47 Y147.65 E5.09254
G1 X143.66 Y147.17 E5.11369
G1 X144.31 Y145.96 E5.17100
G1 X145.16 Y144.93 E5.22677
G0 F12000 X145.45 Y145.21
G1 F1800 X146.14 Y144.63 E5.26418
G1 X146.71 Y144.28 E5.29206
G1 X147.19 Y144.03 E5.31481
G1 X148.06 Y143.70 E5.35315
G1 X149.32 Y143.43 E5.40688
G1 X150.22 Y143.39 E5.44411
G1 X150.88 Y143.36 E5.47155
G1 X151.55 Y143.35 E5.49949
G1 X152.30 Y143.37 E5.53077
G1 X153.00 Y143.42 E5.55986
G1 X154.04 Y143.53 E5.60368
G1 X155.14 Y143.67 E5.64952
G1 X155.96 Y143.82 E5.68426
G1 X156.82 Y144.06 E5.72122
G1 X157.58 Y144.38 E5.75567
G1 X157.93 Y144.54 E5.77155
G1 X158.71 Y145.03 E5.80974
G1 X159.55 Y145.74 E5.85587
G1 X160.03 Y146.26 E5.88502
G1 X160.59 Y146.95 E5.92200
G1 X160.98 Y147.62 E5.95419
G1 X161.39 Y148.56 E5.99701
G1 X161.65 Y149.47 E6.03602
G1 X161.74 Y149.98 E6.05788
G1 X161.76 Y150.07 E6.06168
G1 X161.86 Y150.79 E6.09171
G1 X161.88 Y151.42 E6.11800
G1 X161.81 Y152.31 E6.15511
G1 X161.66 Y153.14 E6.19041
G1 X161.46 Y153.85 E6.22093
G1 X161.27 Y154.45 E6.24717
G1 X161.20 Y154.63 E6.25496
G1 X161.18 Y154.73 E6.25941
G1 X160.93 Y155.41 E6.28921
G1 X160.66 Y156.10 E6.32009
G1 X160.32 Y156.92 E6.35713
G1 X159.82 Y157.76 E6.39786
G1 X159.56 Y158.17 E6.41785
G1 X158.96 Y158.88 E6.45639
G1 X158.28 Y159.53 E6.49579
G1 X158.09 Y159.67 E6.50569
G1 X157.93 Y159.83 E6.51498
G1 X156.95 Y160.42 E6.56236
G1 X156.03 Y160.85 E6.60489
G1 X155.28 Y161.15 E6.63842
G1 X154.47 Y161.38 E6.67346
G1 X153.69 Y161.52 E6.70641
G1 X152.58 Y161.58 E6.75249
G1 X151.85 Y161.54 E6.78283
G1 X151.08 Y161.50 E6.81472
G1 X150.85 Y161.49 E6.82447
G1 X149.94 Y161.31 E6.86313
G1 X149.11 Y161.08 E6.89901
G1 X148.32 Y160.75 E6.93461
G1 X147.55 Y160.33 E6.97074
G1 X147.21 Y160.12 E6.98751
G1 X146.58 Y159.64 E7.02027
G1 X145.91 Y158.99 E7.05947
G1 X145.29 Y158.29 E7.09806
G1 X144.67 Y157.37 E7.14443
G1 X144.11 Y156.25 E7.19640
G1 X143.79 Y155.42 E7.23313
G1 X143.62 Y154.74 E7.26226
G1 X143.42 Y153.99 E7.29458
G1 X143.31 Y153.23 E7.32661
G1 X143.24 Y152.55 E7.35488
G1 X143.22 Y152.00 E7.37777
G1 X143.22 Y151.91 E7.38168
G1 X143.22 Y151.61 E7.39416
G1 X143.25 Y151.16 E7.41301
G1 X143.28 Y150.48 E7.44105
G1 X143.35 Y149.71 E7.47343
G1 X143.56 Y148.64 E7.51860
G1 X143.85 Y147.78 E7.55625
G1 X144.02 Y147.34 E7.57598
G1 X144.64 Y146.19 E7.63060
G1 X145.45 Y145.21 E7.68320
G1 F2400 E6.48320
G0 F12000 X148.15 Y147.90
;TYPE:WALL-INNER
G1 F2400 E7.68320
G1 F1800 X148.35 Y147.74 E7.69425
G1 X148.77 Y147.49 E7.71424
G1 X149.14 Y147.35 E7.73066
G1 X149.79 Y147.21 E7.75840
G1 X150.39 Y147.19 E7.78332
G1 X151.00 Y147.16 E7.80872
G1 X151.51 Y147.15 E7.82997
G1 X152.12 Y147.17 E7.85542
G1 X152.65 Y147.20 E7.87722
G1 X153.61 Y147.31 E7.91758
G1 X154.55 Y147.43 E7.95691
G1 X155.08 Y147.53 E7.97943
G1 X155.57 Y147.66 E8.00058
G1 X156.08 Y147.87 E8.02356
G1 X156.46 Y148.10 E8.04177
G1 X156.92 Y148.50 E8.06710
G1 X157.15 Y148.74 E8.08084
G1 X157.46 Y149.12 E8.10140
G1 X157.59 Y149.35 E8.11251
G1 X157.81 Y149.84 E8.13451
G1 X157.86 Y150.04 E8.14340
G1 X157.81 Y150.23 E8.15145
G1 X157.56 Y150.70 E8.17363
G1 X158.02 Y151.13 E8.19964
G1 X158.07 Y151.16 E8.20189
G1 X158.08 Y151.35 E8.21013
G1 X158.04 Y151.81 E8.22910
G1 X157.96 Y152.26 E8.24836
G1 X157.82 Y152.75 E8.26925
G1 X157.66 Y153.25 E8.29138
G1 X157.38 Y154.06 E8.32700
G1 X157.14 Y154.68 E8.35452
G1 X156.92 Y155.22 E8.37860
G1 X156.60 Y155.75 E8.40440
G1 X156.51 Y155.89 E8.41142
G1 X156.19 Y156.27 E8.43190
G1 X155.82 Y156.62 E8.45301
G1 X155.62 Y156.78 E8.46406
G1 X155.15 Y157.07 E8.48677
G1 X154.53 Y157.36 E8.51515
G1 X154.05 Y157.55 E8.53645
G1 X153.61 Y157.67 E8.55579
G1 X153.25 Y157.74 E8.57095
G1 X152.56 Y157.77 E8.59946
G1 X152.04 Y157.75 E8.62139
G1 X151.34 Y157.71 E8.65054
G1 X150.82 Y157.61 E8.67231
G1 X150.36 Y157.48 E8.69244
G1 X149.95 Y157.31 E8.71067
G1 X149.48 Y157.06 E8.73281
G1 X149.06 Y156.75 E8.75488
G1 X148.66 Y156.36 E8.77778
G1 X148.30 Y155.96 E8.80011
G1 X147.95 Y155.44 E8.82625
G1 X147.59 Y154.71 E8.86009
G1 X147.42 Y154.28 E8.87913
G1 X147.29 Y153.77 E8.90133
G1 X147.15 Y153.22 E8.92469
G1 X147.03 Y152.28 E8.96419
G1 X147.02 Y151.98 E8.97667
G1 X147.02 Y151.96 E8.97755
G1 X147.02 Y151.75 E8.98636
G1 X147.05 Y151.35 E9.00276
G1 X147.07 Y150.73 E9.02871
G1 X147.12 Y150.27 E9.04785
G1 X147.25 Y149.61 E9.07577
G1 X147.43 Y149.07 E9.09971
G1 X147.48 Y148.93 E9.10573
G1 X147.81 Y148.31 E9.13500
G1 X148.15 Y147.90 E9.15698
G0 F12000 X147.87 Y147.62
;TYPE:WALL-OUTER
G1 F1800 X148.12 Y147.41 E9.17086
G1 X148.61 Y147.12 E9.19424
G1 X149.02 Y146.97 E9.21266
G1 X149.74 Y146.81 E9.24325
G1 X150.37 Y146.79 E9.26946
G1 X150.99 Y146.76 E9.29536
G1 X151.52 Y146.75 E9.31715
G1 X152.13 Y146.77 E9.34281
G1 X152.69 Y146.81 E9.36594
G1 X153.66 Y146.91 E9.40630
G1 X154.61 Y147.03 E9.44647
G1 X155.17 Y147.14 E9.47017
G1 X155.71 Y147.29 E9.49323
G1 X156.24 Y147.50 E9.51702
G1 X156.32 Y147.54 E9.52070
G1 X156.70 Y147.78 E9.53929
G1 X157.20 Y148.21 E9.56690
G1 X157.45 Y148.47 E9.58205
G1 X157.78 Y148.89 E9.60423
G1 X157.95 Y149.17 E9.61788
G1 X158.18 Y149.70 E9.64173
G1 X158.32 Y150.21 E9.66391
G1 X158.22 Y150.23 E9.66812
G1 X158.18 Y150.38 E9.67464
G1 X158.06 Y150.62 E9.68567
G1 X158.27 Y150.81 E9.69771
G1 X158.34 Y150.85 E9.70091
G1 X158.44 Y150.87 E9.70534
G1 X158.48 Y151.36 E9.72581
G1 X158.44 Y151.86 E9.74666
G1 X158.34 Y152.36 E9.76761
G1 X158.20 Y152.87 E9.78981
G1 X158.04 Y153.37 E9.81171
G1 X157.75 Y154.21 E9.84849
G1 X157.51 Y154.84 E9.87645
G1 X157.27 Y155.40 E9.90184
G1 X156.94 Y155.96 E9.92888
G1 X156.83 Y156.13 E9.93735
G1 X156.48 Y156.55 E9.96010
G1 X156.09 Y156.93 E9.98274
G1 X155.86 Y157.10 E9.99485
G1 X155.34 Y157.42 E10.02008
G1 X154.68 Y157.73 E10.05030
G1 X154.18 Y157.93 E10.07250
G1 X153.70 Y158.06 E10.09351
G1 X153.30 Y158.14 E10.11033
G1 X152.57 Y158.17 E10.14088
G1 X152.01 Y158.15 E10.16381
G1 X151.29 Y158.11 E10.19404
G1 X150.73 Y158.00 E10.21782
G1 X150.23 Y157.86 E10.23922
G1 X149.78 Y157.67 E10.25967
G1 X149.28 Y157.40 E10.28326
G1 X149.15 Y157.32 E10.28943
G1 X148.80 Y157.06 E10.30789
G1 X148.36 Y156.63 E10.33335
G1 X147.99 Y156.21 E10.35662
G1 X147.61 Y155.64 E10.38504
G1 X147.22 Y154.87 E10.42092
G1 X147.04 Y154.40 E10.44188
G1 X146.91 Y153.87 E10.46480
G1 X146.76 Y153.31 E10.48891
G1 X146.68 Y152.82 E10.50942
G1 X146.64 Y152.31 E10.53051
G1 X146.62 Y151.98 E10.54453
G1 X146.62 Y151.95 E10.54545
G1 X146.62 Y151.72 E10.55501
G1 X146.65 Y151.33 E10.57137
G1 X146.67 Y150.70 E10.59765
G1 X146.72 Y150.21 E10.61826
G1 X146.86 Y149.52 E10.64750
G1 X147.05 Y148.94 E10.67292
G1 X147.12 Y148.76 E10.68077
G1 X147.48 Y148.09 E10.71256
G1 X147.87 Y147.62 E10.73769
G0 F12000 X148.27 Y147.99
;TYPE:FILL
G1 F1800 X156.26 Y155.97 E11.20733
G0 F12000 X155.99 Y156.27
G1 F1800 X148.01 Y148.29 E11.67637
G0 F12000 X147.79 Y148.64
G1 F1800 X155.69 Y156.54 E12.14095
G0 F12000 X155.36 Y156.77
G1 F1800 X147.60 Y149.01 E12.59730
G0 F12000 X147.45 Y149.43
G1 F1800 X155.00 Y156.98 E13.04121
G0 F12000 X154.62 Y157.16
G1 F1800 X147.33 Y149.88 E13.46942
G0 F12000 X147.25 Y150.36
G1 F1800 X154.22 Y157.33 E13.87929
G0 F12000 X153.80 Y157.47
G1 F1800 X147.20 Y150.88 E14.26687
G0 F12000 X147.18 Y151.43
G1 F1800 X153.34 Y157.58 E14.62865
G0 F12000 X152.81 Y157.62
G1 F1800 X147.16 Y151.97 E14.96093
G0 F12000 X147.21 Y152.59
G1 F1800 X152.24 Y157.62 E15.25668
G0 F12000 X151.65 Y157.59
G1 F1800 X147.29 Y153.24 E15.51250
G0 F12000 X147.50 Y154.00
G1 F1800 X151.00 Y157.50 E15.71841
G0 F12000 X150.19 Y157.26
G1 F1800 X147.84 Y154.92 E15.85611
G0 F12000 X148.60 Y147.75
G1 F1800 X156.50 Y155.65 E16.32036
G0 F12000 X156.71 Y155.29
G1 F1800 X148.98 Y147.56 E16.77488
G0 F12000 X149.42 Y147.44
G1 F1800 X156.89 Y154.91 E17.21439
G0 F12000 X157.05 Y154.51
G1 F1800 X149.89 Y147.35 E17.63542
G0 F12000 X150.44 Y147.33
G1 F1800 X157.21 Y154.10 E18.03359
G0 F12000 X157.36 Y153.68
G1 F1800 X150.97 Y147.30 E18.40901
G0 F12000 X151.53 Y147.29
G1 F1800 X157.51 Y153.26 E18.76017
G0 F12000 X157.64 Y152.84
G1 F1800 X152.12 Y147.31 E19.08519
G0 F12000 X152.73 Y147.35
G1 F1800 X157.77 Y152.40 E19.38176
G0 F12000 X157.88 Y151.94
G1 F1800 X153.36 Y147.42 E19.64711
G0 F12000 X154.00 Y147.50
G1 F1800 X157.93 Y151.43 E19.87806
G0 F12000 X157.53 Y150.46
G1 F1800 X154.66 Y147.59 E20.04686
G0 F12000 X155.40 Y147.76
G1 F1800 X157.71 Y150.07 E20.18274
G0 F12000 X157.08 Y148.88
G1 F1800 X156.64 Y148.44 E20.20870
;LAYER:1
G0 F12000 X156.61 Y148.18 Z0.40
;TYPE:WALL-INNER
G1 F2040 X157.07 Y148.60 E20.22426
G1 X157.40 Y148.97 E20.23678
G1 X157.65 Y149.34 E20.24773
G1 X157.74 Y149.52 E20.25279
G1 X157.90 Y149.95 E20.26423
G1 X158.01 Y150.34 E20.27429
G1 X158.10 Y150.81 E20.28627
G1 X158.12 Y151.07 E20.29287
G1 X158.13 Y151.41 E20.30130
G1 X158.05 Y152.01 E20.31644
G1 X157.80 Y152.91 E20.33958
G1 X157.63 Y153.42 E20.35320
G1 X157.45 Y153.91 E20.36621
G1 X157.29 Y154.36 E20.37815
G1 X157.07 Y154.94 E20.39345
G1 X156.87 Y155.37 E20.40544
G1 X156.54 Y155.91 E20.42121
G1 X156.29 Y156.23 E20.43125
G1 X156.01 Y156.51 E20.44109
G1 X155.59 Y156.83 E20.45445
G1 X155.18 Y157.10 E20.46663
G1 X154.28 Y157.50 E20.49127
G1 X154.01 Y157.57 E20.49813
G1 X153.95 Y157.60 E20.49972
G1 X153.53 Y157.71 E20.51055
G1 X153.00 Y157.78 E20.52396
G1 X152.70 Y157.79 E20.53148
G1 X152.31 Y157.78 E20.54129
G1 X152.16 Y157.79 E20.54486
G1 X151.54 Y157.75 E20.56039
G1 X151.39 Y157.74 E20.56418
G1 X150.83 Y157.64 E20.57831
G1 X150.44 Y157.55 E20.58823
G1 X149.93 Y157.33 E20.60219
G1 X149.57 Y157.13 E20.61241
G1 X148.79 Y156.48 E20.63782
G1 X148.35 Y156.05 E20.65311
G1 X148.08 Y155.67 E20.66484
G1 X148.02 Y155.54 E20.66842
G1 X147.82 Y155.25 E20.67715
G1 X147.72 Y155.05 E20.68272
G1 X147.62 Y154.68 E20.69218
G1 X147.49 Y154.39 E20.70007
G1 X147.45 Y154.34 E20.70173
G1 X147.48 Y154.13 E20.70698
G1 X147.44 Y153.86 E20.71383
G1 X147.38 Y153.67 E20.71871
G1 X147.24 Y153.36 E20.72714
G1 X147.10 Y152.93 E20.73837
G1 X147.00 Y152.12 E20.75888
G1 X147.00 Y152.04 E20.76077
G1 X147.05 Y151.78 E20.76741
G1 X147.01 Y151.56 E20.77303
G1 X147.02 Y151.44 E20.77593
G1 X147.02 Y151.37 E20.77785
G1 X147.05 Y150.62 E20.79638
G1 X147.11 Y150.05 E20.81070
G1 X147.24 Y149.46 E20.82577
G1 X147.41 Y149.00 E20.83821
G1 X147.62 Y148.58 E20.84986
G1 X147.81 Y148.27 E20.85885
G1 X148.04 Y147.99 E20.86776
G1 X148.37 Y147.70 E20.87881
G1 X148.55 Y147.59 E20.88393
G1 X148.93 Y147.42 E20.89444
G1 X149.37 Y147.29 E20.90593
G1 X149.82 Y147.22 E20.91731
G1 X150.33 Y147.21 E20.93003
G1 X150.63 Y147.20 E20.93745
G1 X150.84 Y147.21 E20.94265
G1 X151.33 Y147.17 E20.95500
G1 X151.60 Y147.18 E20.96169
G1 X151.70 Y147.22 E20.96434
G1 X151.97 Y147.24 E20.97115
G1 X152.34 Y147.21 E20.98044
G1 X152.87 Y147.25 E20.99367
G1 X154.46 Y147.43 E21.03342
G1 X155.12 Y147.54 E21.05013
G1 X155.32 Y147.60 E21.05535
G1 X155.81 Y147.77 E21.06831
G1 X156.21 Y147.92 E21.07895
G1 X156.61 Y148.18 E21.09082
G0 F12000 X156.85 Y147.86
;TYPE:WALL-OUTER
G1 F2040 X157.36 Y148.32 E21.10795
G1 X157.71 Y148.73 E21.12150
G1 X157.81 Y148.85 E21.12536
G1 X158.00 Y149.14 E21.13407
G1 X158.10 Y149.35 E21.13995
G1 X158.28 Y149.83 E21.15265
G1 X158.40 Y150.24 E21.16335
G1 X158.50 Y150.76 E21.17650
G1 X158.53 Y151.05 E21.18364
G1 X158.53 Y151.44 E21.19337
G1 X158.44 Y152.09 E21.20982
G1 X158.19 Y153.02 E21.23387
G1 X158.00 Y153.56 E21.24804
G1 X157.66 Y154.52 E21.27350
G1 X157.45 Y155.08 E21.28847
G1 X157.22 Y155.56 E21.30181
G1 X156.87 Y156.15 E21.31883
G1 X156.59 Y156.49 E21.32985
G1 X156.21 Y156.87 E21.34325
G1 X155.81 Y157.17 E21.35568
G1 X155.38 Y157.45 E21.36851
G1 X154.90 Y157.67 E21.38158
G1 X154.41 Y157.88 E21.39478
G1 X154.15 Y157.95 E21.40165
G1 X154.09 Y157.98 E21.40328
G1 X153.61 Y158.11 E21.41576
G1 X153.04 Y158.18 E21.43013
G1 X152.70 Y158.19 E21.43847
G1 X152.31 Y158.18 E21.44825
G1 X152.16 Y158.19 E21.45200
G1 X151.52 Y158.15 E21.46802
G1 X151.34 Y158.14 E21.47239
G1 X150.75 Y158.03 E21.48751
G1 X150.32 Y157.93 E21.49854
G1 X149.75 Y157.69 E21.51382
G1 X149.34 Y157.46 E21.52558
G1 X148.52 Y156.78 E21.55220
G1 X148.05 Y156.31 E21.56879
G1 X147.73 Y155.86 E21.58267
G1 X147.67 Y155.73 E21.58611
G1 X147.48 Y155.45 E21.59469
G1 X147.35 Y155.19 E21.60180
G1 X147.25 Y154.82 E21.61141
G1 X147.14 Y154.59 E21.61774
G1 X147.09 Y154.52 E21.61978
G1 X147.05 Y154.43 E21.62225
G1 X147.05 Y154.35 E21.62418
G1 X147.07 Y154.13 E21.62970
G1 X147.05 Y153.94 E21.63457
G1 X147.01 Y153.81 E21.63802
G1 X146.87 Y153.50 E21.64651
G1 X146.72 Y153.03 E21.65881
G1 X146.60 Y152.14 E21.68126
G1 X146.61 Y151.95 E21.68585
G1 X146.63 Y151.91 E21.68702
G1 X146.65 Y151.78 E21.69023
G1 X146.61 Y151.58 E21.69537
G1 X146.62 Y151.43 E21.69910
G1 X146.62 Y151.36 E21.70087
G1 X146.63 Y150.87 E21.71317
G1 X146.71 Y149.99 E21.73528
G1 X146.85 Y149.35 E21.75143
G1 X147.05 Y148.83 E21.76527
G1 X147.27 Y148.38 E21.77792
G1 X147.49 Y148.04 E21.78795
G1 X147.75 Y147.72 E21.79834
G1 X148.13 Y147.38 E21.81094
G1 X148.36 Y147.24 E21.81762
G1 X148.80 Y147.04 E21.82962
G1 X149.28 Y146.90 E21.84220
G1 X149.79 Y146.82 E21.85519
G1 X150.32 Y146.81 E21.86829
G1 X150.64 Y146.80 E21.87628
G1 X150.84 Y146.81 E21.88123
G1 X151.32 Y146.77 E21.89338
G1 X151.64 Y146.78 E21.90139
G1 X151.79 Y146.83 E21.90511
G1 X151.96 Y146.84 E21.90936
G1 X152.07 Y146.82 E21.91229
G1 X152.35 Y146.81 E21.91926
G1 X152.90 Y146.85 E21.93296
G1 X154.52 Y147.03 E21.97361
G1 X155.16 Y147.14 E21.98974
G1 X155.17 Y147.14 E21.99017
G1 X155.94 Y147.39 E22.01028
G1 X156.39 Y147.56 E22.02223
G1 X156.85 Y147.86 E22.03583
G0 F12000 X156.41 Y148.22
;TYPE:FILL
G1 F2040 X148.56 Y156.06 E22.31253
G0 F12000 X148.84 Y156.34
G1 F2040 X156.72 Y148.47 E22.59029
G0 F12000 X157.01 Y148.74
G1 F2040 X149.15 Y156.60 E22.86757
G0 F12000 X149.46 Y156.86
G1 F2040 X157.27 Y149.04 E23.14321
G0 F12000 X157.50 Y149.38
G1 F2040 X149.79 Y157.09 E23.41535
G0 F12000 X150.17 Y157.28
G1 F2040 X157.68 Y149.77 E23.68035
G0 F12000 X157.82 Y150.19
G1 F2040 X150.58 Y157.44 E23.93587
G0 F12000 X151.04 Y157.54
G1 F2040 X157.92 Y150.66 E24.17865
G0 F12000 X157.98 Y151.16
G1 F2040 X151.54 Y157.61 E24.40605
G0 F12000 X152.07 Y157.64
G1 F2040 X157.94 Y151.78 E24.61306
G0 F12000 X157.76 Y152.51
G1 F2040 X152.63 Y157.65 E24.79426
G0 F12000 X153.23 Y157.61
G1 F2040 X157.50 Y153.35 E24.94470
G0 F12000 X157.19 Y154.22
G1 F2040 X153.97 Y157.44 E25.05823
G0 F12000 X154.91 Y157.06
G1 F2040 X156.81 Y155.17 E25.12504
G0 F12000 X156.05 Y148.01
G1 F2040 X148.31 Y155.75 E25.39795
G0 F12000 X148.09 Y155.40
G1 F2040 X155.63 Y147.86 E25.66388
G0 F12000 X155.21 Y147.71
G1 F2040 X147.88 Y155.04 E25.92243
G0 F12000 X147.75 Y154.61
G1 F2040 X154.74 Y147.62 E26.16912
G0 F12000 X154.25 Y147.54
G1 F2040 X147.61 Y154.18 E26.40323
G0 F12000 X147.53 Y153.69
G1 F2040 X153.74 Y147.49 E26.62214
G0 F12000 X153.23 Y147.43
G1 F2040 X147.37 Y153.29 E26.82903
G0 F12000 X147.24 Y152.86
G1 F2040 X152.72 Y147.38 E27.02249
G0 F12000 X152.16 Y147.37
G1 F2040 X147.17 Y152.36 E27.19856
G0 F12000 X147.19 Y151.77
G1 F2040 X151.62 Y147.34 E27.35484
G0 F12000 X151.06 Y147.34
G1 F2040 X147.16 Y151.23 E27.49235
G0 F12000 X147.19 Y150.64
G1 F2040 X150.49 Y147.34 E27.60873
G0 F12000 X149.91 Y147.36
G1 F2040 X147.26 Y150.00 E27.70197
G0 F12000 X147.48 Y149.22
G1 F2040 X149.22 Y147.48 E27.76339
;LAYER:2
G0 F12000 X149.26 Y147.33 Z0.55
;TYPE:WALL-INNER
G1 F2400 X149.35 Y147.36 E27.76573
G1 X149.63 Y147.33 E27.77277
G1 X149.66 Y147.31 E27.77376
G1 X149.76 Y147.31 E27.77616
G1 X149.90 Y147.25 E27.77999
G1 X150.32 Y147.24 E27.79060
G1 X150.55 Y147.26 E27.79631
G1 X150.59 Y147.26 E27.79724
G1 X150.81 Y147.27 E27.80279
G1 X151.04 Y147.33 E27.80870
G1 X151.23 Y147.33 E27.81342
G1 X151.43 Y147.30 E27.81834
G1 X151.45 Y147.31 E27.81900
G1 X151.73 Y147.42 E27.82662
G1 X151.84 Y147.41 E27.82940
G1 X151.99 Y147.41 E27.83304
G1 X152.06 Y147.38 E27.83503
G1 X152.45 Y147.33 E27.84476
G1 X152.73 Y147.26 E27.85201
G1 X153.13 Y147.31 E27.86200
G1 X153.44 Y147.40 E27.87021
G1 X153.66 Y147.39 E27.87550
G1 X153.72 Y147.37 E27.87726
G1 X154.35 Y147.44 E27.89304
G1 X154.50 Y147.51 E27.89720
G1 X154.82 Y147.61 E27.90551
G1 X154.94 Y147.62 E27.90856
G1 X155.17 Y147.60 E27.91420
G1 X155.30 Y147.68 E27.91807
G1 X155.82 Y147.85 E27.93164
G1 X156.33 Y148.02 E27.94508
G1 X156.44 Y148.06 E27.94801
G1 X156.78 Y148.30 E27.95849
G1 X156.88 Y148.40 E27.96176
G1 X156.90 Y148.46 E27.96341
G1 X157.13 Y148.65 E27.97079
G1 X157.60 Y149.22 E27.98924
G1 X157.75 Y149.48 E27.99685
G1 X157.86 Y149.79 E28.00499
G1 X158.08 Y150.52 E28.02387
G1 X158.16 Y151.01 E28.03628
G1 X158.16 Y151.07 E28.03776
G1 X158.15 Y151.61 E28.05126
G1 X158.07 Y152.07 E28.06296
G1 X157.88 Y152.67 E28.07859
G1 X157.79 Y152.98 E28.08666
G1 X157.77 Y153.00 E28.08750
G1 X157.46 Y153.69 E28.10629
G1 X157.35 Y154.21 E28.11942
G1 X157.17 Y154.71 E28.13277
G1 X157.00 Y155.13 E28.14415
G1 X156.92 Y155.21 E28.14682
G1 X156.75 Y155.48 E28.15484
G1 X156.75 Y155.63 E28.15843
G1 X156.62 Y155.84 E28.16450
G1 X156.53 Y155.94 E28.16805
G1 X156.38 Y156.07 E28.17300
G1 X156.35 Y156.15 E28.17507
G1 X156.18 Y156.37 E28.18201
G1 X155.92 Y156.50 E28.18945
G1 X155.40 Y156.91 E28.20574
G1 X155.17 Y157.11 E28.21350
G1 X154.96 Y157.24 E28.21968
G1 X154.37 Y157.48 E28.23558
G1 X154.23 Y157.47 E28.23900
G1 X154.14 Y157.51 E28.24144
G1 X154.12 Y157.51 E28.24181
G1 X153.99 Y157.56 E28.24530
G1 X153.82 Y157.65 E28.25005
G1 X153.71 Y157.68 E28.25310
G1 X153.45 Y157.67 E28.25952
G1 X153.32 Y157.69 E28.26278
G1 X152.93 Y157.80 E28.27293
G1 X152.90 Y157.80 E28.27370
G1 X152.77 Y157.75 E28.27708
G1 X152.45 Y157.71 E28.28503
G1 X151.77 Y157.78 E28.30206
G1 X151.31 Y157.75 E28.31370
G1 X150.85 Y157.65 E28.32531
G1 X150.81 Y157.62 E28.32650
G1 X150.47 Y157.50 E28.33549
G1 X150.33 Y157.53 E28.33920
G1 X150.21 Y157.48 E28.34245
G1 X150.15 Y157.44 E28.34415
G1 X149.85 Y157.28 E28.35273
G1 X149.77 Y157.25 E28.35472
G1 X149.71 Y157.22 E28.35646
G1 X149.60 Y157.03 E28.36177
G1 X149.25 Y156.76 E28.37301
G1 X148.89 Y156.58 E28.38286
G1 X148.81 Y156.51 E28.38555
G1 X148.50 Y156.16 E28.39717
G1 X148.35 Y156.04 E28.40202
G1 X148.23 Y155.89 E28.40671
G1 X148.07 Y155.64 E28.41418
G1 X148.06 Y155.59 E28.41554
G1 X148.05 Y155.48 E28.41817
G1 X147.87 Y155.22 E28.42613
G1 X147.81 Y155.18 E28.42782
G1 X147.78 Y155.12 E28.42946
G1 X147.76 Y154.90 E28.43497
G1 X147.70 Y154.66 E28.44123
G1 X147.59 Y154.40 E28.44830
G1 X147.57 Y154.38 E28.44896
G1 X147.59 Y154.32 E28.45070
G1 X147.52 Y153.99 E28.45905
G1 X147.39 Y153.75 E28.46594
G1 X147.24 Y153.62 E28.47068
G1 X147.15 Y153.30 E28.47920
G1 X147.13 Y153.17 E28.48244
G1 X147.13 Y153.14 E28.48304
G1 X147.13 Y153.05 E28.48544
G1 X147.13 Y152.91 E28.48873
G1 X147.12 Y152.80 E28.49169
G1 X147.04 Y152.50 E28.49940
G1 X147.00 Y152.13 E28.50860
G1 X147.07 Y151.97 E28.51295
G1 X147.08 Y151.78 E28.51779
G1 X147.07 Y151.71 E28.51957
G1 X147.08 Y151.56 E28.52320
G1 X147.01 Y151.38 E28.52808
G1 X147.01 Y151.19 E28.53279
G1 X147.03 Y150.51 E28.54966
G1 X147.14 Y149.77 E28.56853
G1 X147.22 Y149.43 E28.57703
G1 X147.36 Y149.05 E28.58722
G1 X147.57 Y148.63 E28.59893
G1 X147.76 Y148.32 E28.60809
G1 X147.95 Y148.08 E28.61569
G1 X148.28 Y147.76 E28.62701
G1 X148.50 Y147.62 E28.63352
G1 X148.96 Y147.41 E28.64631
G1 X149.26 Y147.33 E28.65394
G0 F12000 X149.39 Y146.96
;TYPE:WALL-OUTER
G1 F2400 X149.50 Y146.94 E28.65668
G1 X149.57 Y146.91 E28.65852
G1 X149.58 Y146.91 E28.65889
G1 X149.69 Y146.91 E28.66144
G1 X149.81 Y146.86 E28.66495
G1 X150.34 Y146.84 E28.67796
G1 X150.55 Y146.86 E28.68329
G1 X150.58 Y146.86 E28.68402
G1 X150.90 Y146.88 E28.69194
G1 X151.09 Y146.93 E28.69701
G1 X151.20 Y146.93 E28.69971
G1 X151.50 Y146.87 E28.70743
G1 X151.51 Y146.86 E28.70785
G1 X151.64 Y146.96 E28.71189
G1 X151.79 Y147.01 E28.71583
G1 X151.83 Y147.01 E28.71690
G1 X151.92 Y147.01 E28.71905
G1 X151.97 Y146.99 E28.72034
G1 X152.37 Y146.94 E28.73055
G1 X152.60 Y146.88 E28.73637
G1 X152.71 Y146.86 E28.73912
G1 X152.74 Y146.86 E28.73987
G1 X153.26 Y146.91 E28.75311
G1 X153.30 Y146.94 E28.75424
G1 X153.50 Y147.00 E28.75932
G1 X153.59 Y147.00 E28.76176
G1 X153.69 Y146.97 E28.76424
G1 X154.19 Y147.02 E28.77672
G1 X154.44 Y147.04 E28.78302
G1 X154.50 Y147.06 E28.78471
G1 X154.65 Y147.14 E28.78888
G1 X154.89 Y147.21 E28.79511
G1 X154.94 Y147.22 E28.79643
G1 X155.26 Y147.20 E28.80435
G1 X155.27 Y147.20 E28.80466
G1 X155.47 Y147.32 E28.81032
G1 X156.47 Y147.64 E28.83661
G1 X156.64 Y147.71 E28.84101
G1 X157.05 Y148.00 E28.85374
G1 X157.21 Y148.17 E28.85957
G1 X157.23 Y148.21 E28.86050
G1 X157.42 Y148.36 E28.86667
G1 X157.93 Y149.00 E28.88693
G1 X158.11 Y149.31 E28.89602
G1 X158.24 Y149.68 E28.90567
G1 X158.37 Y150.13 E28.91747
G1 X158.47 Y150.42 E28.92506
G1 X158.55 Y150.97 E28.93889
G1 X158.56 Y151.08 E28.94166
G1 X158.55 Y151.65 E28.95586
G1 X158.46 Y152.17 E28.96908
G1 X158.26 Y152.79 E28.98521
G1 X158.16 Y153.15 E28.99469
G1 X158.14 Y153.18 E28.99557
G1 X158.11 Y153.22 E28.99667
G1 X157.85 Y153.82 E29.01307
G1 X157.74 Y154.32 E29.02594
G1 X157.54 Y154.86 E29.04021
G1 X157.35 Y155.33 E29.05281
G1 X157.31 Y155.39 E29.05461
G1 X157.23 Y155.46 E29.05738
G1 X157.15 Y155.60 E29.06137
G1 X157.15 Y155.70 E29.06397
G1 X157.15 Y155.73 E29.06472
G1 X156.95 Y156.07 E29.07448
G1 X156.81 Y156.23 E29.07984
G1 X156.73 Y156.30 E29.08244
G1 X156.72 Y156.33 E29.08331
G1 X156.46 Y156.66 E29.09361
G1 X156.41 Y156.70 E29.09544
G1 X156.13 Y156.84 E29.10303
G1 X155.66 Y157.21 E29.11806
G1 X155.41 Y157.44 E29.12643
G1 X155.14 Y157.59 E29.13414
G1 X154.43 Y157.88 E29.15332
G1 X154.30 Y157.88 E29.15651
G1 X154.25 Y157.90 E29.15802
G1 X154.22 Y157.90 E29.15862
G1 X154.15 Y157.93 E29.16040
G1 X154.04 Y157.99 E29.16372
G1 X154.01 Y158.01 E29.16463
G1 X153.77 Y158.08 E29.17089
G1 X153.72 Y158.08 E29.17219
G1 X153.46 Y158.07 E29.17848
G1 X153.39 Y158.08 E29.18021
G1 X152.99 Y158.19 E29.19062
G1 X152.85 Y158.20 E29.19409
G1 X152.82 Y158.20 E29.19494
G1 X152.81 Y158.19 E29.19532
G1 X152.68 Y158.15 E29.19875
G1 X152.44 Y158.11 E29.20456
G1 X151.78 Y158.18 E29.22118
G1 X151.25 Y158.15 E29.23440
G1 X150.67 Y158.02 E29.24919
G1 X150.62 Y157.98 E29.25104
G1 X150.44 Y157.91 E29.25577
G1 X150.30 Y157.93 E29.25915
G1 X150.02 Y157.83 E29.26675
G1 X149.94 Y157.78 E29.26907
G1 X149.69 Y157.65 E29.27610
G1 X149.61 Y157.62 E29.27826
G1 X149.42 Y157.51 E29.28375
G1 X149.30 Y157.31 E29.28959
G1 X149.03 Y157.10 E29.29805
G1 X148.67 Y156.91 E29.30811
G1 X148.53 Y156.79 E29.31275
G1 X148.23 Y156.45 E29.32418
G1 X148.07 Y156.32 E29.32925
G1 X147.91 Y156.13 E29.33552
G1 X147.70 Y155.81 E29.34508
G1 X147.69 Y155.75 E29.34665
G1 X147.66 Y155.70 E29.34784
G1 X147.66 Y155.62 E29.34992
G1 X147.59 Y155.52 E29.35306
G1 X147.50 Y155.46 E29.35554
G1 X147.37 Y155.19 E29.36305
G1 X147.38 Y155.13 E29.36454
G1 X147.37 Y154.97 E29.36859
G1 X147.32 Y154.79 E29.37324
G1 X147.25 Y154.62 E29.37791
G1 X147.11 Y154.46 E29.38317
G1 X147.18 Y154.28 E29.38772
G1 X147.14 Y154.13 E29.39165
G1 X147.10 Y154.05 E29.39401
G1 X147.08 Y154.03 E29.39482
G1 X147.06 Y154.00 E29.39560
G1 X146.93 Y153.89 E29.39985
G1 X146.88 Y153.83 E29.40176
G1 X146.76 Y153.38 E29.41328
G1 X146.73 Y153.19 E29.41824
G1 X146.73 Y153.14 E29.41944
G1 X146.73 Y153.05 E29.42158
G1 X146.73 Y152.93 E29.42468
G1 X146.73 Y152.87 E29.42603
G1 X146.66 Y152.64 E29.43216
G1 X146.60 Y152.14 E29.44478
G1 X146.60 Y152.02 E29.44757
G1 X146.67 Y151.88 E29.45153
G1 X146.68 Y151.80 E29.45353
G1 X146.66 Y151.72 E29.45556
G1 X146.67 Y151.62 E29.45819
G1 X146.61 Y151.46 E29.46250
G1 X146.61 Y151.18 E29.46946
G1 X146.63 Y150.47 E29.48701
G1 X146.75 Y149.69 E29.50676
G1 X146.84 Y149.33 E29.51611
G1 X146.99 Y148.88 E29.52784
G1 X147.44 Y148.09 E29.55063
G1 X147.64 Y147.82 E29.55892
G1 X147.88 Y147.58 E29.56735
G1 X148.04 Y147.44 E29.57260
G1 X148.30 Y147.27 E29.58045
G1 X148.83 Y147.03 E29.59506
G1 X149.27 Y146.91 E29.60625
G1 X149.28 Y146.91 E29.60657
G1 X149.39 Y146.96 E29.60960
G0 F12000 X149.47 Y147.49
;TYPE:FILL
G1 F2400 X156.92 Y154.94 E29.87254
G0 F12000 X156.71 Y155.29
G1 F2400 X148.97 Y147.56 E30.14527
G0 F12000 X148.58 Y147.73
G1 F2400 X156.54 Y155.69 E30.42612
G0 F12000 X156.26 Y155.98
G1 F2400 X148.26 Y147.97 E30.70852
G0 F12000 X147.98 Y148.26
G1 F2400 X156.01 Y156.29 E30.99183
G0 F12000 X155.67 Y156.52
G1 F2400 X147.75 Y148.60 E31.27107
G0 F12000 X147.55 Y148.97
G1 F2400 X155.35 Y156.77 E31.54615
G0 F12000 X155.04 Y157.02
G1 F2400 X147.39 Y149.37 E31.81618
G0 F12000 X147.28 Y149.82
G1 F2400 X154.66 Y157.21 E32.07665
G0 F12000 X154.22 Y157.33
G1 F2400 X147.20 Y150.31 E32.32423
G0 F12000 X147.16 Y150.84
G1 F2400 X153.81 Y157.49 E32.55901
G0 F12000 X153.30 Y157.55
G1 F2400 X147.17 Y151.42 E32.77524
G0 F12000 X147.20 Y152.01
G1 F2400 X152.81 Y157.62 E32.97310
G0 F12000 X152.22 Y157.59
G1 F2400 X147.21 Y152.58 E33.14980
G0 F12000 X147.28 Y153.22
G1 F2400 X151.69 Y157.63 E33.30547
G0 F12000 X151.04 Y157.55
G1 F2400 X147.72 Y154.22 E33.42289
G0 F12000 X147.91 Y154.98
G1 F2400 X150.28 Y157.36 E33.50671
G0 F12000 X157.08 Y154.53
G1 F2400 X149.94 Y147.39 E33.75857
G0 F12000 X150.51 Y147.40
G1 F2400 X157.23 Y154.12 E33.99567
G0 F12000 X157.33 Y153.65
G1 F2400 X151.15 Y147.47 E34.21369
G0 F12000 X151.80 Y147.55
G1 F2400 X157.50 Y153.26 E34.41498
G0 F12000 X157.67 Y152.87
G1 F2400 X152.30 Y147.49 E34.60451
G0 F12000 X152.78 Y147.41
G1 F2400 X157.81 Y152.43 E34.78175
G0 F12000 X157.94 Y152.00
G1 F2400 X153.48 Y147.54 E34.93888
G0 F12000 X154.05 Y147.55
G1 F2400 X158.01 Y151.50 E35.07840
G0 F12000 X158.00 Y150.93
G1 F2400 X154.82 Y147.75 E35.19062
G0 F12000 X155.55 Y147.91
G1 F2400 X157.84 Y150.20 E35.27137
G0 F12000 X157.38 Y149.18
G1 F2400 X156.42 Y148.21 E35.30527
;LAYER:3
G0 F12000 X156.50 Y148.14 Z0.70
;TYPE:WALL-INNER
G1 F2640 X156.58 Y148.17 E35.30723
G1 X156.69 Y148.23 E35.31040
G1 X156.76 Y148.29 E35.31282
G1 X156.88 Y148.48 E35.31831
G1 X157.21 Y148.74 E35.32889
G1 X157.68 Y149.34 E35.34775
G1 X157.73 Y149.43 E35.35041
G1 X157.75 Y149.50 E35.35223
G1 X157.78 Y149.74 E35.35833
G1 X157.94 Y150.29 E35.37255
G1 X158.09 Y150.60 E35.38123
G1 X158.16 Y150.91 E35.38919
G1 X158.18 Y151.23 E35.39712
G1 X158.17 Y151.52 E35.40431
G1 X158.13 Y151.78 E35.41097
G1 X158.13 Y151.83 E35.41200
G1 X158.10 Y152.00 E35.41641
G1 X157.92 Y152.29 E35.42481
G1 X157.82 Y152.79 E35.43779
G1 X157.81 Y152.85 E35.43906
G1 X157.59 Y153.08 E35.44720
G1 X157.58 Y153.28 E35.45215
G1 X157.54 Y153.49 E35.45736
G1 X157.56 Y153.61 E35.46057
G1 X157.56 Y153.66 E35.46184
G1 X157.50 Y153.82 E35.46585
G1 X157.32 Y154.22 E35.47682
G1 X157.24 Y154.56 E35.48565
G1 X157.05 Y155.02 E35.49805
G1 X156.87 Y155.21 E35.50447
G1 X156.78 Y155.49 E35.51201
G1 X156.68 Y155.67 E35.51709
G1 X156.70 Y155.74 E35.51888
G1 X156.37 Y156.00 E35.52936
G1 X156.34 Y156.08 E35.53136
G1 X156.28 Y156.15 E35.53366
G1 X156.18 Y156.32 E35.53867
G1 X156.03 Y156.38 E35.54276
G1 X155.80 Y156.61 E35.55089
G1 X155.69 Y156.82 E35.55680
G1 X155.35 Y157.02 E35.56661
G1 X155.10 Y157.13 E35.57352
G1 X154.84 Y157.30 E35.58129
G1 X154.52 Y157.43 E35.58991
G1 X154.35 Y157.44 E35.59398
G1 X154.11 Y157.53 E35.60040
G1 X154.08 Y157.55 E35.60137
G1 X153.93 Y157.56 E35.60514
G1 X153.87 Y157.61 E35.60717
G1 X153.76 Y157.56 E35.61026
G1 X153.56 Y157.57 E35.61521
G1 X153.29 Y157.62 E35.62190
G1 X152.96 Y157.74 E35.63064
G1 X152.67 Y157.65 E35.63827
G1 X152.38 Y157.68 E35.64557
G1 X152.16 Y157.79 E35.65164
G1 X152.09 Y157.80 E35.65349
G1 X152.02 Y157.80 E35.65526
G1 X151.25 Y157.75 E35.67451
G1 X150.92 Y157.68 E35.68284
G1 X150.65 Y157.44 E35.69187
G1 X150.48 Y157.50 E35.69638
G1 X150.37 Y157.44 E35.69960
G1 X150.29 Y157.47 E35.70170
G1 X150.20 Y157.37 E35.70490
G1 X150.00 Y157.26 E35.71067
G1 X149.77 Y157.19 E35.71660
G1 X149.69 Y157.05 E35.72057
G1 X149.47 Y156.88 E35.72757
G1 X149.21 Y156.78 E35.73443
G1 X149.09 Y156.79 E35.73751
G1 X149.05 Y156.78 E35.73848
G1 X148.99 Y156.74 E35.74051
G1 X148.75 Y156.52 E35.74846
G1 X148.52 Y156.25 E35.75721
G1 X148.45 Y156.09 E35.76156
G1 X148.32 Y155.96 E35.76623
G1 X148.26 Y155.91 E35.76823
G1 X148.10 Y155.68 E35.77509
G1 X148.07 Y155.56 E35.77834
G1 X148.07 Y155.55 E35.77868
G1 X148.08 Y155.48 E35.78044
G1 X147.84 Y155.20 E35.78961
G1 X147.86 Y155.06 E35.79311
G1 X147.83 Y154.96 E35.79556
G1 X147.84 Y154.89 E35.79729
G1 X147.67 Y154.43 E35.80956
G1 X147.62 Y154.36 E35.81168
G1 X147.50 Y153.95 E35.82237
G1 X147.27 Y153.77 E35.82970
G1 X147.21 Y153.55 E35.83539
G1 X147.11 Y153.04 E35.84821
G1 X147.08 Y152.78 E35.85464
G1 X147.12 Y152.62 E35.85896
G1 X147.09 Y152.37 E35.86506
G1 X147.07 Y152.34 E35.86597
G1 X147.07 Y152.30 E35.86702
G1 X147.05 Y152.21 E35.86915
G1 X147.05 Y152.20 E35.86957
G1 X147.12 Y151.84 E35.87862
G1 X147.05 Y151.72 E35.88199
G1 X147.09 Y151.50 E35.88761
G1 X147.00 Y151.32 E35.89244
G1 X147.00 Y151.26 E35.89409
G1 X147.00 Y151.17 E35.89626
G1 X147.03 Y150.92 E35.90257
G1 X147.01 Y150.65 E35.90935
G1 X147.05 Y150.24 E35.91963
G1 X147.08 Y150.18 E35.92112
G1 X147.19 Y149.60 E35.93600
G1 X147.24 Y149.32 E35.94290
G1 X147.36 Y148.98 E35.95202
G1 X147.50 Y148.72 E35.95945
G1 X147.58 Y148.66 E35.96192
G1 X147.77 Y148.40 E35.96990
G1 X147.77 Y148.29 E35.97262
G1 X147.84 Y148.21 E35.97532
G1 X147.98 Y148.11 E35.97969
G1 X148.36 Y147.73 E35.99305
G1 X148.38 Y147.70 E35.99405
G1 X148.53 Y147.66 E35.99777
G1 X149.11 Y147.37 E36.01401
G1 X149.17 Y147.35 E36.01572
G1 X149.41 Y147.48 E36.02228
G1 X149.57 Y147.35 E36.02748
G1 X149.92 Y147.32 E36.03626
G1 X149.99 Y147.30 E36.03800
G1 X150.16 Y147.29 E36.04225
G1 X150.25 Y147.29 E36.04459
G1 X150.78 Y147.25 E36.05771
G1 X150.93 Y147.25 E36.06145
G1 X150.98 Y147.30 E36.06329
G1 X151.28 Y147.41 E36.07137
G1 X151.34 Y147.41 E36.07292
G1 X151.40 Y147.43 E36.07428
G1 X151.42 Y147.42 E36.07494
G1 X151.43 Y147.43 E36.07531
G1 X151.54 Y147.43 E36.07803
G1 X151.69 Y147.49 E36.08206
G1 X152.01 Y147.36 E36.09068
G1 X152.13 Y147.29 E36.09409
G1 X152.28 Y147.30 E36.09789
G1 X152.50 Y147.37 E36.10370
G1 X152.69 Y147.38 E36.10837
G1 X152.83 Y147.37 E36.11187
G1 X152.98 Y147.31 E36.11595
G1 X153.06 Y147.32 E36.11793
G1 X153.25 Y147.45 E36.12371
G1 X153.37 Y147.43 E36.12655
G1 X153.43 Y147.47 E36.12845
G1 X153.69 Y147.45 E36.13485
G1 X153.85 Y147.41 E36.13901
G1 X154.24 Y147.45 E36.14878
G1 X154.50 Y147.61 E36.15647
G1 X154.92 Y147.70 E36.16706
G1 X155.24 Y147.69 E36.17512
G1 X155.46 Y147.79 E36.18123
G1 X155.67 Y147.82 E36.18645
G1 X155.82 Y147.81 E36.19019
G1 X155.87 Y147.79 E36.19149
G1 X156.19 Y147.91 E36.20016
G1 X156.30 Y147.98 E36.20320
G1 X156.50 Y148.14 E36.20976
G0 F12000 X156.70 Y147.79
;TYPE:WALL-OUTER
G1 F2640 X156.91 Y147.90 E36.21571
G1 X157.07 Y148.03 E36.22079
G1 X157.15 Y148.15 E36.22435
G1 X157.24 Y148.19 E36.22698
G1 X157.26 Y148.27 E36.22902
G1 X157.39 Y148.37 E36.23323
G1 X157.41 Y148.38 E36.23372
G1 X157.42 Y148.39 E36.23421
G1 X157.46 Y148.40 E36.23522
G1 X157.77 Y148.82 E36.24841
G1 X158.00 Y149.11 E36.25757
G1 X158.09 Y149.26 E36.26195
G1 X158.15 Y149.43 E36.26634
G1 X158.15 Y149.45 E36.26692
G1 X158.17 Y149.66 E36.27231
G1 X158.32 Y150.15 E36.28481
G1 X158.47 Y150.47 E36.29390
G1 X158.56 Y150.86 E36.30388
G1 X158.58 Y151.23 E36.31292
G1 X158.57 Y151.55 E36.32103
G1 X158.53 Y151.79 E36.32713
G1 X158.53 Y151.84 E36.32826
G1 X158.49 Y152.09 E36.33476
G1 X158.46 Y152.17 E36.33682
G1 X158.30 Y152.44 E36.34458
G1 X158.21 Y152.85 E36.35503
G1 X158.21 Y152.99 E36.35870
G1 X158.18 Y153.04 E36.36006
G1 X157.98 Y153.25 E36.36731
G1 X157.94 Y153.49 E36.37340
G1 X157.96 Y153.59 E36.37587
G1 X157.95 Y153.74 E36.37960
G1 X157.87 Y153.97 E36.38558
G1 X157.70 Y154.34 E36.39594
G1 X157.63 Y154.67 E36.40424
G1 X157.42 Y155.18 E36.41797
G1 X157.37 Y155.26 E36.42047
G1 X157.22 Y155.41 E36.42564
G1 X157.18 Y155.57 E36.42961
G1 X157.19 Y155.59 E36.43022
G1 X157.10 Y155.74 E36.43450
G1 X157.12 Y155.81 E36.43638
G1 X157.00 Y156.01 E36.44220
G1 X156.71 Y156.24 E36.45142
G1 X156.70 Y156.28 E36.45234
G1 X156.61 Y156.38 E36.45567
G1 X156.46 Y156.64 E36.46311
G1 X156.45 Y156.65 E36.46341
G1 X156.25 Y156.73 E36.46892
G1 X156.12 Y156.85 E36.47322
G1 X156.01 Y157.08 E36.47961
G1 X155.95 Y157.13 E36.48176
G1 X155.53 Y157.38 E36.49374
G1 X155.29 Y157.48 E36.50041
G1 X155.03 Y157.65 E36.50813
G1 X154.63 Y157.82 E36.51902
G1 X154.43 Y157.84 E36.52390
G1 X154.30 Y157.88 E36.52731
G1 X154.23 Y157.94 E36.52968
G1 X154.09 Y157.95 E36.53300
G1 X154.01 Y158.02 E36.53569
G1 X153.89 Y158.06 E36.53893
G1 X153.68 Y157.97 E36.54451
G1 X153.61 Y157.97 E36.54643
G1 X153.39 Y158.01 E36.55193
G1 X153.22 Y158.07 E36.55648
G1 X152.94 Y158.18 E36.56394
G1 X152.86 Y158.13 E36.56628
G1 X152.63 Y158.06 E36.57235
G1 X152.50 Y158.07 E36.57573
G1 X152.27 Y158.18 E36.58196
G1 X152.10 Y158.20 E36.58621
G1 X152.00 Y158.20 E36.58881
G1 X151.20 Y158.15 E36.60888
G1 X150.77 Y158.06 E36.61983
G1 X150.67 Y157.99 E36.62277
G1 X150.56 Y157.90 E36.62638
G1 X150.45 Y157.94 E36.62935
G1 X150.34 Y157.88 E36.63256
G1 X150.25 Y157.91 E36.63484
G1 X150.23 Y157.91 E36.63534
G1 X150.20 Y157.92 E36.63603
G1 X150.13 Y157.89 E36.63793
G1 X150.11 Y157.88 E36.63855
G1 X149.95 Y157.69 E36.64467
G1 X149.84 Y157.63 E36.64776
G1 X149.67 Y157.58 E36.65224
G1 X149.65 Y157.57 E36.65287
G1 X149.50 Y157.53 E36.65664
G1 X149.38 Y157.32 E36.66274
G1 X149.28 Y157.23 E36.66620
G1 X149.15 Y157.19 E36.66942
G1 X149.06 Y157.19 E36.67184
G1 X148.90 Y157.16 E36.67575
G1 X148.80 Y157.10 E36.67865
G1 X148.73 Y157.04 E36.68107
G1 X148.46 Y156.79 E36.69024
G1 X148.18 Y156.47 E36.70085
G1 X148.11 Y156.32 E36.70502
G1 X148.06 Y156.26 E36.70706
G1 X147.97 Y156.19 E36.70981
G1 X147.73 Y155.85 E36.72029
G1 X147.70 Y155.73 E36.72330
G1 X147.65 Y155.66 E36.72551
G1 X147.66 Y155.60 E36.72697
G1 X147.53 Y155.45 E36.73191
G1 X147.49 Y155.44 E36.73301
G1 X147.42 Y155.28 E36.73715
G1 X147.45 Y155.08 E36.74236
G1 X147.43 Y155.01 E36.74425
G1 X147.43 Y154.95 E36.74555
G1 X147.31 Y154.61 E36.75479
G1 X147.28 Y154.56 E36.75625
G1 X147.19 Y154.45 E36.75964
G1 X147.21 Y154.38 E36.76166
G1 X147.15 Y154.19 E36.76665
G1 X147.02 Y154.08 E36.77091
G1 X146.94 Y154.04 E36.77319
G1 X146.92 Y154.02 E36.77380
G1 X146.82 Y153.64 E36.78365
G1 X146.72 Y153.11 E36.79716
G1 X146.68 Y152.77 E36.80572
G1 X146.71 Y152.60 E36.80994
G1 X146.69 Y152.47 E36.81325
G1 X146.68 Y152.41 E36.81467
G1 X146.67 Y152.35 E36.81634
G1 X146.65 Y152.27 E36.81844
G1 X146.65 Y152.15 E36.82126
G1 X146.70 Y151.91 E36.82757
G1 X146.62 Y151.76 E36.83165
G1 X146.65 Y151.72 E36.83280
G1 X146.67 Y151.56 E36.83683
G1 X146.60 Y151.41 E36.84103
G1 X146.60 Y151.25 E36.84492
G1 X146.60 Y151.15 E36.84764
G1 X146.63 Y150.91 E36.85360
G1 X146.61 Y150.65 E36.86013
G1 X146.66 Y150.13 E36.87304
G1 X146.69 Y150.06 E36.87498
G1 X146.85 Y149.21 E36.89648
G1 X146.99 Y148.82 E36.90692
G1 X147.21 Y148.44 E36.91786
G1 X147.30 Y148.37 E36.92067
G1 X147.37 Y148.28 E36.92355
G1 X147.36 Y148.17 E36.92617
G1 X147.53 Y147.95 E36.93315
G1 X147.59 Y147.89 E36.93528
G1 X147.73 Y147.80 E36.93937
G1 X148.05 Y147.47 E36.95078
G1 X148.10 Y147.40 E36.95291
G1 X148.20 Y147.33 E36.95602
G1 X148.39 Y147.28 E36.96089
G1 X148.90 Y147.03 E36.97505
G1 X148.92 Y147.01 E36.97571
G1 X149.23 Y146.93 E36.98373
G1 X149.37 Y147.01 E36.98784
G1 X149.53 Y146.89 E36.99259
G1 X149.55 Y146.89 E36.99307
G1 X149.64 Y146.95 E36.99571
G1 X149.84 Y146.93 E37.00077
G1 X149.93 Y146.90 E37.00305
G1 X150.16 Y146.89 E37.00894
G1 X150.24 Y146.89 E37.01079
G1 X151.07 Y146.84 E37.03176
G1 X151.09 Y146.84 E37.03214
G1 X151.20 Y146.96 E37.03614
G1 X151.34 Y147.01 E37.03970
G1 X151.39 Y147.00 E37.04098
G1 X151.43 Y147.01 E37.04203
G1 X151.51 Y147.00 E37.04416
G1 X151.53 Y147.00 E37.04466
G1 X151.57 Y147.03 E37.04585
G1 X151.62 Y147.03 E37.04710
G1 X151.69 Y147.06 E37.04900
G1 X151.83 Y147.00 E37.05274
G1 X151.99 Y146.90 E37.05738
G1 X152.10 Y146.88 E37.06031
G1 X152.36 Y146.90 E37.06672
G1 X152.57 Y146.97 E37.07237
G1 X152.69 Y146.98 E37.07516
G1 X152.75 Y146.97 E37.07666
G1 X152.88 Y146.92 E37.08039
G1 X152.97 Y146.91 E37.08256
G1 X153.20 Y146.94 E37.08831
G1 X153.34 Y147.03 E37.09246
G1 X153.41 Y147.01 E37.09421
G1 X153.46 Y147.03 E37.09556
G1 X153.53 Y147.06 E37.09751
G1 X153.63 Y147.05 E37.09989
G1 X153.75 Y147.03 E37.10299
G1 X153.79 Y147.00 E37.10427
G1 X154.35 Y147.06 E37.11827
G1 X154.38 Y147.06 E37.11896
G1 X154.66 Y147.23 E37.12697
G1 X154.96 Y147.30 E37.13470
G1 X155.22 Y147.29 E37.14124
G1 X155.29 Y147.28 E37.14312
G1 X155.57 Y147.40 E37.15075
G1 X155.68 Y147.41 E37.15350
G1 X155.74 Y147.41 E37.15508
G1 X155.83 Y147.38 E37.15732
G1 X155.89 Y147.38 E37.15880
G1 X155.91 Y147.38 E37.15935
G1 X156.37 Y147.55 E37.17169
G1 X156.53 Y147.65 E37.17639
G1 X156.70 Y147.79 E37.18186
G0 F12000 X156.39 Y148.23
;TYPE:FILL
G1 F2640 X148.58 Y156.04 E37.45730
G0 F12000 X148.31 Y155.74
G1 F2640 X156.05 Y148.01 E37.73010
G0 F12000 X155.54 Y147.94
G1 F2640 X148.15 Y155.34 E37.99106
G0 F12000 X147.97 Y154.95
G1 F2640 X155.09 Y147.84 E38.24203
G0 F12000 X154.59 Y147.77
G1 F2640 X147.85 Y154.51 E38.47987
G0 F12000 X147.69 Y154.10
G1 F2640 X154.20 Y147.59 E38.70958
G0 F12000 X153.63 Y147.59
G1 F2640 X147.47 Y153.75 E38.92684
G0 F12000 X147.31 Y153.35
G1 F2640 X153.13 Y147.53 E39.13203
G0 F12000 X152.58 Y147.51
G1 F2640 X147.23 Y152.86 E39.32073
G0 F12000 X147.22 Y152.31
G1 F2640 X152.03 Y147.50 E39.49051
G0 F12000 X151.39 Y147.57
G1 F2640 X147.22 Y151.74 E39.63763
G0 F12000 X147.14 Y151.26
G1 F2640 X150.96 Y147.44 E39.77232
G0 F12000 X150.41 Y147.42
G1 F2640 X147.16 Y150.68 E39.88721
G0 F12000 X147.25 Y150.02
G1 F2640 X149.79 Y147.47 E39.97688
G0 F12000 X149.18 Y147.52
G1 F2640 X147.39 Y149.31 E40.04010
G0 F12000 X148.81 Y156.37
G1 F2640 X156.71 Y148.48 E40.31867
G0 F12000 X157.00 Y148.75
G1 F2640 X149.10 Y156.65 E40.59719
G0 F12000 X149.55 Y156.76
G1 F2640 X157.27 Y149.05 E40.86944
G0 F12000 X157.52 Y149.37
G1 F2640 X149.85 Y157.04 E41.14006
G0 F12000 X150.22 Y157.22
G1 F2640 X157.65 Y149.80 E41.40200
G0 F12000 X157.78 Y150.24
G1 F2640 X150.71 Y157.31 E41.65139
G0 F12000 X151.02 Y157.56
G1 F2640 X157.95 Y150.63 E41.89578
G0 F12000 X158.03 Y151.12
G1 F2640 X151.52 Y157.62 E42.12538
G0 F12000 X152.06 Y157.66
G1 F2640 X157.99 Y151.72 E42.33486
G0 F12000 X157.72 Y152.56
G1 F2640 X152.75 Y157.53 E42.51024
G0 F12000 X153.38 Y157.47
G1 F2640 X157.40 Y153.44 E42.65220
G0 F12000 X157.16 Y154.24
G1 F2640 X154.00 Y157.41 E42.76401
G0 F12000 X154.86 Y157.12
G1 F2640 X156.70 Y155.27 E42.82900
;LAYER:4
G0 F12000 X156.82 Y155.40 Z0.85
;TYPE:WALL-INNER
G1 F3000 X156.83 Y155.43 E42.82957
G1 X156.70 Y155.64 E42.83579
G1 X156.70 Y155.69 E42.83712
G1 X156.56 Y155.78 E42.84134
G1 X156.34 Y156.04 E42.84976
G1 X156.31 Y156.06 E42.85067
G1 X156.14 Y156.33 E42.85875
G1 X155.90 Y156.48 E42.86563
G1 X155.88 Y156.59 E42.86837
G1 X155.80 Y156.67 E42.87123
G1 X155.81 Y156.77 E42.87386
G1 X155.29 Y157.08 E42.88900
G1 X155.09 Y157.18 E42.89459
G1 X154.54 Y157.38 E42.90911
G1 X154.40 Y157.42 E42.91274
G1 X154.21 Y157.53 E42.91830
G1 X154.00 Y157.54 E42.92369
G1 X153.94 Y157.59 E42.92545
G1 X153.67 Y157.54 E42.93225
G1 X153.39 Y157.70 E42.94021
G1 X153.13 Y157.64 E42.94711
G1 X153.05 Y157.66 E42.94915
G1 X153.01 Y157.66 E42.95022
G1 X152.97 Y157.64 E42.95133
G1 X152.66 Y157.66 E42.95906
G1 X152.44 Y157.74 E42.96497
G1 X152.35 Y157.81 E42.96791
G1 X152.28 Y157.81 E42.96966
G1 X152.04 Y157.83 E42.97556
G1 X151.82 Y157.82 E42.98113
G1 X151.53 Y157.79 E42.98826
G1 X151.35 Y157.74 E42.99291
G1 X151.12 Y157.71 E42.99865
G1 X151.02 Y157.66 E43.00155
G1 X150.93 Y157.61 E43.00413
G1 X150.60 Y157.50 E43.01277
G1 X150.55 Y157.52 E43.01415
G1 X150.43 Y157.41 E43.01811
G1 X150.34 Y157.44 E43.02048
G1 X150.22 Y157.32 E43.02476
G1 X150.12 Y157.30 E43.02722
G1 X150.08 Y157.28 E43.02852
G1 X149.99 Y157.26 E43.03063
G1 X149.85 Y157.12 E43.03568
G1 X149.75 Y157.11 E43.03815
G1 X149.68 Y157.06 E43.04027
G1 X149.47 Y156.84 E43.04782
G1 X149.17 Y156.90 E43.05533
G1 X149.06 Y156.82 E43.05860
G1 X148.74 Y156.51 E43.06984
G1 X148.41 Y156.12 E43.08260
G1 X148.36 Y156.01 E43.08549
G1 X148.23 Y155.83 E43.09115
G1 X148.17 Y155.78 E43.09319
G1 X148.17 Y155.75 E43.09395
G1 X148.09 Y155.59 E43.09837
G1 X148.10 Y155.54 E43.09958
G1 X147.89 Y155.21 E43.10939
G1 X147.85 Y154.98 E43.11515
G1 X147.76 Y154.78 E43.12052
G1 X147.67 Y154.70 E43.12358
G1 X147.67 Y154.53 E43.12782
G1 X147.62 Y154.31 E43.13339
G1 X147.53 Y154.16 E43.13779
G1 X147.52 Y154.12 E43.13885
G1 X147.29 Y153.84 E43.14783
G1 X147.28 Y153.78 E43.14935
G1 X147.28 Y153.73 E43.15057
G1 X147.24 Y153.45 E43.15778
G1 X147.24 Y153.36 E43.15985
G1 X147.15 Y153.09 E43.16699
G1 X147.11 Y153.03 E43.16880
G1 X147.05 Y152.48 E43.18258
G1 X147.05 Y152.45 E43.18327
G1 X147.06 Y152.21 E43.18923
G1 X147.01 Y151.95 E43.19583
G1 X147.02 Y151.93 E43.19660
G1 X147.08 Y151.59 E43.20526
G1 X147.01 Y151.42 E43.20984
G1 X147.02 Y151.40 E43.21038
G1 X147.07 Y151.19 E43.21580
G1 X147.06 Y150.92 E43.22257
G1 X147.08 Y150.86 E43.22403
G1 X147.07 Y150.75 E43.22685
G1 X147.10 Y150.61 E43.23033
G1 X147.03 Y150.48 E43.23408
G1 X147.14 Y150.33 E43.23866
G1 X147.11 Y150.15 E43.24328
G1 X147.12 Y150.04 E43.24586
G1 X147.09 Y149.94 E43.24870
G1 X147.09 Y149.88 E43.24995
G1 X147.18 Y149.46 E43.26088
G1 X147.38 Y149.10 E43.27113
G1 X147.43 Y148.83 E43.27801
G1 X147.56 Y148.69 E43.28260
G1 X147.58 Y148.65 E43.28388
G1 X147.79 Y148.43 E43.29142
G1 X147.78 Y148.31 E43.29442
G1 X148.01 Y148.17 E43.30119
G1 X148.38 Y147.78 E43.31452
G1 X148.39 Y147.76 E43.31507
G1 X148.43 Y147.76 E43.31610
G1 X148.70 Y147.66 E43.32311
G1 X148.78 Y147.60 E43.32561
G1 X149.11 Y147.44 E43.33488
G1 X149.19 Y147.38 E43.33728
G1 X149.56 Y147.42 E43.34658
G1 X149.64 Y147.34 E43.34944
G1 X149.81 Y147.31 E43.35372
G1 X150.03 Y147.32 E43.35932
G1 X150.40 Y147.29 E43.36839
G1 X150.95 Y147.28 E43.38226
G1 X151.03 Y147.28 E43.38408
G1 X151.16 Y147.42 E43.38899
G1 X151.47 Y147.49 E43.39670
G1 X151.72 Y147.47 E43.40310
G1 X152.02 Y147.29 E43.41172
G1 X152.03 Y147.28 E43.41237
G1 X152.54 Y147.30 E43.42491
G1 X152.79 Y147.40 E43.43161
G1 X153.00 Y147.43 E43.43690
G1 X153.31 Y147.44 E43.44479
G1 X153.68 Y147.53 E43.45428
G1 X153.88 Y147.44 E43.45968
G1 X154.13 Y147.46 E43.46608
G1 X154.33 Y147.61 E43.47243
G1 X154.71 Y147.64 E43.48191
G1 X154.80 Y147.61 E43.48434
G1 X154.88 Y147.69 E43.48703
G1 X155.04 Y147.71 E43.49107
G1 X155.15 Y147.77 E43.49409
G1 X155.25 Y147.75 E43.49656
G1 X155.32 Y147.79 E43.49870
G1 X155.70 Y147.80 E43.50816
G1 X155.77 Y147.75 E43.51031
G1 X156.22 Y147.93 E43.52239
G1 X156.54 Y148.12 E43.53164
G1 X156.86 Y148.40 E43.54221
G1 X156.89 Y148.41 E43.54303
G1 X156.92 Y148.55 E43.54673
G1 X157.17 Y148.72 E43.55424
G1 X157.22 Y148.81 E43.55682
G1 X157.44 Y149.16 E43.56713
G1 X157.69 Y149.40 E43.57567
G1 X157.69 Y149.41 E43.57617
G1 X157.68 Y149.59 E43.58049
G1 X157.76 Y149.88 E43.58819
G1 X157.88 Y150.06 E43.59347
G1 X157.98 Y150.16 E43.59713
G1 X158.00 Y150.24 E43.59915
G1 X158.00 Y150.39 E43.60279
G1 X158.06 Y150.68 E43.61024
G1 X158.10 Y150.78 E43.61296
G1 X158.16 Y151.00 E43.61869
G1 X158.18 Y151.13 E43.62191
G1 X158.18 Y151.27 E43.62527
G1 X158.11 Y151.53 E43.63216
G1 X158.12 Y151.63 E43.63451
G1 X158.07 Y151.71 E43.63693
G1 X158.10 Y151.94 E43.64265
G1 X158.00 Y152.06 E43.64639
G1 X157.94 Y152.35 E43.65397
G1 X157.94 Y152.40 E43.65509
G1 X157.90 Y152.43 E43.65634
G1 X157.79 Y152.65 E43.66248
G1 X157.75 Y152.82 E43.66699
G1 X157.74 Y152.84 E43.66745
G1 X157.59 Y153.14 E43.67583
G1 X157.60 Y153.24 E43.67822
G1 X157.57 Y153.38 E43.68176
G1 X157.64 Y153.51 E43.68543
G1 X157.35 Y154.27 E43.70576
G1 X157.30 Y154.37 E43.70872
G1 X157.24 Y154.42 E43.71050
G1 X157.06 Y154.88 E43.72290
G1 X156.88 Y155.15 E43.73081
G1 X156.82 Y155.40 E43.73737
G0 F12000 X157.23 Y155.43
;TYPE:WALL-OUTER
G1 F3000 X157.25 Y155.56 E43.74081
G1 X157.20 Y155.58 E43.74199
G1 X157.11 Y155.73 E43.74645
G1 X157.12 Y155.84 E43.74906
G1 X157.05 Y155.97 E43.75271
G1 X156.92 Y156.03 E43.75619
G1 X156.83 Y156.09 E43.75902
G1 X156.63 Y156.32 E43.76663
G1 X156.61 Y156.34 E43.76732
G1 X156.45 Y156.58 E43.77442
G1 X156.44 Y156.61 E43.77536
G1 X156.26 Y156.72 E43.78062
G1 X156.25 Y156.78 E43.78207
G1 X156.22 Y156.82 E43.78334
G1 X156.23 Y156.94 E43.78639
G1 X156.13 Y157.04 E43.78988
G1 X155.47 Y157.43 E43.80893
G1 X155.25 Y157.55 E43.81516
G1 X154.66 Y157.76 E43.83100
G1 X154.56 Y157.79 E43.83352
G1 X154.32 Y157.94 E43.84070
G1 X154.25 Y157.93 E43.84247
G1 X154.14 Y157.94 E43.84500
G1 X154.04 Y158.02 E43.84841
G1 X154.00 Y158.04 E43.84937
G1 X153.90 Y157.99 E43.85208
G1 X153.75 Y157.96 E43.85605
G1 X153.51 Y158.09 E43.86274
G1 X153.31 Y158.12 E43.86773
G1 X153.30 Y158.09 E43.86849
G1 X153.15 Y158.06 E43.87225
G1 X153.11 Y158.07 E43.87321
G1 X153.07 Y158.07 E43.87423
G1 X152.97 Y158.13 E43.87721
G1 X152.86 Y158.05 E43.88066
G1 X152.74 Y158.06 E43.88349
G1 X152.64 Y158.09 E43.88633
G1 X152.50 Y158.21 E43.89074
G1 X152.46 Y158.22 E43.89172
G1 X152.28 Y158.21 E43.89631
G1 X152.05 Y158.23 E43.90214
G1 X151.46 Y158.19 E43.91675
G1 X151.28 Y158.14 E43.92154
G1 X151.03 Y158.10 E43.92778
G1 X150.82 Y158.01 E43.93352
G1 X150.75 Y157.97 E43.93540
G1 X150.60 Y157.92 E43.93944
G1 X150.45 Y157.97 E43.94328
G1 X150.33 Y157.86 E43.94733
G1 X150.20 Y157.90 E43.95078
G1 X150.13 Y157.79 E43.95392
G1 X150.03 Y157.69 E43.95748
G1 X149.98 Y157.68 E43.95880
G1 X149.94 Y157.66 E43.96000
G1 X149.83 Y157.64 E43.96272
G1 X149.73 Y157.57 E43.96577
G1 X149.66 Y157.50 E43.96826
G1 X149.52 Y157.47 E43.97177
G1 X149.49 Y157.41 E43.97351
G1 X149.42 Y157.37 E43.97554
G1 X149.33 Y157.28 E43.97869
G1 X149.08 Y157.32 E43.98519
G1 X148.81 Y157.13 E43.99340
G1 X148.44 Y156.78 E44.00603
G1 X148.06 Y156.33 E44.02090
G1 X148.01 Y156.20 E44.02428
G1 X147.94 Y156.10 E44.02736
G1 X147.84 Y156.02 E44.03042
G1 X147.78 Y155.90 E44.03391
G1 X147.78 Y155.86 E44.03485
G1 X147.73 Y155.75 E44.03782
G1 X147.66 Y155.70 E44.03991
G1 X147.68 Y155.62 E44.04187
G1 X147.57 Y155.46 E44.04663
G1 X147.48 Y155.43 E44.04917
G1 X147.44 Y155.35 E44.05123
G1 X147.49 Y155.24 E44.05440
G1 X147.47 Y155.10 E44.05784
G1 X147.43 Y155.02 E44.06017
G1 X147.29 Y154.87 E44.06516
G1 X147.25 Y154.78 E44.06755
G1 X147.24 Y154.73 E44.06902
G1 X147.27 Y154.65 E44.07109
G1 X147.27 Y154.57 E44.07308
G1 X147.25 Y154.47 E44.07572
G1 X147.16 Y154.33 E44.07987
G1 X147.15 Y154.31 E44.08047
G1 X147.05 Y154.17 E44.08469
G1 X146.97 Y154.15 E44.08666
G1 X146.94 Y154.08 E44.08869
G1 X146.87 Y153.82 E44.09531
G1 X146.88 Y153.75 E44.09704
G1 X146.84 Y153.47 E44.10406
G1 X146.84 Y153.44 E44.10496
G1 X146.78 Y153.25 E44.10992
G1 X146.74 Y153.17 E44.11202
G1 X146.66 Y152.55 E44.12775
G1 X146.65 Y152.51 E44.12880
G1 X146.65 Y152.47 E44.12982
G1 X146.66 Y152.24 E44.13537
G1 X146.59 Y151.93 E44.14336
G1 X146.59 Y151.85 E44.14541
G1 X146.65 Y151.77 E44.14788
G1 X146.67 Y151.63 E44.15124
G1 X146.59 Y151.46 E44.15612
G1 X146.59 Y151.32 E44.15951
G1 X146.65 Y151.24 E44.16195
G1 X146.67 Y151.15 E44.16415
G1 X146.66 Y151.03 E44.16715
G1 X146.63 Y150.98 E44.16877
G1 X146.67 Y150.81 E44.17320
G1 X146.67 Y150.71 E44.17547
G1 X146.68 Y150.66 E44.17683
G1 X146.61 Y150.52 E44.18063
G1 X146.61 Y150.50 E44.18116
G1 X146.62 Y150.36 E44.18475
G1 X146.72 Y150.23 E44.18873
G1 X146.71 Y150.17 E44.19036
G1 X146.71 Y150.08 E44.19248
G1 X146.69 Y150.00 E44.19458
G1 X146.68 Y149.85 E44.19825
G1 X146.79 Y149.32 E44.21183
G1 X146.80 Y149.30 E44.21228
G1 X146.99 Y148.97 E44.22183
G1 X147.06 Y148.66 E44.22990
G1 X147.09 Y148.61 E44.23118
G1 X147.22 Y148.47 E44.23617
G1 X147.25 Y148.40 E44.23787
G1 X147.38 Y148.28 E44.24223
G1 X147.36 Y148.14 E44.24574
G1 X147.43 Y148.06 E44.24842
G1 X147.76 Y147.86 E44.25802
G1 X148.07 Y147.53 E44.26937
G1 X148.17 Y147.40 E44.27346
G1 X148.33 Y147.37 E44.27762
G1 X148.51 Y147.30 E44.28249
G1 X148.90 Y147.10 E44.29327
G1 X149.03 Y146.99 E44.29766
G1 X149.19 Y146.95 E44.30161
G1 X149.20 Y146.94 E44.30193
G1 X149.25 Y146.98 E44.30344
G1 X149.43 Y147.00 E44.30791
G1 X149.52 Y146.93 E44.31094
G1 X149.59 Y146.95 E44.31270
G1 X149.69 Y146.92 E44.31544
G1 X149.74 Y146.90 E44.31677
G1 X150.04 Y146.92 E44.32420
G1 X150.37 Y146.90 E44.33249
G1 X150.94 Y146.88 E44.34658
G1 X151.18 Y146.87 E44.35263
G1 X151.22 Y146.87 E44.35363
G1 X151.27 Y146.96 E44.35624
G1 X151.37 Y147.05 E44.35955
G1 X151.50 Y147.08 E44.36298
G1 X151.60 Y147.08 E44.36543
G1 X151.77 Y146.97 E44.37055
G1 X151.89 Y146.87 E44.37447
G1 X152.60 Y146.90 E44.39218
G1 X152.68 Y146.92 E44.39416
G1 X152.89 Y147.01 E44.39985
G1 X153.00 Y147.02 E44.40262
G1 X153.04 Y147.02 E44.40360
G1 X153.14 Y147.02 E44.40622
G1 X153.16 Y147.03 E44.40661
G1 X153.34 Y147.04 E44.41131
G1 X153.42 Y147.00 E44.41337
G1 X153.48 Y147.07 E44.41554
G1 X153.64 Y147.11 E44.41971
G1 X153.80 Y147.03 E44.42417
G1 X154.24 Y147.06 E44.43515
G1 X154.30 Y147.08 E44.43673
G1 X154.49 Y147.22 E44.44263
G1 X154.65 Y147.24 E44.44686
G1 X154.78 Y147.19 E44.45011
G1 X154.84 Y147.15 E44.45201
G1 X154.90 Y147.15 E44.45344
G1 X154.95 Y147.17 E44.45483
G1 X154.98 Y147.22 E44.45633
G1 X155.07 Y147.31 E44.45960
G1 X155.16 Y147.33 E44.46182
G1 X155.21 Y147.35 E44.46319
G1 X155.29 Y147.34 E44.46518
G1 X155.31 Y147.34 E44.46576
G1 X155.42 Y147.39 E44.46859
G1 X155.58 Y147.40 E44.47273
G1 X155.68 Y147.33 E44.47578
G1 X155.73 Y147.31 E44.47689
G1 X155.75 Y147.31 E44.47752
G1 X156.41 Y147.57 E44.49506
G1 X156.77 Y147.79 E44.50578
G1 X157.05 Y148.03 E44.51491
G1 X157.08 Y148.04 E44.51580
G1 X157.16 Y148.09 E44.51803
G1 X157.26 Y148.20 E44.52179
G1 X157.28 Y148.31 E44.52457
G1 X157.43 Y148.41 E44.52907
G1 X157.45 Y148.41 E44.52961
G1 X157.47 Y148.43 E44.53029
G1 X157.56 Y148.61 E44.53522
G1 X157.75 Y148.90 E44.54395
G1 X158.04 Y149.18 E44.55385
G1 X158.09 Y149.29 E44.55689
G1 X158.09 Y149.36 E44.55880
G1 X158.09 Y149.41 E44.56010
G1 X158.08 Y149.54 E44.56335
G1 X158.13 Y149.72 E44.56778
G1 X158.18 Y149.80 E44.57031
G1 X158.31 Y149.92 E44.57465
G1 X158.37 Y150.01 E44.57737
G1 X158.40 Y150.21 E44.58231
G1 X158.40 Y150.34 E44.58553
G1 X158.44 Y150.56 E44.59131
G1 X158.48 Y150.66 E44.59376
G1 X158.55 Y150.93 E44.60089
G1 X158.57 Y151.10 E44.60499
G1 X158.58 Y151.26 E44.60908
G1 X158.58 Y151.33 E44.61081
G1 X158.51 Y151.58 E44.61718
G1 X158.52 Y151.71 E44.62060
G1 X158.52 Y151.72 E44.62088
G1 X158.48 Y151.79 E44.62291
G1 X158.50 Y151.91 E44.62590
G1 X158.53 Y151.98 E44.62777
G1 X158.52 Y152.03 E44.62887
G1 X158.51 Y152.07 E44.63007
G1 X158.37 Y152.24 E44.63532
G1 X158.34 Y152.38 E44.63903
G1 X158.35 Y152.51 E44.64234
G1 X158.31 Y152.59 E44.64440
G1 X158.23 Y152.67 E44.64742
G1 X158.17 Y152.79 E44.65065
G1 X158.15 Y152.87 E44.65274
G1 X158.16 Y152.98 E44.65559
G1 X158.07 Y153.08 E44.65897
G1 X158.00 Y153.21 E44.66257
G1 X158.01 Y153.25 E44.66375
G1 X158.00 Y153.32 E44.66549
G1 X158.07 Y153.48 E44.66983
G1 X157.88 Y154.00 E44.68375
G1 X157.70 Y154.47 E44.69626
G1 X157.61 Y154.63 E44.70083
G1 X157.58 Y154.65 E44.70177
G1 X157.41 Y155.07 E44.71298
G1 X157.26 Y155.31 E44.72006
G1 X157.23 Y155.43 E44.72313
G0 F12000 X156.71 Y155.29
;TYPE:FILL
G1 F3000 X149.04 Y147.63 E44.99348
G0 F12000 X148.67 Y147.82
G1 F3000 X156.50 Y155.65 E45.26983
G0 F12000 X156.23 Y155.95
G1 F3000 X148.32 Y148.04 E45.54870
G0 F12000 X148.04 Y148.32
G1 F3000 X155.98 Y156.26 E45.82891
G0 F12000 X155.71 Y156.56
G1 F3000 X147.79 Y148.63 E46.10849
G0 F12000 X147.55 Y148.96
G1 F3000 X155.42 Y156.84 E46.38630
G0 F12000 X155.06 Y157.04
G1 F3000 X147.39 Y149.37 E46.65688
G0 F12000 X147.25 Y149.79
G1 F3000 X154.65 Y157.19 E46.91793
G0 F12000 X154.24 Y157.35
G1 F3000 X147.28 Y150.39 E47.16363
G0 F12000 X147.21 Y150.89
G1 F3000 X153.74 Y157.41 E47.39371
G0 F12000 X153.29 Y157.53
G1 F3000 X147.16 Y151.41 E47.60980
G0 F12000 X147.16 Y151.97
G1 F3000 X152.71 Y157.51 E47.80554
G0 F12000 X152.29 Y157.67
G1 F3000 X147.21 Y152.58 E47.98510
G0 F12000 X147.37 Y153.31
G1 F3000 X151.73 Y157.67 E48.13897
G0 F12000 X150.96 Y157.47
G1 F3000 X147.76 Y154.26 E48.25203
G0 F12000 X148.01 Y155.08
G1 F3000 X150.06 Y157.13 E48.32431
G0 F12000 X156.88 Y154.90
G1 F3000 X149.54 Y147.56 E48.58318
G0 F12000 X150.01 Y147.46
G1 F3000 X157.06 Y154.51 E48.83178
G0 F12000 X157.25 Y154.14
G1 F3000 X150.54 Y147.43 E49.06853
G0 F12000 X151.26 Y147.58
G1 F3000 X157.41 Y153.73 E49.28542
G0 F12000 X157.46 Y153.22
G1 F3000 X151.82 Y147.58 E49.48440
G0 F12000 X152.23 Y147.43
G1 F3000 X157.60 Y152.79 E49.67376
G0 F12000 X157.77 Y152.39
G1 F3000 X152.93 Y147.56 E49.84432
G0 F12000 X153.59 Y147.66
G1 F3000 X157.90 Y151.96 E49.99620
G0 F12000 X157.98 Y151.48
G1 F3000 X154.16 Y147.66 E50.13087
G0 F12000 X154.90 Y147.83
G1 F3000 X157.99 Y150.92 E50.23988
G0 F12000 X157.73 Y150.09
G1 F3000 X155.57 Y147.94 E50.31595
G0 F12000 X156.41 Y148.21
G1 F3000 X156.85 Y148.65 E50.32905
G1 X157.12 Y148.92 E50.33854
;LAYER:5
G0 F12000 X157.13 Y148.71 Z1.00
;TYPE:WALL-INNER
G1 F3000 X157.31 Y149.04 E50.34789
G1 X157.56 Y149.38 E50.35830
G1 X157.63 Y149.43 E50.36045
G1 X157.70 Y149.71 E50.36771
G1 X158.00 Y150.06 E50.37908
G1 X158.01 Y150.06 E50.37941
G1 X158.07 Y150.23 E50.38382
G1 X158.12 Y150.47 E50.39011
G1 X158.09 Y150.78 E50.39774
G1 X158.14 Y151.06 E50.40486
G1 X158.10 Y151.46 E50.41490
G1 X158.12 Y151.65 E50.41977
G1 X158.04 Y151.81 E50.42419
G1 X158.09 Y151.97 E50.42849
G1 X158.03 Y152.04 E50.43088
G1 X157.91 Y152.45 E50.44156
G1 X157.95 Y152.53 E50.44386
G1 X157.72 Y152.73 E50.45137
G1 X157.71 Y152.88 E50.45522
G1 X157.68 Y152.93 E50.45660
G1 X157.64 Y153.35 E50.46712
G1 X157.68 Y153.41 E50.46887
G1 X157.67 Y153.44 E50.46987
G1 X157.61 Y153.53 E50.47245
G1 X157.49 Y153.84 E50.48070
G1 X157.47 Y153.96 E50.48371
G1 X157.31 Y154.40 E50.49541
G1 X157.08 Y154.95 E50.51042
G1 X156.96 Y155.24 E50.51815
G1 X156.85 Y155.35 E50.52219
G1 X156.76 Y155.60 E50.52885
G1 X156.76 Y155.63 E50.52943
G1 X156.72 Y155.65 E50.53046
G1 X156.55 Y155.82 E50.53653
G1 X156.42 Y156.06 E50.54330
G1 X156.42 Y156.12 E50.54479
G1 X156.11 Y156.29 E50.55373
G1 X156.07 Y156.42 E50.55706
G1 X155.94 Y156.56 E50.56185
G1 X155.84 Y156.62 E50.56476
G1 X155.75 Y156.65 E50.56713
G1 X155.23 Y157.04 E50.58337
G1 X155.20 Y157.12 E50.58545
G1 X154.72 Y157.37 E50.59903
G1 X154.37 Y157.51 E50.60842
G1 X154.28 Y157.49 E50.61061
G1 X154.14 Y157.55 E50.61439
G1 X153.99 Y157.59 E50.61817
G1 X153.98 Y157.59 E50.61850
G1 X153.75 Y157.59 E50.62434
G1 X153.61 Y157.69 E50.62867
G1 X153.35 Y157.72 E50.63516
G1 X153.29 Y157.75 E50.63686
G1 X153.03 Y157.66 E50.64370
G1 X152.97 Y157.68 E50.64525
G1 X152.81 Y157.66 E50.64916
G1 X152.53 Y157.75 E50.65633
G1 X152.47 Y157.81 E50.65874
G1 X152.38 Y157.78 E50.66112
G1 X152.12 Y157.78 E50.66768
G1 X151.98 Y157.78 E50.67102
G1 X151.88 Y157.82 E50.67364
G1 X151.49 Y157.79 E50.68342
G1 X151.22 Y157.75 E50.69020
G1 X151.04 Y157.67 E50.69525
G1 X150.68 Y157.63 E50.70432
G1 X150.47 Y157.51 E50.71034
G1 X150.38 Y157.44 E50.71324
G1 X150.16 Y157.35 E50.71900
G1 X149.97 Y157.34 E50.72374
G1 X149.94 Y157.23 E50.72658
G1 X149.53 Y156.96 E50.73884
G1 X149.33 Y156.97 E50.74371
G1 X149.32 Y156.89 E50.74577
G1 X149.03 Y156.60 E50.75600
G1 X148.76 Y156.39 E50.76458
G1 X148.57 Y156.33 E50.76953
G1 X148.48 Y156.22 E50.77302
G1 X148.38 Y156.03 E50.77840
G1 X148.26 Y155.91 E50.78256
G1 X148.13 Y155.71 E50.78863
G1 X148.14 Y155.64 E50.79024
G1 X148.04 Y155.39 E50.79709
G1 X147.89 Y155.20 E50.80297
G1 X147.89 Y154.99 E50.80828
G1 X147.62 Y154.72 E50.81778
G1 X147.59 Y154.64 E50.81999
G1 X147.60 Y154.44 E50.82504
G1 X147.54 Y154.10 E50.83371
G1 X147.39 Y154.00 E50.83800
G1 X147.43 Y153.91 E50.84046
G1 X147.40 Y153.78 E50.84400
G1 X147.40 Y153.75 E50.84475
G1 X147.29 Y153.24 E50.85774
G1 X147.30 Y153.17 E50.85926
G1 X147.22 Y152.82 E50.86825
G1 X147.08 Y152.71 E50.87278
G1 X147.06 Y152.52 E50.87744
G1 X147.07 Y152.35 E50.88172
G1 X147.01 Y152.13 E50.88731
G1 X147.00 Y152.00 E50.89066
G1 X147.06 Y151.83 E50.89508
G1 X147.01 Y151.52 E50.90298
G1 X147.02 Y151.51 E50.90335
G1 X147.03 Y151.40 E50.90613
G1 X147.11 Y151.17 E50.91215
G1 X146.98 Y150.92 E50.91904
G1 X146.99 Y150.81 E50.92191
G1 X147.03 Y150.71 E50.92452
G1 X147.04 Y150.54 E50.92867
G1 X147.16 Y150.37 E50.93398
G1 X147.05 Y150.08 E50.94169
G1 X147.09 Y149.72 E50.95072
G1 X147.22 Y149.25 E50.96306
G1 X147.29 Y149.06 E50.96793
G1 X147.51 Y148.70 E50.97860
G1 X147.67 Y148.61 E50.98314
G1 X147.70 Y148.42 E50.98791
G1 X147.90 Y148.34 E50.99331
G1 X147.95 Y148.20 E50.99697
G1 X148.01 Y148.10 E50.99985
G1 X148.04 Y148.04 E51.00143
G1 X148.06 Y148.04 E51.00198
G1 X148.27 Y147.94 E51.00796
G1 X148.43 Y147.80 E51.01304
G1 X148.50 Y147.78 E51.01508
G1 X148.76 Y147.63 E51.02251
G1 X148.82 Y147.53 E51.02540
G1 X148.95 Y147.53 E51.02863
G1 X149.05 Y147.49 E51.03138
G1 X149.24 Y147.41 E51.03650
G1 X149.29 Y147.36 E51.03826
G1 X149.47 Y147.44 E51.04304
G1 X149.72 Y147.38 E51.04951
G1 X149.78 Y147.38 E51.05104
G1 X149.88 Y147.36 E51.05346
G1 X149.97 Y147.35 E51.05577
G1 X150.05 Y147.32 E51.05781
G1 X150.36 Y147.33 E51.06565
G1 X150.40 Y147.35 E51.06669
G1 X150.87 Y147.47 E51.07895
G1 X151.18 Y147.35 E51.08723
G1 X151.46 Y147.50 E51.09512
G1 X151.87 Y147.36 E51.10591
G1 X151.92 Y147.30 E51.10785
G1 X152.36 Y147.31 E51.11878
G1 X152.71 Y147.35 E51.12752
G1 X152.86 Y147.36 E51.13131
G1 X153.20 Y147.40 E51.13980
G1 X153.33 Y147.48 E51.14379
G1 X153.68 Y147.50 E51.15243
G1 X153.79 Y147.46 E51.15538
G1 X154.09 Y147.48 E51.16299
G1 X154.25 Y147.61 E51.16807
G1 X154.64 Y147.65 E51.17794
G1 X154.84 Y147.54 E51.18372
G1 X154.86 Y147.54 E51.18400
G1 X155.02 Y147.74 E51.19041
G1 X155.53 Y147.81 E51.20335
G1 X155.67 Y147.72 E51.20735
G1 X156.21 Y147.94 E51.22195
G1 X156.45 Y148.07 E51.22879
G1 X156.64 Y148.23 E51.23482
G1 X156.85 Y148.37 E51.24122
G1 X156.90 Y148.59 E51.24685
G1 X157.13 Y148.71 E51.25339
G0 F12000 X157.25 Y148.32
;TYPE:WALL-OUTER
G1 F3000 X157.42 Y148.41 E51.25810
G1 X157.42 Y148.42 E51.25840
G1 X157.65 Y148.82 E51.26991
G1 X157.86 Y149.10 E51.27871
G1 X158.04 Y149.25 E51.28445
G1 X158.05 Y149.26 E51.28488
G1 X158.03 Y149.40 E51.28825
G1 X158.06 Y149.52 E51.29142
G1 X158.18 Y149.65 E51.29571
G1 X158.23 Y149.65 E51.29700
G1 X158.27 Y149.68 E51.29831
G1 X158.30 Y149.71 E51.29930
G1 X158.35 Y149.82 E51.30242
G1 X158.46 Y150.12 E51.31030
G1 X158.52 Y150.43 E51.31807
G1 X158.52 Y150.49 E51.31969
G1 X158.49 Y150.77 E51.32660
G1 X158.54 Y151.04 E51.33359
G1 X158.50 Y151.45 E51.34391
G1 X158.52 Y151.61 E51.34785
G1 X158.57 Y151.69 E51.35006
G1 X158.47 Y151.85 E51.35461
G1 X158.53 Y152.00 E51.35874
G1 X158.53 Y152.03 E51.35937
G1 X158.51 Y152.11 E51.36160
G1 X158.38 Y152.25 E51.36613
G1 X158.33 Y152.42 E51.37063
G1 X158.36 Y152.47 E51.37210
G1 X158.35 Y152.58 E51.37470
G1 X158.38 Y152.63 E51.37628
G1 X158.35 Y152.73 E51.37884
G1 X158.33 Y152.76 E51.37984
G1 X158.23 Y152.82 E51.38267
G1 X158.11 Y152.92 E51.38657
G1 X158.10 Y153.02 E51.38894
G1 X158.07 Y153.07 E51.39054
G1 X158.05 Y153.23 E51.39459
G1 X158.13 Y153.34 E51.39796
G1 X158.02 Y153.63 E51.40571
G1 X157.97 Y153.71 E51.40814
G1 X157.88 Y153.94 E51.41440
G1 X157.86 Y154.06 E51.41721
G1 X157.69 Y154.54 E51.43007
G1 X157.45 Y155.11 E51.44539
G1 X157.30 Y155.46 E51.45501
G1 X157.19 Y155.57 E51.45884
G1 X157.15 Y155.68 E51.46173
G1 X157.15 Y155.80 E51.46465
G1 X157.09 Y155.92 E51.46811
G1 X157.07 Y155.94 E51.46859
G1 X156.95 Y155.98 E51.47188
G1 X156.87 Y156.06 E51.47461
G1 X156.82 Y156.15 E51.47713
G1 X156.83 Y156.27 E51.48023
G1 X156.77 Y156.37 E51.48298
G1 X156.71 Y156.44 E51.48539
G1 X156.65 Y156.47 E51.48700
G1 X156.60 Y156.47 E51.48830
G1 X156.44 Y156.56 E51.49290
G1 X156.42 Y156.62 E51.49427
G1 X156.32 Y156.74 E51.49829
G1 X156.32 Y156.81 E51.50017
G1 X156.31 Y156.87 E51.50148
G1 X156.32 Y156.89 E51.50201
G1 X156.22 Y156.97 E51.50517
G1 X156.07 Y156.95 E51.50905
G1 X156.00 Y156.99 E51.51112
G1 X155.93 Y157.01 E51.51272
G1 X155.56 Y157.29 E51.52433
G1 X155.55 Y157.33 E51.52534
G1 X155.49 Y157.40 E51.52764
G1 X155.43 Y157.45 E51.52971
G1 X154.89 Y157.73 E51.54472
G1 X154.59 Y157.85 E51.55281
G1 X154.43 Y157.91 E51.55717
G1 X154.37 Y157.91 E51.55867
G1 X154.32 Y157.91 E51.55979
G1 X154.19 Y157.95 E51.56332
G1 X154.10 Y158.02 E51.56623
G1 X154.08 Y158.03 E51.56676
G1 X154.02 Y158.00 E51.56835
G1 X153.87 Y157.99 E51.57207
G1 X153.69 Y158.12 E51.57765
G1 X153.59 Y158.09 E51.58016
G1 X153.45 Y158.11 E51.58383
G1 X153.22 Y158.19 E51.58985
G1 X153.14 Y158.12 E51.59236
G1 X153.01 Y158.08 E51.59574
G1 X152.99 Y158.09 E51.59649
G1 X152.97 Y158.08 E51.59690
G1 X152.85 Y158.07 E51.59993
G1 X152.75 Y158.10 E51.60249
G1 X152.64 Y158.22 E51.60662
G1 X152.60 Y158.24 E51.60781
G1 X152.43 Y158.23 E51.61205
G1 X152.31 Y158.18 E51.61533
G1 X152.12 Y158.18 E51.61992
G1 X152.06 Y158.18 E51.62151
G1 X151.94 Y158.22 E51.62463
G1 X151.44 Y158.19 E51.63705
G1 X151.12 Y158.14 E51.64527
G1 X150.94 Y158.06 E51.65012
G1 X150.67 Y158.03 E51.65684
G1 X150.65 Y158.04 E51.65747
G1 X150.48 Y158.00 E51.66173
G1 X150.45 Y157.97 E51.66280
G1 X150.31 Y157.88 E51.66695
G1 X150.26 Y157.90 E51.66830
G1 X150.23 Y157.84 E51.66996
G1 X150.16 Y157.78 E51.67210
G1 X150.08 Y157.75 E51.67441
G1 X149.98 Y157.74 E51.67689
G1 X149.88 Y157.78 E51.67943
G1 X149.84 Y157.77 E51.68054
G1 X149.73 Y157.71 E51.68373
G1 X149.69 Y157.66 E51.68523
G1 X149.63 Y157.56 E51.68824
G1 X149.60 Y157.49 E51.69005
G1 X149.41 Y157.37 E51.69567
G1 X149.25 Y157.38 E51.69986
G1 X149.16 Y157.40 E51.70208
G1 X148.98 Y157.27 E51.70766
G1 X148.96 Y157.25 E51.70833
G1 X148.94 Y157.07 E51.71280
G1 X148.76 Y156.90 E51.71894
G1 X148.57 Y156.75 E51.72503
G1 X148.47 Y156.72 E51.72764
G1 X148.40 Y156.71 E51.72949
G1 X148.36 Y156.69 E51.73069
G1 X148.33 Y156.66 E51.73171
G1 X148.15 Y156.45 E51.73858
G1 X148.05 Y156.27 E51.74356
G1 X147.94 Y156.16 E51.74751
G1 X147.75 Y155.86 E51.75642
G1 X147.72 Y155.76 E51.75900
G1 X147.73 Y155.70 E51.76046
G1 X147.69 Y155.59 E51.76345
G1 X147.61 Y155.49 E51.76663
G1 X147.50 Y155.46 E51.76949
G1 X147.46 Y155.38 E51.77171
G1 X147.49 Y155.30 E51.77377
G1 X147.49 Y155.16 E51.77736
G1 X147.37 Y155.04 E51.78163
G1 X147.33 Y155.02 E51.78273
G1 X147.26 Y154.92 E51.78576
G1 X147.16 Y154.64 E51.79320
G1 X147.19 Y154.56 E51.79534
G1 X147.19 Y154.46 E51.79776
G1 X147.17 Y154.34 E51.80085
G1 X147.00 Y154.23 E51.80604
G1 X146.99 Y154.22 E51.80640
G1 X146.94 Y154.06 E51.81043
G1 X147.01 Y153.89 E51.81513
G1 X146.99 Y153.81 E51.81705
G1 X147.00 Y153.78 E51.81793
G1 X146.89 Y153.26 E51.83097
G1 X146.89 Y153.20 E51.83249
G1 X146.86 Y153.04 E51.83665
G1 X146.71 Y152.91 E51.84162
G1 X146.66 Y152.60 E51.84952
G1 X146.66 Y152.51 E51.85164
G1 X146.66 Y152.39 E51.85477
G1 X146.62 Y152.21 E51.85926
G1 X146.59 Y151.95 E51.86582
G1 X146.65 Y151.79 E51.87003
G1 X146.62 Y151.63 E51.87419
G1 X146.59 Y151.57 E51.87590
G1 X146.59 Y151.42 E51.87954
G1 X146.64 Y151.35 E51.88167
G1 X146.68 Y151.20 E51.88551
G1 X146.58 Y151.03 E51.89052
G1 X146.58 Y150.96 E51.89217
G1 X146.59 Y150.71 E51.89835
G1 X146.63 Y150.62 E51.90090
G1 X146.64 Y150.52 E51.90330
G1 X146.61 Y150.45 E51.90516
G1 X146.71 Y150.32 E51.90927
G1 X146.64 Y150.13 E51.91416
G1 X146.70 Y149.65 E51.92631
G1 X146.84 Y149.11 E51.94012
G1 X146.93 Y148.89 E51.94628
G1 X147.16 Y148.52 E51.95703
G1 X147.15 Y148.49 E51.95766
G1 X147.18 Y148.44 E51.95916
G1 X147.19 Y148.43 E51.95958
G1 X147.31 Y148.36 E51.96300
G1 X147.33 Y148.19 E51.96737
G1 X147.33 Y148.17 E51.96787
G1 X147.36 Y148.13 E51.96903
G1 X147.59 Y148.03 E51.97521
G1 X147.60 Y148.00 E51.97614
G1 X147.61 Y147.99 E51.97654
G1 X147.65 Y147.92 E51.97844
G1 X147.72 Y147.76 E51.98279
G1 X147.79 Y147.70 E51.98530
G1 X147.91 Y147.65 E51.98838
G1 X147.94 Y147.65 E51.98926
G1 X148.05 Y147.60 E51.99217
G1 X148.13 Y147.53 E51.99491
G1 X148.19 Y147.45 E51.99728
G1 X148.35 Y147.41 E52.00144
G1 X148.47 Y147.34 E52.00479
G1 X148.56 Y147.17 E52.00955
G1 X148.65 Y147.13 E52.01209
G1 X148.70 Y147.11 E52.01346
G1 X148.72 Y147.11 E52.01378
G1 X148.74 Y147.12 E52.01434
G1 X148.87 Y147.13 E52.01771
G1 X148.95 Y147.09 E52.01981
G1 X149.03 Y147.06 E52.02196
G1 X149.15 Y146.97 E52.02581
G1 X149.32 Y146.94 E52.03018
G1 X149.50 Y147.02 E52.03510
G1 X149.69 Y146.97 E52.03998
G1 X149.76 Y146.98 E52.04151
G1 X149.88 Y146.96 E52.04454
G1 X149.97 Y146.92 E52.04700
G1 X149.98 Y146.92 E52.04733
G1 X150.40 Y146.93 E52.05783
G1 X150.53 Y146.96 E52.06100
G1 X150.56 Y146.98 E52.06218
G1 X150.84 Y147.05 E52.06936
G1 X151.10 Y146.95 E52.07639
G1 X151.14 Y146.91 E52.07759
G1 X151.23 Y146.90 E52.08003
G1 X151.28 Y146.91 E52.08131
G1 X151.33 Y146.97 E52.08340
G1 X151.49 Y147.06 E52.08801
G1 X151.65 Y147.01 E52.09221
G1 X151.76 Y146.91 E52.09592
G1 X151.88 Y146.90 E52.09894
G1 X152.38 Y146.92 E52.11137
G1 X152.73 Y146.96 E52.12025
G1 X152.89 Y146.96 E52.12419
G1 X153.32 Y147.01 E52.13509
G1 X153.46 Y147.09 E52.13896
G1 X153.61 Y147.10 E52.14276
G1 X153.72 Y147.05 E52.14580
G1 X154.26 Y147.09 E52.15918
G1 X154.41 Y147.22 E52.16433
G1 X154.56 Y147.24 E52.16799
G1 X154.66 Y147.18 E52.17088
G1 X154.73 Y147.12 E52.17321
G1 X155.09 Y147.16 E52.18231
G1 X155.12 Y147.22 E52.18392
G1 X155.23 Y147.36 E52.18835
G1 X155.44 Y147.39 E52.19381
G1 X155.63 Y147.28 E52.19922
G1 X155.83 Y147.35 E52.20462
G1 X155.88 Y147.38 E52.20600
G1 X156.38 Y147.57 E52.21929
G1 X156.68 Y147.74 E52.22778
G1 X156.89 Y147.91 E52.23467
G1 X157.01 Y147.99 E52.23824
G1 X157.14 Y148.10 E52.24245
G1 X157.19 Y148.16 E52.24451
G1 X157.23 Y148.22 E52.24627
G1 X157.25 Y148.32 E52.24888
G0 F12000 X156.97 Y148.78
;TYPE:FILL
G1 F3000 X149.19 Y156.56 E52.52312
G0 F12000 X149.49 Y156.82
G1 F3000 X157.20 Y149.12 E52.79496
G0 F12000 X157.44 Y149.44
G1 F3000 X149.87 Y157.02 E53.06210
G0 F12000 X150.23 Y157.22
G1 F3000 X157.62 Y149.83 E53.32287
G0 F12000 X157.88 Y150.13
G1 F3000 X150.59 Y157.42 E53.57996
G0 F12000 X151.05 Y157.53
G1 F3000 X157.96 Y150.62 E53.82388
G0 F12000 X157.99 Y151.16
G1 F3000 X151.50 Y157.65 E54.05285
G0 F12000 X152.07 Y157.64
G1 F3000 X157.89 Y151.82 E54.25806
G0 F12000 X157.58 Y152.70
G1 F3000 X152.74 Y157.53 E54.42863
G0 F12000 X153.25 Y157.59
G1 F3000 X157.50 Y153.34 E54.57842
G0 F12000 X157.25 Y154.16
G1 F3000 X153.96 Y157.45 E54.69445
G0 F12000 X154.82 Y157.16
G1 F3000 X156.86 Y155.12 E54.76642
G0 F12000 X156.72 Y148.46
G1 F3000 X148.88 Y156.30 E55.04299
G0 F12000 X148.56 Y156.07
G1 F3000 X156.41 Y148.21 E55.32001
G0 F12000 X156.04 Y148.02
G1 F3000 X148.32 Y155.74 E55.59235
G0 F12000 X148.16 Y155.33
G1 F3000 X155.54 Y147.95 E55.85267
G0 F12000 X155.04 Y147.88
G1 F3000 X148.01 Y154.91 E56.10065
G0 F12000 X147.73 Y154.63
G1 F3000 X154.58 Y147.78 E56.34213
G0 F12000 X154.11 Y147.68
G1 F3000 X147.68 Y154.11 E56.56893
G0 F12000 X147.53 Y153.70
G1 F3000 X153.59 Y147.63 E56.78278
G0 F12000 X153.13 Y147.53
G1 F3000 X147.43 Y153.23 E56.98374
G0 F12000 X147.35 Y152.75
G1 F3000 X152.61 Y147.48 E57.16944
G0 F12000 X152.08 Y147.45
G1 F3000 X147.21 Y152.32 E57.34141
G0 F12000 X147.19 Y151.77
G1 F3000 X151.36 Y147.60 E57.48850
G0 F12000 X150.80 Y147.60
G1 F3000 X147.25 Y151.14 E57.61356
G0 F12000 X147.17 Y150.66
G1 F3000 X150.35 Y147.49 E57.72558
G0 F12000 X149.75 Y147.52
G1 F3000 X147.19 Y150.07 E57.81568
G0 F12000 X147.33 Y149.37
G1 F3000 X149.07 Y147.63 E57.87706
;LAYER:6
G0 F12000 X149.08 Y147.53 Z1.15
;TYPE:WALL-INNER
G1 F2160 X149.38 Y147.35 E57.88578
G1 X149.41 Y147.35 E57.88638
G1 X149.43 Y147.35 E57.88688
G1 X149.64 Y147.42 E57.89245
G1 X149.86 Y147.34 E57.89828
G1 X149.97 Y147.34 E57.90105
G1 X150.08 Y147.42 E57.90456
G1 X150.32 Y147.48 E57.91084
G1 X150.70 Y147.47 E57.92028
G1 X151.06 Y147.48 E57.92912
G1 X151.27 Y147.44 E57.93448
G1 X151.36 Y147.40 E57.93690
G1 X151.61 Y147.52 E57.94388
G1 X151.84 Y147.33 E57.95111
G1 X151.94 Y147.45 E57.95514
G1 X152.64 Y147.51 E57.97257
G1 X152.74 Y147.38 E57.97664
G1 X152.87 Y147.43 E57.98011
G1 X153.17 Y147.46 E57.98761
G1 X153.21 Y147.46 E57.98873
G1 X153.27 Y147.47 E57.99026
G1 X153.44 Y147.46 E57.99459
G1 X154.11 Y147.50 E58.01120
G1 X154.19 Y147.58 E58.01406
G1 X154.58 Y147.65 E58.02383
G1 X154.80 Y147.55 E58.02983
G1 X154.93 Y147.57 E58.03299
G1 X154.98 Y147.66 E58.03570
G1 X155.13 Y147.68 E58.03948
G1 X155.32 Y147.82 E58.04530
G1 X155.48 Y147.75 E58.04972
G1 X155.71 Y147.90 E58.05676
G1 X155.94 Y147.98 E58.06269
G1 X156.21 Y148.11 E58.07019
G1 X156.47 Y148.10 E58.07670
G1 X156.58 Y148.15 E58.07967
G1 X156.70 Y148.23 E58.08331
G1 X156.72 Y148.30 E58.08508
G1 X156.85 Y148.49 E58.09097
G1 X157.06 Y148.66 E58.09757
G1 X157.28 Y149.03 E58.10834
G1 X157.50 Y149.17 E58.11497
G1 X157.61 Y149.47 E58.12288
G1 X157.64 Y149.49 E58.12369
G1 X157.66 Y149.71 E58.12919
G1 X157.97 Y149.87 E58.13790
G1 X157.98 Y149.91 E58.13893
G1 X157.97 Y149.97 E58.14050
G1 X158.08 Y150.33 E58.14998
G1 X158.12 Y150.43 E58.15250
G1 X158.17 Y150.60 E58.15703
G1 X158.19 Y150.75 E58.16081
G1 X158.17 Y151.16 E58.17091
G1 X158.20 Y151.47 E58.17887
G1 X158.12 Y151.63 E58.18325
G1 X158.12 Y151.64 E58.18355
G1 X158.08 Y151.70 E58.18536
G1 X158.10 Y151.97 E58.19223
G1 X158.13 Y152.04 E58.19392
G1 X158.10 Y152.14 E58.19658
G1 X157.69 Y152.44 E58.20919
G1 X157.85 Y152.70 E58.21668
G1 X157.73 Y152.79 E58.22055
G1 X157.71 Y153.14 E58.22917
G1 X157.62 Y153.23 E58.23247
G1 X157.37 Y153.83 E58.24862
G1 X157.34 Y153.88 E58.24993
G1 X157.12 Y154.11 E58.25791
G1 X157.29 Y154.40 E58.26625
G1 X157.29 Y154.45 E58.26735
G1 X157.16 Y154.71 E58.27452
G1 X157.06 Y154.99 E58.28216
G1 X156.99 Y155.11 E58.28565
G1 X156.96 Y155.15 E58.28673
G1 X156.89 Y155.30 E58.29084
G1 X156.84 Y155.50 E58.29617
G1 X156.81 Y155.57 E58.29794
G1 X156.54 Y155.63 E58.30480
G1 X156.51 Y155.99 E58.31393
G1 X156.48 Y156.08 E58.31629
G1 X156.42 Y156.18 E58.31909
G1 X156.36 Y156.19 E58.32050
G1 X156.01 Y156.48 E58.33185
G1 X156.01 Y156.52 E58.33295
G1 X155.84 Y156.59 E58.33751
G1 X155.73 Y156.73 E58.34198
G1 X155.33 Y156.97 E58.35363
G1 X155.28 Y156.99 E58.35482
G1 X155.02 Y157.13 E58.36236
G1 X154.93 Y157.26 E58.36613
G1 X154.31 Y157.48 E58.38267
G1 X154.09 Y157.59 E58.38871
G1 X154.08 Y157.60 E58.38914
G1 X153.79 Y157.62 E58.39618
G1 X153.72 Y157.67 E58.39838
G1 X153.62 Y157.63 E58.40124
G1 X153.27 Y157.78 E58.41067
G1 X153.22 Y157.79 E58.41199
G1 X153.06 Y157.71 E58.41658
G1 X152.69 Y157.76 E58.42567
G1 X152.66 Y157.79 E58.42675
G1 X152.35 Y157.71 E58.43469
G1 X152.05 Y157.72 E58.44216
G1 X151.80 Y157.71 E58.44848
G1 X151.50 Y157.76 E58.45594
G1 X151.47 Y157.78 E58.45691
G1 X151.34 Y157.78 E58.46028
G1 X150.84 Y157.66 E58.47288
G1 X150.51 Y157.51 E58.48213
G1 X150.48 Y157.51 E58.48286
G1 X150.35 Y157.35 E58.48798
G1 X149.97 Y157.40 E58.49751
G1 X149.90 Y157.36 E58.49960
G1 X149.87 Y157.28 E58.50191
G1 X149.51 Y157.00 E58.51320
G1 X149.48 Y157.00 E58.51398
G1 X149.26 Y156.78 E58.52167
G1 X149.22 Y156.76 E58.52297
G1 X149.01 Y156.63 E58.52910
G1 X148.94 Y156.58 E58.53112
G1 X148.79 Y156.37 E58.53772
G1 X148.72 Y156.32 E58.53965
G1 X148.68 Y156.26 E58.54172
G1 X148.40 Y156.10 E58.54967
G1 X148.34 Y156.03 E58.55195
G1 X148.23 Y155.83 E58.55758
G1 X148.17 Y155.66 E58.56230
G1 X148.03 Y155.43 E58.56878
G1 X147.92 Y155.32 E58.57266
G1 X147.98 Y155.16 E58.57695
G1 X147.68 Y154.82 E58.58846
G1 X147.65 Y154.76 E58.59006
G1 X147.63 Y154.57 E58.59494
G1 X147.58 Y154.50 E58.59704
G1 X147.50 Y154.19 E58.60515
G1 X147.48 Y154.16 E58.60581
G1 X147.44 Y153.85 E58.61369
G1 X147.32 Y153.53 E58.62219
G1 X147.25 Y153.19 E58.63104
G1 X147.27 Y152.91 E58.63794
G1 X147.18 Y152.64 E58.64502
G1 X147.07 Y152.51 E58.64932
G1 X147.04 Y152.34 E58.65356
G1 X147.05 Y152.13 E58.65883
G1 X147.00 Y151.96 E58.66319
G1 X147.00 Y151.91 E58.66439
G1 X147.00 Y151.79 E58.66751
G1 X146.98 Y151.74 E58.66891
G1 X146.98 Y151.69 E58.67011
G1 X146.98 Y151.62 E58.67171
G1 X147.26 Y151.34 E58.68169
G1 X146.99 Y150.99 E58.69276
G1 X146.98 Y150.97 E58.69348
G1 X146.97 Y150.89 E58.69526
G1 X146.98 Y150.72 E58.69955
G1 X147.02 Y150.64 E58.70193
G1 X147.03 Y150.59 E58.70321
G1 X147.10 Y150.42 E58.70764
G1 X147.03 Y150.15 E58.71465
G1 X147.12 Y149.98 E58.71949
G1 X147.18 Y149.79 E58.72456
G1 X147.25 Y149.38 E58.73480
G1 X147.21 Y149.23 E58.73866
G1 X147.23 Y149.18 E58.74006
G1 X147.39 Y148.84 E58.74948
G1 X147.41 Y148.81 E58.75027
G1 X147.48 Y148.76 E58.75241
G1 X147.63 Y148.50 E58.75986
G1 X147.63 Y148.48 E58.76034
G1 X147.83 Y148.43 E58.76558
G1 X147.98 Y148.01 E58.77653
G1 X148.00 Y147.98 E58.77757
G1 X148.29 Y147.93 E58.78483
G1 X148.47 Y147.79 E58.79048
G1 X148.52 Y147.77 E58.79183
G1 X148.76 Y147.53 E58.80020
G1 X148.76 Y147.51 E58.80084
G1 X149.08 Y147.53 E58.80879
G0 F12000 X148.99 Y147.12
;TYPE:WALL-OUTER
G1 F2160 X149.11 Y147.05 E58.81252
G1 X149.17 Y146.97 E58.81494
G1 X149.39 Y146.95 E58.82048
G1 X149.50 Y146.95 E58.82305
G1 X149.63 Y146.99 E58.82644
G1 X149.79 Y146.93 E58.83071
G1 X150.04 Y146.94 E58.83694
G1 X150.13 Y146.95 E58.83919
G1 X150.26 Y147.06 E58.84333
G1 X150.36 Y147.08 E58.84605
G1 X150.71 Y147.07 E58.85474
G1 X151.03 Y147.08 E58.86258
G1 X151.15 Y147.05 E58.86581
G1 X151.25 Y147.01 E58.86832
G1 X151.30 Y146.94 E58.87069
G1 X151.34 Y146.94 E58.87157
G1 X151.37 Y146.97 E58.87264
G1 X151.55 Y147.05 E58.87755
G1 X151.69 Y146.93 E58.88212
G1 X151.77 Y146.93 E58.88404
G1 X151.99 Y146.94 E58.88968
G1 X152.03 Y146.95 E58.89055
G1 X152.14 Y147.07 E58.89461
G1 X152.45 Y147.10 E58.90247
G1 X152.55 Y146.96 E58.90654
G1 X152.81 Y146.99 E58.91313
G1 X152.95 Y147.03 E58.91691
G1 X153.18 Y147.06 E58.92261
G1 X153.25 Y147.06 E58.92423
G1 X153.30 Y147.06 E58.92555
G1 X153.44 Y147.05 E58.92925
G1 X154.21 Y147.11 E58.94828
G1 X154.27 Y147.11 E58.94983
G1 X154.38 Y147.21 E58.95345
G1 X154.53 Y147.23 E58.95740
G1 X154.63 Y147.19 E58.96013
G1 X154.69 Y147.14 E58.96209
G1 X155.17 Y147.19 E58.97402
G1 X155.23 Y147.29 E58.97685
G1 X155.30 Y147.30 E58.97861
G1 X155.37 Y147.35 E58.98083
G1 X155.55 Y147.26 E58.98582
G1 X155.57 Y147.27 E58.98640
G1 X155.68 Y147.31 E58.98945
G1 X155.69 Y147.34 E58.98999
G1 X155.72 Y147.38 E58.99125
G1 X155.74 Y147.44 E58.99300
G1 X155.89 Y147.54 E58.99741
G1 X156.11 Y147.62 E59.00321
G1 X156.29 Y147.71 E59.00825
G1 X156.43 Y147.70 E59.01172
G1 X156.52 Y147.68 E59.01409
G1 X156.76 Y147.79 E59.02053
G1 X156.97 Y147.92 E59.02673
G1 X157.03 Y147.98 E59.02881
G1 X157.07 Y148.05 E59.03093
G1 X157.09 Y148.13 E59.03293
G1 X157.14 Y148.21 E59.03536
G1 X157.32 Y148.35 E59.04103
G1 X157.37 Y148.41 E59.04293
G1 X157.58 Y148.74 E59.05261
G1 X157.70 Y148.82 E59.05627
G1 X157.84 Y148.84 E59.05986
G1 X157.85 Y148.84 E59.06022
G1 X157.92 Y148.95 E59.06343
G1 X157.91 Y149.12 E59.06751
G1 X157.95 Y149.23 E59.07053
G1 X157.98 Y149.25 E59.07151
G1 X157.99 Y149.27 E59.07181
G1 X158.02 Y149.30 E59.07294
G1 X158.03 Y149.45 E59.07685
G1 X158.23 Y149.56 E59.08236
G1 X158.25 Y149.55 E59.08289
G1 X158.28 Y149.58 E59.08396
G1 X158.30 Y149.60 E59.08461
G1 X158.38 Y149.82 E59.09038
G1 X158.39 Y149.89 E59.09207
G1 X158.38 Y149.94 E59.09348
G1 X158.57 Y150.52 E59.10852
G1 X158.60 Y150.74 E59.11408
G1 X158.57 Y151.15 E59.12436
G1 X158.59 Y151.37 E59.12985
G1 X158.60 Y151.44 E59.13180
G1 X158.60 Y151.59 E59.13532
G1 X158.51 Y151.74 E59.13971
G1 X158.51 Y151.75 E59.14008
G1 X158.49 Y151.79 E59.14109
G1 X158.50 Y151.89 E59.14357
G1 X158.54 Y151.99 E59.14634
G1 X158.54 Y152.03 E59.14722
G1 X158.50 Y152.21 E59.15180
G1 X158.44 Y152.37 E59.15611
G1 X158.35 Y152.46 E59.15920
G1 X158.23 Y152.55 E59.16295
G1 X158.35 Y152.75 E59.16889
G1 X158.33 Y152.83 E59.17110
G1 X158.30 Y152.87 E59.17237
G1 X158.26 Y152.88 E59.17337
G1 X158.12 Y153.00 E59.17784
G1 X158.11 Y153.19 E59.18259
G1 X158.16 Y153.27 E59.18516
G1 X158.14 Y153.33 E59.18672
G1 X158.04 Y153.38 E59.18949
G1 X157.96 Y153.46 E59.19254
G1 X157.73 Y154.00 E59.20706
G1 X157.70 Y154.05 E59.20854
G1 X157.69 Y154.09 E59.20944
G1 X157.62 Y154.17 E59.21227
G1 X157.68 Y154.29 E59.21575
G1 X157.68 Y154.32 E59.21640
G1 X157.73 Y154.39 E59.21851
G1 X157.67 Y154.59 E59.22370
G1 X157.54 Y154.87 E59.23139
G1 X157.52 Y154.89 E59.23221
G1 X157.42 Y155.16 E59.23929
G1 X157.27 Y155.43 E59.24701
G1 X157.22 Y155.64 E59.25242
G1 X157.08 Y155.92 E59.26011
G1 X156.91 Y155.95 E59.26433
G1 X156.90 Y156.08 E59.26753
G1 X156.88 Y156.14 E59.26905
G1 X156.89 Y156.20 E59.27047
G1 X156.67 Y156.52 E59.28025
G1 X156.63 Y156.55 E59.28144
G1 X156.53 Y156.56 E59.28384
G1 X156.40 Y156.68 E59.28820
G1 X156.39 Y156.82 E59.29187
G1 X156.33 Y156.88 E59.29388
G1 X156.29 Y156.88 E59.29504
G1 X156.19 Y156.88 E59.29739
G1 X156.10 Y156.92 E59.29999
G1 X156.06 Y156.97 E59.30165
G1 X155.98 Y157.05 E59.30429
G1 X155.49 Y157.34 E59.31846
G1 X155.29 Y157.44 E59.32397
G1 X155.22 Y157.55 E59.32728
G1 X155.19 Y157.58 E59.32831
G1 X154.46 Y157.85 E59.34782
G1 X154.29 Y157.93 E59.35250
G1 X154.23 Y157.98 E59.35437
G1 X154.11 Y158.02 E59.35754
G1 X154.06 Y158.00 E59.35899
G1 X153.93 Y158.01 E59.36212
G1 X153.83 Y158.08 E59.36529
G1 X153.79 Y158.10 E59.36640
G1 X153.74 Y158.11 E59.36754
G1 X153.63 Y158.06 E59.37063
G1 X153.39 Y158.17 E59.37716
G1 X153.23 Y158.20 E59.38114
G1 X153.12 Y158.20 E59.38388
G1 X153.11 Y158.19 E59.38439
G1 X152.99 Y158.12 E59.38779
G1 X152.85 Y158.14 E59.39125
G1 X152.71 Y158.24 E59.39550
G1 X152.68 Y158.25 E59.39625
G1 X152.58 Y158.26 E59.39873
G1 X152.57 Y158.24 E59.39935
G1 X152.47 Y158.15 E59.40250
G1 X152.31 Y158.11 E59.40661
G1 X152.05 Y158.12 E59.41315
G1 X151.82 Y158.11 E59.41882
G1 X151.66 Y158.14 E59.42295
G1 X151.61 Y158.18 E59.42447
G1 X151.58 Y158.19 E59.42532
G1 X151.28 Y158.17 E59.43273
G1 X151.12 Y158.14 E59.43695
G1 X150.73 Y158.05 E59.44694
G1 X150.43 Y157.92 E59.45494
G1 X150.29 Y157.93 E59.45860
G1 X150.28 Y157.91 E59.45906
G1 X150.18 Y157.78 E59.46332
G1 X150.00 Y157.80 E59.46777
G1 X149.96 Y157.82 E59.46896
G1 X149.86 Y157.79 E59.47152
G1 X149.62 Y157.67 E59.47819
G1 X149.56 Y157.62 E59.48013
G1 X149.53 Y157.51 E59.48286
G1 X149.39 Y157.41 E59.48712
G1 X149.28 Y157.42 E59.48993
G1 X149.21 Y157.44 E59.49168
G1 X149.16 Y157.40 E59.49342
G1 X149.16 Y157.30 E59.49589
G1 X149.14 Y157.28 E59.49667
G1 X149.14 Y157.22 E59.49810
G1 X149.04 Y157.12 E59.50141
G1 X149.01 Y157.11 E59.50224
G1 X149.00 Y157.10 E59.50276
G1 X148.78 Y156.96 E59.50922
G1 X148.65 Y156.86 E59.51316
G1 X148.50 Y156.65 E59.51974
G1 X148.44 Y156.60 E59.52163
G1 X148.41 Y156.57 E59.52284
G1 X148.19 Y156.45 E59.52907
G1 X148.16 Y156.45 E59.52977
G1 X148.14 Y156.43 E59.53037
G1 X148.00 Y156.25 E59.53596
G1 X147.87 Y156.00 E59.54311
G1 X147.81 Y155.83 E59.54762
G1 X147.72 Y155.69 E59.55188
G1 X147.60 Y155.57 E59.55604
G1 X147.56 Y155.55 E59.55694
G1 X147.53 Y155.51 E59.55844
G1 X147.47 Y155.38 E59.56205
G1 X147.52 Y155.25 E59.56551
G1 X147.40 Y155.11 E59.57002
G1 X147.36 Y155.09 E59.57113
G1 X147.26 Y154.88 E59.57700
G1 X147.24 Y154.72 E59.58095
G1 X147.13 Y154.57 E59.58559
G1 X147.16 Y154.49 E59.58771
G1 X147.13 Y154.36 E59.59101
G1 X147.07 Y154.27 E59.59374
G1 X147.01 Y154.25 E59.59524
G1 X146.99 Y154.21 E59.59640
G1 X146.99 Y154.18 E59.59701
G1 X147.07 Y154.08 E59.60029
G1 X147.05 Y153.94 E59.60391
G1 X146.94 Y153.65 E59.61161
G1 X146.87 Y153.38 E59.61860
G1 X146.85 Y153.20 E59.62319
G1 X146.87 Y152.96 E59.62904
G1 X146.82 Y152.84 E59.63227
G1 X146.77 Y152.78 E59.63427
G1 X146.69 Y152.72 E59.63685
G1 X146.67 Y152.52 E59.64172
G1 X146.64 Y152.40 E59.64497
G1 X146.64 Y152.35 E59.64620
G1 X146.65 Y152.18 E59.65042
G1 X146.60 Y152.04 E59.65405
G1 X146.60 Y151.93 E59.65680
G1 X146.60 Y151.84 E59.65892
G1 X146.59 Y151.81 E59.65986
G1 X146.58 Y151.70 E59.66249
G1 X146.58 Y151.46 E59.66865
G1 X146.73 Y151.31 E59.67382
G1 X146.59 Y151.13 E59.67943
G1 X146.59 Y151.07 E59.68100
G1 X146.58 Y151.04 E59.68174
G1 X146.57 Y150.91 E59.68497
G1 X146.58 Y150.62 E59.69216
G1 X146.63 Y150.52 E59.69495
G1 X146.64 Y150.48 E59.69606
G1 X146.68 Y150.39 E59.69850
G1 X146.65 Y150.27 E59.70155
G1 X146.61 Y150.23 E59.70288
G1 X146.64 Y150.01 E59.70846
G1 X146.66 Y149.99 E59.70923
G1 X146.75 Y149.83 E59.71367
G1 X146.79 Y149.68 E59.71751
G1 X146.84 Y149.40 E59.72478
G1 X146.80 Y149.23 E59.72892
G1 X146.80 Y149.21 E59.72960
G1 X146.85 Y149.03 E59.73421
G1 X147.01 Y148.70 E59.74327
G1 X147.07 Y148.60 E59.74615
G1 X147.13 Y148.52 E59.74877
G1 X147.17 Y148.49 E59.74996
G1 X147.24 Y148.37 E59.75337
G1 X147.26 Y148.25 E59.75637
G1 X147.34 Y148.14 E59.75992
G1 X147.52 Y148.09 E59.76456
G1 X147.59 Y147.89 E59.76989
G1 X147.59 Y147.84 E59.77108
G1 X147.74 Y147.67 E59.77687
G1 X147.89 Y147.56 E59.78150
G1 X147.99 Y147.58 E59.78414
G1 X148.13 Y147.55 E59.78775
G1 X148.24 Y147.46 E59.79114
G1 X148.29 Y147.44 E59.79251
G1 X148.39 Y147.33 E59.79627
G1 X148.42 Y147.22 E59.79926
G1 X148.77 Y147.07 E59.80870
G1 X148.82 Y147.11 E59.81034
G1 X148.99 Y147.12 E59.81437
G0 F12000 X149.45 Y147.50
;TYPE:FILL
G1 F2160 X147.35 Y149.60 E59.88835
G0 F12000 X147.14 Y151.85
G1 F2160 X152.88 Y157.59 E60.09082
G0 F12000 X149.53 Y156.85
G1 F2160 X157.22 Y149.16 E60.36220
G0 F12000 X157.59 Y152.87
G1 F2160 X152.34 Y147.63 E60.54714
;LAYER:7
G0 F12000 X152.31 Y147.52 Z1.30
;TYPE:WALL-INNER
G1 F2160 X152.57 Y147.55 E60.55371
G1 X153.02 Y147.47 E60.56524
G1 X153.03 Y147.44 E60.56596
G1 X153.24 Y147.52 E60.57143
G1 X153.51 Y147.54 E60.57828
G1 X153.74 Y147.50 E60.58403
G1 X154.14 Y147.53 E60.59393
G1 X154.22 Y147.53 E60.59582
G1 X154.39 Y147.65 E60.60124
G1 X154.61 Y147.61 E60.60669
G1 X154.73 Y147.62 E60.60971
G1 X154.77 Y147.59 E60.61095
G1 X154.79 Y147.59 E60.61128
G1 X154.88 Y147.57 E60.61369
G1 X155.00 Y147.58 E60.61674
G1 X155.15 Y147.73 E60.62202
G1 X155.29 Y147.71 E60.62549
G1 X155.62 Y147.88 E60.63493
G1 X155.81 Y147.90 E60.63951
G1 X155.92 Y147.93 E60.64252
G1 X156.04 Y147.98 E60.64569
G1 X156.14 Y148.06 E60.64890
G1 X156.39 Y148.21 E60.65623
G1 X156.52 Y148.20 E60.65940
G1 X156.57 Y148.21 E60.66077
G1 X156.64 Y148.25 E60.66273
G1 X156.76 Y148.28 E60.66583
G1 X156.80 Y148.31 E60.66690
G1 X156.88 Y148.53 E60.67300
G1 X157.02 Y148.66 E60.67767
G1 X157.22 Y148.98 E60.68694
G1 X157.54 Y149.18 E60.69643
G1 X157.57 Y149.18 E60.69723
G1 X157.52 Y149.36 E60.70191
G1 X157.72 Y149.56 E60.70886
G1 X157.77 Y149.71 E60.71273
G1 X157.83 Y149.73 E60.71434
G1 X157.79 Y149.94 E60.71967
G1 X157.93 Y150.24 E60.72797
G1 X158.03 Y150.57 E60.73640
G1 X158.12 Y150.74 E60.74132
G1 X158.22 Y150.83 E60.74446
G1 X158.22 Y150.86 E60.74535
G1 X158.21 Y150.92 E60.74675
G1 X158.20 Y150.96 E60.74771
G1 X158.16 Y151.47 E60.76063
G1 X158.12 Y151.61 E60.76417
G1 X158.14 Y151.88 E60.77094
G1 X158.16 Y151.93 E60.77221
G1 X158.11 Y152.12 E60.77704
G1 X157.98 Y152.18 E60.78063
G1 X157.88 Y152.69 E60.79358
G1 X157.90 Y152.72 E60.79456
G1 X157.67 Y153.08 E60.80520
G1 X157.68 Y153.11 E60.80580
G1 X157.64 Y153.14 E60.80711
G1 X157.41 Y153.73 E60.82292
G1 X157.29 Y153.99 E60.83001
G1 X157.23 Y154.08 E60.83268
G1 X157.12 Y154.47 E60.84288
G1 X157.20 Y154.59 E60.84651
G1 X157.18 Y154.67 E60.84857
G1 X157.10 Y154.88 E60.85416
G1 X157.07 Y154.90 E60.85511
G1 X156.88 Y155.28 E60.86553
G1 X156.84 Y155.46 E60.87029
G1 X156.75 Y155.66 E60.87570
G1 X156.54 Y155.80 E60.88196
G1 X156.49 Y156.08 E60.88903
G1 X156.48 Y156.09 E60.88948
G1 X156.33 Y156.25 E60.89476
G1 X156.33 Y156.28 E60.89549
G1 X156.22 Y156.35 E60.89881
G1 X156.16 Y156.45 E60.90171
G1 X156.01 Y156.47 E60.90547
G1 X155.82 Y156.68 E60.91250
G1 X155.25 Y157.02 E60.92928
G1 X155.06 Y157.07 E60.93405
G1 X154.87 Y157.20 E60.93989
G1 X154.75 Y157.35 E60.94455
G1 X154.46 Y157.46 E60.95228
G1 X154.41 Y157.46 E60.95338
G1 X154.03 Y157.61 E60.96366
G1 X153.87 Y157.59 E60.96757
G1 X153.76 Y157.66 E60.97089
G1 X153.62 Y157.60 E60.97448
G1 X153.31 Y157.77 E60.98339
G1 X153.08 Y157.81 E60.98912
G1 X152.92 Y157.76 E60.99339
G1 X152.88 Y157.77 E60.99433
G1 X152.84 Y157.71 E60.99609
G1 X152.52 Y157.74 E61.00419
G1 X152.41 Y157.72 E61.00703
G1 X152.25 Y157.75 E61.01091
G1 X152.14 Y157.74 E61.01372
G1 X152.01 Y157.74 E61.01703
G1 X151.57 Y157.69 E61.02798
G1 X151.34 Y157.75 E61.03401
G1 X151.27 Y157.74 E61.03576
G1 X151.20 Y157.74 E61.03751
G1 X150.96 Y157.69 E61.04344
G1 X150.92 Y157.66 E61.04493
G1 X150.74 Y157.57 E61.04981
G1 X150.41 Y157.54 E61.05818
G1 X150.31 Y157.44 E61.06161
G1 X150.19 Y157.41 E61.06471
G1 X150.16 Y157.39 E61.06566
G1 X150.12 Y157.38 E61.06681
G1 X150.04 Y157.23 E61.07100
G1 X149.74 Y157.24 E61.07841
G1 X149.70 Y157.19 E61.07990
G1 X149.55 Y157.11 E61.08422
G1 X149.52 Y157.00 E61.08712
G1 X149.10 Y156.72 E61.09979
G1 X148.93 Y156.57 E61.10532
G1 X148.74 Y156.34 E61.11289
G1 X148.63 Y156.15 E61.11822
G1 X148.41 Y155.98 E61.12532
G1 X148.31 Y155.96 E61.12776
G1 X148.18 Y155.80 E61.13297
G1 X148.06 Y155.60 E61.13872
G1 X148.03 Y155.46 E61.14228
G1 X147.88 Y155.26 E61.14851
G1 X147.92 Y155.05 E61.15395
G1 X147.80 Y154.93 E61.15811
G1 X147.85 Y154.78 E61.16207
G1 X147.58 Y154.36 E61.17432
G1 X147.52 Y154.31 E61.17647
G1 X147.50 Y154.06 E61.18256
G1 X147.49 Y153.87 E61.18743
G1 X147.40 Y153.74 E61.19131
G1 X147.34 Y153.56 E61.19605
G1 X147.24 Y153.05 E61.20899
G1 X147.23 Y153.03 E61.20957
G1 X147.24 Y152.87 E61.21354
G1 X147.22 Y152.63 E61.21946
G1 X147.11 Y152.47 E61.22436
G1 X147.12 Y152.42 E61.22575
G1 X147.03 Y152.21 E61.23156
G1 X147.02 Y152.15 E61.23306
G1 X147.05 Y152.06 E61.23529
G1 X147.03 Y151.82 E61.24132
G1 X146.98 Y151.67 E61.24532
G1 X146.98 Y151.50 E61.24936
G1 X147.01 Y151.44 E61.25109
G1 X147.09 Y150.97 E61.26287
G1 X146.97 Y150.79 E61.26826
G1 X146.97 Y150.77 E61.26894
G1 X147.06 Y150.68 E61.27215
G1 X147.04 Y150.51 E61.27626
G1 X147.06 Y150.47 E61.27756
G1 X147.03 Y150.31 E61.28147
G1 X147.11 Y150.24 E61.28432
G1 X147.14 Y149.79 E61.29544
G1 X147.26 Y149.41 E61.30537
G1 X147.30 Y149.32 E61.30786
G1 X147.34 Y149.09 E61.31378
G1 X147.31 Y148.94 E61.31749
G1 X147.43 Y148.75 E61.32311
G1 X147.53 Y148.62 E61.32722
G1 X147.58 Y148.49 E61.33066
G1 X147.93 Y148.23 E61.34155
G1 X147.94 Y148.05 E61.34603
G1 X148.07 Y147.93 E61.35037
G1 X148.18 Y147.94 E61.35321
G1 X148.62 Y147.73 E61.36539
G1 X148.66 Y147.61 E61.36857
G1 X148.83 Y147.54 E61.37335
G1 X149.07 Y147.59 E61.37924
G1 X149.34 Y147.40 E61.38754
G1 X149.39 Y147.42 E61.38884
G1 X149.68 Y147.38 E61.39606
G1 X149.75 Y147.34 E61.39809
G1 X149.78 Y147.38 E61.39925
G1 X150.13 Y147.51 E61.40859
G1 X150.53 Y147.47 E61.41853
G1 X150.60 Y147.47 E61.42045
G1 X151.06 Y147.48 E61.43193
G1 X151.32 Y147.43 E61.43859
G1 X151.41 Y147.47 E61.44099
G1 X151.62 Y147.41 E61.44649
G1 X151.66 Y147.46 E61.44822
G1 X152.20 Y147.51 E61.46172
G1 X152.31 Y147.52 E61.46440
G0 F12000 X152.56 Y147.15
;TYPE:WALL-OUTER
G1 F2160 X152.75 Y147.11 E61.46918
G1 X152.80 Y147.01 E61.47199
G1 X152.92 Y147.03 E61.47506
G1 X153.01 Y147.03 E61.47746
G1 X153.08 Y147.04 E61.47917
G1 X153.33 Y147.12 E61.48563
G1 X153.50 Y147.14 E61.48996
G1 X153.72 Y147.10 E61.49556
G1 X153.97 Y147.12 E61.50173
G1 X154.15 Y147.13 E61.50630
G1 X154.32 Y147.13 E61.51047
G1 X154.34 Y147.13 E61.51115
G1 X154.48 Y147.23 E61.51538
G1 X154.58 Y147.21 E61.51776
G1 X154.64 Y147.21 E61.51921
G1 X154.69 Y147.18 E61.52076
G1 X154.76 Y147.19 E61.52239
G1 X154.85 Y147.17 E61.52485
G1 X155.06 Y147.19 E61.53009
G1 X155.20 Y147.22 E61.53358
G1 X155.28 Y147.30 E61.53661
G1 X155.35 Y147.29 E61.53816
G1 X155.41 Y147.31 E61.53975
G1 X155.49 Y147.27 E61.54212
G1 X155.53 Y147.27 E61.54325
G1 X155.54 Y147.28 E61.54353
G1 X155.59 Y147.41 E61.54709
G1 X155.74 Y147.49 E61.55111
G1 X155.87 Y147.50 E61.55446
G1 X156.06 Y147.55 E61.55937
G1 X156.26 Y147.65 E61.56487
G1 X156.36 Y147.73 E61.56815
G1 X156.49 Y147.80 E61.57175
G1 X156.54 Y147.80 E61.57320
G1 X156.59 Y147.81 E61.57426
G1 X156.67 Y147.79 E61.57647
G1 X156.80 Y147.88 E61.58018
G1 X156.94 Y147.91 E61.58378
G1 X157.14 Y148.07 E61.59029
G1 X157.17 Y148.11 E61.59147
G1 X157.18 Y148.18 E61.59340
G1 X157.23 Y148.31 E61.59673
G1 X157.34 Y148.42 E61.60058
G1 X157.50 Y148.69 E61.60851
G1 X157.64 Y148.78 E61.61266
G1 X157.79 Y148.77 E61.61631
G1 X157.81 Y148.77 E61.61687
G1 X157.90 Y148.88 E61.62024
G1 X158.02 Y149.04 E61.62538
G1 X158.02 Y149.07 E61.62590
G1 X157.97 Y149.24 E61.63045
G1 X158.07 Y149.34 E61.63395
G1 X158.09 Y149.40 E61.63558
G1 X158.21 Y149.45 E61.63886
G1 X158.24 Y149.47 E61.63983
G1 X158.26 Y149.50 E61.64054
G1 X158.31 Y149.63 E61.64411
G1 X158.28 Y149.67 E61.64536
G1 X158.24 Y149.71 E61.64685
G1 X158.21 Y149.89 E61.65133
G1 X158.30 Y150.10 E61.65719
G1 X158.40 Y150.41 E61.66521
G1 X158.45 Y150.50 E61.66768
G1 X158.54 Y150.59 E61.67089
G1 X158.58 Y150.61 E61.67200
G1 X158.59 Y150.64 E61.67283
G1 X158.61 Y150.78 E61.67641
G1 X158.62 Y150.87 E61.67871
G1 X158.61 Y150.98 E61.68146
G1 X158.60 Y151.03 E61.68257
G1 X158.55 Y151.53 E61.69524
G1 X158.53 Y151.64 E61.69805
G1 X158.54 Y151.82 E61.70243
G1 X158.56 Y151.91 E61.70475
G1 X158.54 Y152.08 E61.70908
G1 X158.46 Y152.38 E61.71683
G1 X158.43 Y152.41 E61.71803
G1 X158.34 Y152.46 E61.72046
G1 X158.30 Y152.63 E61.72494
G1 X158.35 Y152.73 E61.72780
G1 X158.29 Y152.91 E61.73250
G1 X158.25 Y152.92 E61.73361
G1 X158.12 Y153.12 E61.73937
G1 X158.17 Y153.22 E61.74224
G1 X158.16 Y153.24 E61.74282
G1 X158.10 Y153.25 E61.74435
G1 X157.99 Y153.37 E61.74844
G1 X157.78 Y153.89 E61.76254
G1 X157.64 Y154.18 E61.77061
G1 X157.60 Y154.25 E61.77254
G1 X157.56 Y154.40 E61.77639
G1 X157.60 Y154.46 E61.77846
G1 X157.61 Y154.49 E61.77899
G1 X157.65 Y154.55 E61.78098
G1 X157.64 Y154.60 E61.78216
G1 X157.59 Y154.70 E61.78502
G1 X157.57 Y154.78 E61.78723
G1 X157.48 Y155.02 E61.79343
G1 X157.41 Y155.12 E61.79658
G1 X157.40 Y155.14 E61.79722
G1 X157.26 Y155.41 E61.80467
G1 X157.22 Y155.59 E61.80930
G1 X157.06 Y155.94 E61.81895
G1 X156.90 Y156.04 E61.82353
G1 X156.88 Y156.16 E61.82653
G1 X156.88 Y156.20 E61.82758
G1 X156.80 Y156.33 E61.83147
G1 X156.71 Y156.43 E61.83481
G1 X156.70 Y156.47 E61.83582
G1 X156.63 Y156.56 E61.83861
G1 X156.51 Y156.63 E61.84214
G1 X156.42 Y156.79 E61.84659
G1 X156.38 Y156.83 E61.84815
G1 X156.21 Y156.85 E61.85237
G1 X156.09 Y156.99 E61.85700
G1 X155.65 Y157.25 E61.86983
G1 X155.42 Y157.38 E61.87645
G1 X155.28 Y157.44 E61.88003
G1 X155.22 Y157.45 E61.88173
G1 X155.14 Y157.50 E61.88411
G1 X155.05 Y157.61 E61.88752
G1 X155.04 Y157.65 E61.88861
G1 X154.73 Y157.79 E61.89722
G1 X154.54 Y157.85 E61.90198
G1 X154.52 Y157.85 E61.90263
G1 X154.28 Y157.95 E61.90913
G1 X154.09 Y158.01 E61.91413
G1 X154.04 Y158.01 E61.91515
G1 X153.96 Y158.00 E61.91728
G1 X153.81 Y158.09 E61.92168
G1 X153.77 Y158.10 E61.92262
G1 X153.64 Y158.05 E61.92602
G1 X153.44 Y158.16 E61.93185
G1 X153.04 Y158.21 E61.94185
G1 X152.93 Y158.18 E61.94483
G1 X152.71 Y158.25 E61.95055
G1 X152.63 Y158.13 E61.95412
G1 X152.51 Y158.14 E61.95707
G1 X152.41 Y158.13 E61.95956
G1 X152.26 Y158.15 E61.96339
G1 X152.13 Y158.14 E61.96680
G1 X151.99 Y158.14 E61.97014
G1 X151.60 Y158.09 E61.98006
G1 X151.50 Y158.12 E61.98257
G1 X151.41 Y158.18 E61.98522
G1 X151.40 Y158.18 E61.98557
G1 X151.34 Y158.15 E61.98727
G1 X151.25 Y158.14 E61.98927
G1 X151.16 Y158.14 E61.99169
G1 X150.79 Y158.06 E62.00106
G1 X150.78 Y158.05 E62.00151
G1 X150.71 Y158.00 E62.00371
G1 X150.63 Y157.96 E62.00586
G1 X150.30 Y157.93 E62.01416
G1 X150.19 Y157.89 E62.01714
G1 X150.11 Y157.80 E62.01998
G1 X150.03 Y157.79 E62.02202
G1 X149.98 Y157.76 E62.02336
G1 X149.90 Y157.73 E62.02564
G1 X149.88 Y157.73 E62.02609
G1 X149.84 Y157.71 E62.02717
G1 X149.80 Y157.64 E62.02928
G1 X149.65 Y157.64 E62.03295
G1 X149.63 Y157.64 E62.03355
G1 X149.58 Y157.64 E62.03486
G1 X149.52 Y157.61 E62.03660
G1 X149.51 Y157.58 E62.03736
G1 X149.45 Y157.51 E62.03960
G1 X149.32 Y157.44 E62.04313
G1 X149.28 Y157.45 E62.04430
G1 X149.22 Y157.44 E62.04565
G1 X149.21 Y157.43 E62.04605
G1 X149.17 Y157.24 E62.05086
G1 X148.86 Y157.03 E62.06024
G1 X148.65 Y156.85 E62.06726
G1 X148.40 Y156.57 E62.07647
G1 X148.32 Y156.42 E62.08073
G1 X148.24 Y156.35 E62.08335
G1 X148.08 Y156.32 E62.08747
G1 X148.06 Y156.31 E62.08785
G1 X148.05 Y156.30 E62.08831
G1 X148.01 Y156.25 E62.08982
G1 X147.99 Y156.20 E62.09127
G1 X147.85 Y156.03 E62.09680
G1 X147.69 Y155.75 E62.10485
G1 X147.66 Y155.64 E62.10779
G1 X147.53 Y155.47 E62.11320
G1 X147.46 Y155.31 E62.11733
G1 X147.49 Y155.18 E62.12074
G1 X147.34 Y155.03 E62.12580
G1 X147.36 Y155.01 E62.12654
G1 X147.41 Y154.84 E62.13094
G1 X147.28 Y154.63 E62.13724
G1 X147.13 Y154.50 E62.14196
G1 X147.12 Y154.31 E62.14665
G1 X147.04 Y154.27 E62.14892
G1 X147.02 Y154.25 E62.14951
G1 X147.10 Y154.16 E62.15236
G1 X147.09 Y154.00 E62.15643
G1 X147.04 Y153.92 E62.15875
G1 X146.95 Y153.67 E62.16542
G1 X146.84 Y153.11 E62.17951
G1 X146.83 Y153.05 E62.18104
G1 X146.84 Y152.88 E62.18538
G1 X146.83 Y152.77 E62.18813
G1 X146.74 Y152.64 E62.19195
G1 X146.69 Y152.61 E62.19353
G1 X146.68 Y152.59 E62.19408
G1 X146.68 Y152.54 E62.19533
G1 X146.70 Y152.45 E62.19753
G1 X146.64 Y152.33 E62.20097
G1 X146.63 Y152.28 E62.20220
G1 X146.62 Y152.12 E62.20637
G1 X146.62 Y152.09 E62.20696
G1 X146.64 Y152.02 E62.20875
G1 X146.63 Y151.90 E62.21191
G1 X146.58 Y151.74 E62.21597
G1 X146.58 Y151.67 E62.21770
G1 X146.58 Y151.41 E62.22416
G1 X146.62 Y151.32 E62.22655
G1 X146.67 Y151.06 E62.23316
G1 X146.58 Y150.93 E62.23713
G1 X146.56 Y150.87 E62.23884
G1 X146.58 Y150.59 E62.24568
G1 X146.64 Y150.53 E62.24788
G1 X146.63 Y150.46 E62.24969
G1 X146.65 Y150.43 E62.25042
G1 X146.62 Y150.32 E62.25328
G1 X146.59 Y150.27 E62.25466
G1 X146.60 Y150.16 E62.25738
G1 X146.72 Y150.05 E62.26161
G1 X146.75 Y149.72 E62.26985
G1 X146.88 Y149.27 E62.28164
G1 X146.91 Y149.20 E62.28354
G1 X146.93 Y149.09 E62.28620
G1 X146.92 Y149.02 E62.28808
G1 X146.88 Y148.93 E62.29049
G1 X146.88 Y148.92 E62.29079
G1 X146.91 Y148.83 E62.29309
G1 X147.09 Y148.52 E62.30207
G1 X147.18 Y148.42 E62.30543
G1 X147.25 Y148.25 E62.31005
G1 X147.35 Y148.13 E62.31391
G1 X147.40 Y148.12 E62.31531
G1 X147.55 Y148.01 E62.31977
G1 X147.56 Y147.87 E62.32340
G1 X147.81 Y147.62 E62.33238
G1 X147.94 Y147.51 E62.33653
G1 X147.97 Y147.51 E62.33716
G1 X148.12 Y147.53 E62.34084
G1 X148.28 Y147.45 E62.34549
G1 X148.30 Y147.38 E62.34727
G1 X148.33 Y147.35 E62.34821
G1 X148.34 Y147.25 E62.35079
G1 X148.40 Y147.22 E62.35235
G1 X148.54 Y147.23 E62.35584
G1 X148.68 Y147.17 E62.35964
G1 X148.76 Y147.09 E62.36243
G1 X148.81 Y147.13 E62.36397
G1 X148.98 Y147.16 E62.36840
G1 X149.08 Y147.09 E62.37146
G1 X149.13 Y147.04 E62.37336
G1 X149.16 Y146.98 E62.37492
G1 X149.33 Y146.97 E62.37900
G1 X149.43 Y147.01 E62.38184
G1 X149.56 Y146.99 E62.38512
G1 X149.66 Y146.94 E62.38781
G1 X149.80 Y146.94 E62.39118
G1 X149.97 Y146.96 E62.39561
G1 X150.03 Y147.05 E62.39822
G1 X150.18 Y147.10 E62.40216
G1 X150.50 Y147.07 E62.41011
G1 X150.60 Y147.06 E62.41278
G1 X151.03 Y147.08 E62.42339
G1 X151.22 Y147.04 E62.42810
G1 X151.27 Y146.97 E62.43032
G1 X151.32 Y146.97 E62.43164
G1 X151.45 Y147.04 E62.43519
G1 X151.62 Y146.99 E62.43961
G1 X151.66 Y146.96 E62.44078
G1 X151.71 Y146.96 E62.44218
G1 X151.79 Y146.96 E62.44403
G1 X151.88 Y147.08 E62.44774
G1 X152.56 Y147.15 E62.46488
G0 F12000 X152.38 Y147.67
;TYPE:FILL
G1 F2160 X157.62 Y152.91 E62.64967
G0 F12000 X157.23 Y149.15
G1 F2160 X149.54 Y156.84 E62.92095
G0 F12000 X152.86 Y157.57
G1 F2160 X147.17 Y151.88 E63.12158
G0 F12000 X147.34 Y149.61
G1 F2160 X149.39 Y147.56 E63.19397
;LAYER:8
G0 F12000 X149.30 Y147.46 Z1.45
;TYPE:WALL-INNER
G1 F2340 X149.33 Y147.42 E63.19530
G1 X149.43 Y147.43 E63.19790
G1 X149.62 Y147.36 E63.20288
G1 X149.68 Y147.36 E63.20452
G1 X149.84 Y147.50 E63.20983
G1 X150.13 Y147.51 E63.21694
G1 X150.45 Y147.47 E63.22504
G1 X150.57 Y147.48 E63.22811
G1 X150.77 Y147.55 E63.23340
G1 X151.01 Y147.44 E63.24000
G1 X151.16 Y147.43 E63.24355
G1 X151.24 Y147.48 E63.24602
G1 X151.42 Y147.47 E63.25055
G1 X151.57 Y147.49 E63.25428
G1 X151.67 Y147.43 E63.25710
G1 X151.84 Y147.50 E63.26187
G1 X152.16 Y147.52 E63.26961
G1 X152.37 Y147.51 E63.27485
G1 X152.70 Y147.57 E63.28324
G1 X152.97 Y147.54 E63.29001
G1 X153.00 Y147.51 E63.29124
G1 X153.18 Y147.47 E63.29566
G1 X153.40 Y147.50 E63.30124
G1 X153.70 Y147.60 E63.30915
G1 X153.94 Y147.60 E63.31507
G1 X153.97 Y147.61 E63.31588
G1 X154.18 Y147.61 E63.32125
G1 X154.34 Y147.61 E63.32504
G1 X154.53 Y147.64 E63.32988
G1 X154.60 Y147.63 E63.33169
G1 X154.71 Y147.64 E63.33434
G1 X154.88 Y147.57 E63.33884
G1 X155.00 Y147.59 E63.34187
G1 X155.14 Y147.74 E63.34707
G1 X155.31 Y147.71 E63.35144
G1 X155.46 Y147.83 E63.35616
G1 X155.83 Y147.90 E63.36555
G1 X156.18 Y148.04 E63.37495
G1 X156.36 Y148.21 E63.38123
G1 X156.69 Y148.30 E63.38990
G1 X156.83 Y148.39 E63.39390
G1 X156.87 Y148.39 E63.39492
G1 X156.98 Y148.66 E63.40214
G1 X157.27 Y149.07 E63.41462
G1 X157.38 Y149.11 E63.41767
G1 X157.43 Y149.14 E63.41910
G1 X157.47 Y149.15 E63.42019
