; Generated by Spark Print Studio Date: 2015 03 16 Time: 17 33
; --------------------------------
M136; Start Print
; home Z
G161 Z F900; home Z axis minimum
G92 X0.000 Y0.000 Z-5.000 A0 B0; set Z to -5
G1 Z0.0 F900; move Z to '0'
G161 Z F100; home Z axis minimum
M132 Z A B; Recall stored home offsets for XYZAB axis
G92 X0.000 Y0.000 Z0.000 A0 B0; Set coordinates
G1 X0.000 Y0.000 Z10.000 F1800.000; lower build plate before homing
G162 X Y F2000; home XY
M132 X Y A B; Recall stored home offsets for XYZAB axis
G92 X0.000 Y0.000 Z10.000 A0 B0; Set coordinates
M104 S220 T0; wait for nozzle to reach temperature
M133 T0; Wait for nozzle to reach temperature
; --------------------------------
G92 A0 B0; reset extrusion distance
M127 T0; turn off fan
M73 P0; Display Progress
; rapid-dry
G1 A-0.500 F2400.000; retract filament
G1 X107.306 Y25.000 Z0.300 F5400.000; rapid
G1 A0.000 F2400.000; engage filament
; bead-prime
G1 X107.306 Y125.000 Z0.300 F4800.000 A8.531
; rapid-dry
G1 A8.031 F2400.000; retract filament
G1 X128.063 Y98.058 Z0.300 F5400.000; rapid
G1 A8.531 F2400.000; engage filament
; bead-skirt/brim
G1 X126.278 Y95.803 Z0.300 F4200.000 A8.654
G1 X125.054 Y92.681 Z0.300 F4200.000 A8.797
G1 X125.082 Y89.353 Z0.300 F4200.000 A8.939
G1 X126.051 Y86.856 Z0.300 F4200.000 A9.053
G1 X126.071 Y86.805 Z0.300 F4200.000 A9.055
G1 X126.101 Y86.765 Z0.300 F4200.000 A9.058
G1 X125.946 Y86.761 Z0.300 F4200.000 A9.064
G1 X123.780 Y86.241 Z0.300 F4200.000 A9.159
G1 X121.599 Y85.126 Z0.300 F4200.000 A9.264
G1 X119.530 Y83.404 Z0.300 F4200.000 A9.379
G1 X117.878 Y80.449 Z0.300 F4200.000 A9.523
G1 X117.306 Y77.885 Z0.300 F4200.000 A9.635
G1 X117.378 Y75.512 Z0.300 F4200.000 A9.736
G1 X117.945 Y73.045 Z0.300 F4200.000 A9.844
G1 X119.315 Y70.748 Z0.300 F4200.000 A9.958
G1 X121.260 Y68.823 Z0.300 F4200.000 A10.075
G1 X123.988 Y67.568 Z0.300 F4200.000 A10.203
G1 X127.511 Y67.125 Z0.300 F4200.000 A10.355
G1 X127.603 Y67.125 Z0.300 F4200.000 A10.359
G1 X127.862 Y67.215 Z0.300 F4200.000 A10.370
G1 X128.164 Y67.321 Z0.300 F4200.000 A10.384
G1 X129.828 Y67.901 Z0.300 F4200.000 A10.459
G1 X130.878 Y68.215 Z0.300 F4200.000 A10.506
G1 X130.970 Y68.215 Z0.300 F4200.000 A10.510
G1 X131.017 Y68.256 Z0.300 F4200.000 A10.512
G1 X131.038 Y68.262 Z0.300 F4200.000 A10.513
G1 X131.080 Y68.308 Z0.300 F4200.000 A10.516
G1 X131.083 Y68.308 Z0.300 F4200.000 A10.516
G1 X131.140 Y68.359 Z0.300 F4200.000 A10.519
G1 X131.147 Y68.361 Z0.300 F4200.000 A10.520
G1 X131.402 Y68.591 Z0.300 F4200.000 A10.534
G1 X132.603 Y69.636 Z0.300 F4200.000 A10.602
G1 X132.666 Y69.593 Z0.300 F4200.000 A10.605
G1 X131.432 Y66.656 Z0.300 F4200.000 A10.741
G1 X131.363 Y65.585 Z0.300 F4200.000 A10.787
G1 X128.455 Y64.251 Z0.300 F4200.000 A10.924
G1 X126.186 Y61.426 Z0.300 F4200.000 A11.078
G1 X125.074 Y58.571 Z0.300 F4200.000 A11.209
G1 X125.077 Y55.738 Z0.300 F4200.000 A11.330
G1 X125.931 Y52.585 Z0.300 F4200.000 A11.469
G1 X127.744 Y50.371 Z0.300 F4200.000 A11.591
G1 X129.705 Y48.778 Z0.300 F4200.000 A11.699
G1 X132.200 Y47.789 Z0.300 F4200.000 A11.813
G1 X134.828 Y47.367 Z0.300 F4200.000 A11.927
G1 X137.986 Y47.872 Z0.300 F4200.000 A12.063
G1 X140.695 Y49.164 Z0.300 F4200.000 A12.191
G1 X141.794 Y50.171 Z0.300 F4200.000 A12.255
G1 X142.358 Y46.348 Z0.300 F4200.000 A12.420
G1 X145.071 Y42.892 Z0.300 F4200.000 A12.607
G1 X148.095 Y40.821 Z0.300 F4200.000 A12.764
G1 X152.146 Y40.044 Z0.300 F4200.000 A12.939
G1 X156.259 Y41.165 Z0.300 F4200.000 A13.121
G1 X158.657 Y42.964 Z0.300 F4200.000 A13.249
G1 X158.698 Y43.005 Z0.300 F4200.000 A13.252
G1 X158.813 Y43.159 Z0.300 F4200.000 A13.260
G1 X159.277 Y43.785 Z0.300 F4200.000 A13.293
G1 X159.351 Y43.885 Z0.300 F4200.000 A13.298
G1 X159.905 Y44.601 Z0.300 F4200.000 A13.337
G1 X160.410 Y45.254 Z0.300 F4200.000 A13.372
G1 X160.949 Y47.024 Z0.300 F4200.000 A13.451
G1 X161.200 Y47.847 Z0.300 F4200.000 A13.488
G1 X161.252 Y48.008 Z0.300 F4200.000 A13.495
G1 X161.252 Y48.012 Z0.300 F4200.000 A13.495
G1 X161.253 Y48.017 Z0.300 F4200.000 A13.495
G1 X161.253 Y48.022 Z0.300 F4200.000 A13.496
G1 X161.277 Y48.098 Z0.300 F4200.000 A13.499
G1 X161.284 Y48.845 Z0.300 F4200.000 A13.531
G1 X161.354 Y50.733 Z0.300 F4200.000 A13.612
G1 X161.362 Y50.945 Z0.300 F4200.000 A13.621
G1 X163.305 Y49.164 Z0.300 F4200.000 A13.733
G1 X166.014 Y47.872 Z0.300 F4200.000 A13.861
G1 X169.172 Y47.367 Z0.300 F4200.000 A13.997
G1 X171.800 Y47.789 Z0.300 F4200.000 A14.111
G1 X174.295 Y48.778 Z0.300 F4200.000 A14.225
G1 X176.256 Y50.371 Z0.300 F4200.000 A14.333
G1 X178.069 Y52.585 Z0.300 F4200.000 A14.455
G1 X178.923 Y55.738 Z0.300 F4200.000 A14.595
G1 X178.926 Y58.571 Z0.300 F4200.000 A14.716
G1 X177.814 Y61.426 Z0.300 F4200.000 A14.846
G1 X175.545 Y64.251 Z0.300 F4200.000 A15.001
G1 X172.632 Y65.587 Z0.300 F4200.000 A15.137
G1 X172.559 Y66.768 Z0.300 F4200.000 A15.188
G1 X171.417 Y69.618 Z0.300 F4200.000 A15.319
G1 X172.598 Y68.591 Z0.300 F4200.000 A15.386
G1 X172.853 Y68.361 Z0.300 F4200.000 A15.400
G1 X172.860 Y68.359 Z0.300 F4200.000 A15.401
G1 X172.917 Y68.308 Z0.300 F4200.000 A15.404
G1 X172.920 Y68.308 Z0.300 F4200.000 A15.404
G1 X172.962 Y68.262 Z0.300 F4200.000 A15.407
G1 X172.983 Y68.256 Z0.300 F4200.000 A15.408
G1 X173.030 Y68.215 Z0.300 F4200.000 A15.410
G1 X173.122 Y68.215 Z0.300 F4200.000 A15.414
G1 X174.172 Y67.901 Z0.300 F4200.000 A15.461
G1 X175.836 Y67.321 Z0.300 F4200.000 A15.536
G1 X176.138 Y67.215 Z0.300 F4200.000 A15.550
G1 X176.397 Y67.125 Z0.300 F4200.000 A15.561
G1 X176.489 Y67.125 Z0.300 F4200.000 A15.565
G1 X180.012 Y67.568 Z0.300 F4200.000 A15.717
G1 X182.740 Y68.823 Z0.300 F4200.000 A15.845
G1 X184.685 Y70.748 Z0.300 F4200.000 A15.962
G1 X186.055 Y73.045 Z0.300 F4200.000 A16.076
G1 X186.622 Y75.512 Z0.300 F4200.000 A16.184
G1 X186.694 Y77.885 Z0.300 F4200.000 A16.285
G1 X186.122 Y80.449 Z0.300 F4200.000 A16.397
G1 X184.470 Y83.404 Z0.300 F4200.000 A16.541
G1 X182.401 Y85.126 Z0.300 F4200.000 A16.656
G1 X180.220 Y86.241 Z0.300 F4200.000 A16.761
G1 X178.054 Y86.761 Z0.300 F4200.000 A16.856
G1 X177.909 Y86.765 Z0.300 F4200.000 A16.862
G1 X178.918 Y89.346 Z0.300 F4200.000 A16.980
G1 X178.946 Y92.681 Z0.300 F4200.000 A17.122
G1 X177.722 Y95.803 Z0.300 F4200.000 A17.265
G1 X175.937 Y98.058 Z0.300 F4200.000 A17.388
G1 X172.928 Y99.981 Z0.300 F4200.000 A17.540
G1 X169.870 Y100.523 Z0.300 F4200.000 A17.673
G1 X166.945 Y100.426 Z0.300 F4200.000 A17.798
G1 X163.841 Y98.920 Z0.300 F4200.000 A17.945
G1 X162.075 Y97.351 Z0.300 F4200.000 A18.046
G1 X162.307 Y99.175 Z0.300 F4200.000 A18.124
G1 X161.640 Y103.655 Z0.300 F4200.000 A18.317
G1 X158.929 Y107.107 Z0.300 F4200.000 A18.505
G1 X155.906 Y109.179 Z0.300 F4200.000 A18.661
G1 X151.854 Y109.956 Z0.300 F4200.000 A18.837
G1 X147.741 Y108.835 Z0.300 F4200.000 A19.019
G1 X145.319 Y107.018 Z0.300 F4200.000 A19.148
G1 X144.917 Y106.477 Z0.300 F4200.000 A19.177
G1 X144.636 Y106.097 Z0.300 F4200.000 A19.197
G1 X143.609 Y104.742 Z0.300 F4200.000 A19.269
G1 X143.586 Y104.668 Z0.300 F4200.000 A19.273
G1 X143.548 Y104.618 Z0.300 F4200.000 A19.275
G1 X142.983 Y102.754 Z0.300 F4200.000 A19.358
G1 X142.906 Y102.501 Z0.300 F4200.000 A19.370
G1 X142.842 Y102.304 Z0.300 F4200.000 A19.378
G1 X142.841 Y102.287 Z0.300 F4200.000 A19.379
G1 X142.836 Y102.270 Z0.300 F4200.000 A19.380
G1 X142.831 Y102.254 Z0.300 F4200.000 A19.381
G1 X142.828 Y102.245 Z0.300 F4200.000 A19.381
G1 X142.821 Y102.221 Z0.300 F4200.000 A19.382
G1 X142.747 Y101.983 Z0.300 F4200.000 A19.393
G1 X142.746 Y101.974 Z0.300 F4200.000 A19.393
G1 X142.738 Y101.946 Z0.300 F4200.000 A19.394
G1 X142.715 Y101.122 Z0.300 F4200.000 A19.430
G1 X142.666 Y99.803 Z0.300 F4200.000 A19.486
G1 X142.623 Y99.199 Z0.300 F4200.000 A19.512
G1 X142.577 Y98.544 Z0.300 F4200.000 A19.540
G1 X142.577 Y98.437 Z0.300 F4200.000 A19.544
G1 X143.338 Y96.892 Z0.300 F4200.000 A19.618
G1 X143.590 Y96.359 Z0.300 F4200.000 A19.643
G1 X144.155 Y95.223 Z0.300 F4200.000 A19.697
G1 X143.823 Y94.646 Z0.300 F4200.000 A19.725
G1 X142.615 Y96.737 Z0.300 F4200.000 A19.828
G1 X140.159 Y98.920 Z0.300 F4200.000 A19.969
G1 X137.055 Y100.426 Z0.300 F4200.000 A20.116
G1 X134.130 Y100.523 Z0.300 F4200.000 A20.241
G1 X131.072 Y99.981 Z0.300 F4200.000 A20.373
G1 X128.063 Y98.058 Z0.300 F4200.000 A20.525
; bead-skirt_brim
; rapid-wet
G1 X128.335 Y97.757 Z0.300 F5400.000
; bead-skirt/brim
G1 X126.629 Y95.602 Z0.300 F4200.000 A20.643
G1 X125.455 Y92.607 Z0.300 F4200.000 A20.780
G1 X125.481 Y89.429 Z0.300 F4200.000 A20.915
G1 X126.423 Y87.002 Z0.300 F4200.000 A21.026
G1 X126.423 Y87.002 Z0.300 F4200.000 A21.026
G1 X126.514 Y86.880 Z0.300 F4200.000 A21.033
G1 X126.541 Y86.812 Z0.300 F4200.000 A21.036
G1 X126.583 Y86.707 Z0.300 F4200.000 A21.041
G1 X126.583 Y86.707 Z0.300 F4200.000 A21.041
G1 X126.583 Y86.707 Z0.300 F4200.000 A21.041
G1 X126.583 Y86.707 Z0.300 F4200.000 A21.041
G1 X126.583 Y86.707 Z0.300 F4200.000 A21.041
G1 X126.848 Y86.384 Z0.300 F4200.000 A21.059
G1 X125.999 Y86.362 Z0.300 F4200.000 A21.095
G1 X123.919 Y85.864 Z0.300 F4200.000 A21.186
G1 X121.821 Y84.790 Z0.300 F4200.000 A21.287
G1 X119.842 Y83.144 Z0.300 F4200.000 A21.397
G1 X118.255 Y80.305 Z0.300 F4200.000 A21.535
G1 X117.707 Y77.847 Z0.300 F4200.000 A21.643
G1 X117.777 Y75.563 Z0.300 F4200.000 A21.740
G1 X118.321 Y73.196 Z0.300 F4200.000 A21.844
G1 X119.632 Y70.997 Z0.300 F4200.000 A21.953
G1 X121.491 Y69.157 Z0.300 F4200.000 A22.065
G1 X124.099 Y67.957 Z0.300 F4200.000 A22.187
G1 X127.536 Y67.525 Z0.300 F4200.000 A22.335
G1 X127.536 Y67.525 Z0.300 F4200.000 A22.335
G1 X127.730 Y67.593 Z0.300 F4200.000 A22.344
G1 X128.033 Y67.699 Z0.300 F4200.000 A22.357
G1 X129.705 Y68.282 Z0.300 F4200.000 A22.433
G1 X130.820 Y68.615 Z0.300 F4200.000 A22.482
G1 X130.820 Y68.615 Z0.300 F4200.000 A22.482
G1 X130.820 Y68.615 Z0.300 F4200.000 A22.482
G1 X130.873 Y68.661 Z0.300 F4200.000 A22.485
G1 X130.880 Y68.663 Z0.300 F4200.000 A22.486
G1 X130.933 Y68.710 Z0.300 F4200.000 A22.489
G1 X130.939 Y68.713 Z0.300 F4200.000 A22.489
G1 X131.136 Y68.890 Z0.300 F4200.000 A22.500
G1 X132.572 Y70.139 Z0.300 F4200.000 A22.581
G1 X133.162 Y69.742 Z0.300 F4200.000 A22.612
G1 X131.827 Y66.564 Z0.300 F4200.000 A22.759
G1 X131.747 Y65.321 Z0.300 F4200.000 A22.812
G1 X128.707 Y63.927 Z0.300 F4200.000 A22.955
G1 X126.536 Y61.224 Z0.300 F4200.000 A23.103
G1 X125.474 Y58.496 Z0.300 F4200.000 A23.227
G1 X125.477 Y55.792 Z0.300 F4200.000 A23.343
G1 X126.295 Y52.773 Z0.300 F4200.000 A23.476
G1 X128.028 Y50.656 Z0.300 F4200.000 A23.593
G1 X129.910 Y49.128 Z0.300 F4200.000 A23.696
G1 X132.306 Y48.177 Z0.300 F4200.000 A23.806
G1 X134.828 Y47.772 Z0.300 F4200.000 A23.915
G1 X137.866 Y48.258 Z0.300 F4200.000 A24.046
G1 X140.468 Y49.499 Z0.300 F4200.000 A24.169
G1 X142.118 Y51.011 Z0.300 F4200.000 A24.265
G1 X142.098 Y50.851 Z0.300 F4200.000 A24.272
G1 X142.738 Y46.511 Z0.300 F4200.000 A24.459
G1 X145.348 Y43.187 Z0.300 F4200.000 A24.639
G1 X148.252 Y41.198 Z0.300 F4200.000 A24.789
G1 X152.130 Y40.455 Z0.300 F4200.000 A24.958
G1 X156.080 Y41.531 Z0.300 F4200.000 A25.132
G1 X158.394 Y43.267 Z0.300 F4200.000 A25.256
G1 X158.394 Y43.267 Z0.300 F4200.000 A25.256
G1 X158.491 Y43.398 Z0.300 F4200.000 A25.263
G1 X158.956 Y44.024 Z0.300 F4200.000 A25.296
G1 X159.032 Y44.126 Z0.300 F4200.000 A25.301
G1 X159.589 Y44.846 Z0.300 F4200.000 A25.340
G1 X160.049 Y45.441 Z0.300 F4200.000 A25.372
G1 X160.567 Y47.141 Z0.300 F4200.000 A25.448
G1 X160.818 Y47.965 Z0.300 F4200.000 A25.485
G1 X160.818 Y47.966 Z0.300 F4200.000 A25.485
G1 X160.854 Y48.077 Z0.300 F4200.000 A25.490
G1 X160.854 Y48.080 Z0.300 F4200.000 A25.490
G1 X160.856 Y48.086 Z0.300 F4200.000 A25.490
G1 X160.856 Y48.089 Z0.300 F4200.000 A25.490
G1 X160.877 Y48.160 Z0.300 F4200.000 A25.494
G1 X160.884 Y48.855 Z0.300 F4200.000 A25.523
G1 X160.954 Y50.748 Z0.300 F4200.000 A25.604
G1 X160.984 Y51.549 Z0.300 F4200.000 A25.638
G1 X160.571 Y52.388 Z0.300 F4200.000 A25.678
G1 X160.302 Y52.935 Z0.300 F4200.000 A25.704
G1 X160.156 Y53.243 Z0.300 F4200.000 A25.719
G1 X160.361 Y53.468 Z0.300 F4200.000 A25.732
G1 X161.420 Y51.434 Z0.300 F4200.000 A25.829
G1 X163.532 Y49.499 Z0.300 F4200.000 A25.952
G1 X166.134 Y48.258 Z0.300 F4200.000 A26.075
G1 X169.172 Y47.772 Z0.300 F4200.000 A26.206
G1 X171.694 Y48.177 Z0.300 F4200.000 A26.315
G1 X174.090 Y49.128 Z0.300 F4200.000 A26.425
G1 X175.972 Y50.656 Z0.300 F4200.000 A26.528
G1 X177.705 Y52.773 Z0.300 F4200.000 A26.645
G1 X178.523 Y55.792 Z0.300 F4200.000 A26.778
G1 X178.526 Y58.496 Z0.300 F4200.000 A26.894
G1 X177.464 Y61.224 Z0.300 F4200.000 A27.018
G1 X175.292 Y63.927 Z0.300 F4200.000 A27.166
G1 X172.248 Y65.323 Z0.300 F4200.000 A27.309
G1 X172.164 Y66.679 Z0.300 F4200.000 A27.367
G1 X170.916 Y69.794 Z0.300 F4200.000 A27.510
G1 X171.428 Y70.139 Z0.300 F4200.000 A27.537
G1 X172.864 Y68.890 Z0.300 F4200.000 A27.618
G1 X173.061 Y68.713 Z0.300 F4200.000 A27.629
G1 X173.067 Y68.710 Z0.300 F4200.000 A27.629
G1 X173.120 Y68.663 Z0.300 F4200.000 A27.632
G1 X173.127 Y68.661 Z0.300 F4200.000 A27.633
G1 X173.180 Y68.615 Z0.300 F4200.000 A27.636
G1 X173.180 Y68.615 Z0.300 F4200.000 A27.636
G1 X173.180 Y68.615 Z0.300 F4200.000 A27.636
G1 X174.295 Y68.282 Z0.300 F4200.000 A27.685
G1 X175.967 Y67.699 Z0.300 F4200.000 A27.761
G1 X176.270 Y67.593 Z0.300 F4200.000 A27.775
G1 X176.464 Y67.525 Z0.300 F4200.000 A27.783
G1 X176.464 Y67.525 Z0.300 F4200.000 A27.783
G1 X179.901 Y67.957 Z0.300 F4200.000 A27.931
G1 X182.509 Y69.157 Z0.300 F4200.000 A28.054
G1 X184.368 Y70.997 Z0.300 F4200.000 A28.165
G1 X185.679 Y73.196 Z0.300 F4200.000 A28.274
G1 X186.223 Y75.563 Z0.300 F4200.000 A28.378
G1 X186.293 Y77.847 Z0.300 F4200.000 A28.475
G1 X185.745 Y80.305 Z0.300 F4200.000 A28.583
G1 X184.158 Y83.144 Z0.300 F4200.000 A28.722
G1 X182.179 Y84.790 Z0.300 F4200.000 A28.831
G1 X180.081 Y85.864 Z0.300 F4200.000 A28.932
G1 X178.001 Y86.362 Z0.300 F4200.000 A29.023
G1 X177.192 Y86.383 Z0.300 F4200.000 A29.058
G1 X177.462 Y86.719 Z0.300 F4200.000 A29.076
G1 X178.519 Y89.423 Z0.300 F4200.000 A29.200
G1 X178.545 Y92.607 Z0.300 F4200.000 A29.336
G1 X177.371 Y95.602 Z0.300 F4200.000 A29.473
G1 X175.665 Y97.757 Z0.300 F4200.000 A29.590
G1 X172.780 Y99.602 Z0.300 F4200.000 A29.736
G1 X169.841 Y100.122 Z0.300 F4200.000 A29.864
G1 X167.043 Y100.029 Z0.300 F4200.000 A29.983
G1 X164.065 Y98.585 Z0.300 F4200.000 A30.124
G1 X161.699 Y96.481 Z0.300 F4200.000 A30.259
G1 X161.523 Y96.176 Z0.300 F4200.000 A30.274
G1 X161.903 Y99.171 Z0.300 F4200.000 A30.403
G1 X161.260 Y103.491 Z0.300 F4200.000 A30.589
G1 X158.653 Y106.812 Z0.300 F4200.000 A30.769
G1 X155.749 Y108.802 Z0.300 F4200.000 A30.920
G1 X151.870 Y109.545 Z0.300 F4200.000 A31.088
G1 X147.920 Y108.469 Z0.300 F4200.000 A31.263
G1 X145.606 Y106.733 Z0.300 F4200.000 A31.386
G1 X145.239 Y106.239 Z0.300 F4200.000 A31.412
G1 X144.956 Y105.857 Z0.300 F4200.000 A31.433
G1 X143.970 Y104.556 Z0.300 F4200.000 A31.502
G1 X143.947 Y104.484 Z0.300 F4200.000 A31.505
G1 X143.911 Y104.435 Z0.300 F4200.000 A31.508
G1 X143.366 Y102.638 Z0.300 F4200.000 A31.588
G1 X143.288 Y102.382 Z0.300 F4200.000 A31.600
G1 X143.238 Y102.227 Z0.300 F4200.000 A31.606
G1 X143.237 Y102.214 Z0.300 F4200.000 A31.607
G1 X143.219 Y102.154 Z0.300 F4200.000 A31.610
G1 X143.214 Y102.138 Z0.300 F4200.000 A31.610
G1 X143.211 Y102.129 Z0.300 F4200.000 A31.611
G1 X143.203 Y102.103 Z0.300 F4200.000 A31.612
G1 X143.144 Y101.914 Z0.300 F4200.000 A31.620
G1 X143.144 Y101.908 Z0.300 F4200.000 A31.621
G1 X143.136 Y101.881 Z0.300 F4200.000 A31.622
G1 X143.115 Y101.109 Z0.300 F4200.000 A31.655
G1 X143.066 Y99.781 Z0.300 F4200.000 A31.711
G1 X143.022 Y99.171 Z0.300 F4200.000 A31.738
G1 X142.977 Y98.530 Z0.300 F4200.000 A31.765
G1 X142.977 Y98.530 Z0.300 F4200.000 A31.765
G1 X143.698 Y97.065 Z0.300 F4200.000 A31.835
G1 X143.950 Y96.533 Z0.300 F4200.000 A31.860
G1 X144.609 Y95.209 Z0.300 F4200.000 A31.923
G1 X143.801 Y93.806 Z0.300 F4200.000 A31.992
G1 X143.772 Y93.710 Z0.300 F4200.000 A31.996
G1 X143.583 Y94.262 Z0.300 F4200.000 A32.021
G1 X142.301 Y96.481 Z0.300 F4200.000 A32.130
G1 X139.935 Y98.585 Z0.300 F4200.000 A32.265
G1 X136.957 Y100.029 Z0.300 F4200.000 A32.407
G1 X134.159 Y100.122 Z0.300 F4200.000 A32.526
